;Header Start
;header_type: cnc
;tool_head: standardCNCToolheadForSM2
;machine: 
;estimated_time(s): 1658
;max_x(mm): 142
;max_y(mm): 68.50000000000001
;max_z(mm): 334
;max_b(mm): 0
;min_x(mm): 5
;min_y(mm): 5
;min_b(mm): 0
;min_z(mm): -9.25
;work_speed(mm/minute): 300
;jog_speed(mm/minute): 119695
;work_size_x: 320
;work_size_x: 350
;Header End

;Program
; -> Name        : fusion360_calebedits_exported_file
;Machine
; -> Vendor      : Snapmaker
; -> Vendor URL  : http://www.snapmaker.com
; -> Description : Snapmaker 2.0 (Marlin)
;Post-Processor
; -> Author      : Nuno Vaz Oliveira
; -> Version     : v20230108.1
; -> Description : Milling post for Snapmaker 2.0v20230108.1, created by Nuno Vaz Oliveira
;Estiamted Machining Time
; -> 0h  20min  17sec     : Operation 01_Parallel
; -> 0h  7min  21sec     : Operation 02_2D Contour2
; -> 0h  27min  38sec     : Total

;Set units to millimeters
G21
;Set working units as absolute positioning system
G90

;Parameter "operation:tool_clockwise" read successfully with a value of CW
;Parameter "operation:retractHeight_value" read successfully with a value of 5

;Operation name: 01_Parallel
;Raize Z axis to safe position
G0 Z15.000
;Set tool speed to 12000RPM, or 100% in CW direction
M3 P100
;Dwell for 2 seconds to allow the spindle to spin up
G4 S2
G0 X4.318 Y3.661 Z15.000
G1 X4.318 Y3.661 Z15.000 F300
G1 X4.318 Y3.661 Z0.977 F300
G1 X4.318 Y3.661 Z-2.236 F300
G1 X4.325 Y3.661 Z-2.304 F300
G1 X4.347 Y3.661 Z-2.370 F300
G1 X4.383 Y3.661 Z-2.429 F300
G1 X4.431 Y3.661 Z-2.479 F300
G1 X4.488 Y3.661 Z-2.517 F300
G1 X4.552 Y3.661 Z-2.542 F300
G1 X4.620 Y3.661 Z-2.553 F300
G1 X4.689 Y3.661 Z-2.549 F300
G1 X4.755 Y3.661 Z-2.530 F300
G1 X4.815 Y3.661 Z-2.497 F300
G1 X4.868 Y3.661 Z-2.452 F300
G1 X4.909 Y3.661 Z-2.397 F300
G1 X4.937 Y3.661 Z-2.335 F300
G1 X4.939 Y3.661 Z-2.328 F300
G1 X5.055 Y3.661 Z-2.028 F300
G1 X5.137 Y3.661 Z-1.895 F300
G1 X5.199 Y3.661 Z-1.827 F300
G1 X5.270 Y3.661 Z-1.766 F300
G1 X5.415 Y3.661 Z-1.669 F300
G1 X5.570 Y3.661 Z-1.578 F300
G1 X5.653 Y3.661 Z-1.547 F300
G1 X5.778 Y3.661 Z-1.516 F300
G1 X5.967 Y3.661 Z-1.486 F300
G1 X67.602 Y3.661 Z-1.488 F300
G1 X67.750 Y3.661 Z-1.510 F300
G1 X67.926 Y3.661 Z-1.576 F300
G1 X68.086 Y3.661 Z-1.653 F300
G1 X68.161 Y3.661 Z-1.705 F300
G1 X68.296 Y3.661 Z-1.835 F300
G1 X68.408 Y3.661 Z-1.960 F300
G1 X68.469 Y3.661 Z-2.063 F300
G1 X68.549 Y3.661 Z-2.255 F300
G1 X68.575 Y3.661 Z-2.296 F300
G1 X68.611 Y3.661 Z-2.328 F300
G1 X68.655 Y3.661 Z-2.347 F300
G1 X68.703 Y3.661 Z-2.352 F300
G1 X68.750 Y3.661 Z-2.343 F300
G1 X68.793 Y3.661 Z-2.319 F300
G1 X68.826 Y3.661 Z-2.284 F300
G1 X68.847 Y3.661 Z-2.241 F300
G1 X68.855 Y3.661 Z-2.193 F300
G1 X68.862 Y3.665 Z-2.129 F300
G1 X68.882 Y3.676 Z-2.069 F300
G1 X68.914 Y3.693 Z-2.015 F300
G1 X68.957 Y3.716 Z-1.972 F300
G1 X69.008 Y3.743 Z-1.942 F300
G1 X69.063 Y3.772 Z-1.927 F300
G1 X69.120 Y3.802 Z-1.927 F300
G1 X69.176 Y3.832 Z-1.942 F300
G1 X69.226 Y3.859 Z-1.972 F300
G1 X69.269 Y3.882 Z-2.015 F300
G1 X69.302 Y3.899 Z-2.069 F300
G1 X69.322 Y3.910 Z-2.129 F300
G1 X69.329 Y3.913 Z-2.193 F300
G1 X69.329 Y3.913 Z-2.391 F300
G1 X69.322 Y3.913 Z-2.437 F300
G1 X69.302 Y3.913 Z-2.479 F300
G1 X69.270 Y3.913 Z-2.514 F300
G1 X69.229 Y3.913 Z-2.538 F300
G1 X69.184 Y3.913 Z-2.549 F300
G1 X69.137 Y3.913 Z-2.546 F300
G1 X69.093 Y3.913 Z-2.529 F300
G1 X69.056 Y3.913 Z-2.501 F300
G1 X69.028 Y3.913 Z-2.462 F300
G1 X69.014 Y3.913 Z-2.418 F300
G1 X68.970 Y3.913 Z-2.165 F300
G1 X68.905 Y3.913 Z-1.993 F300
G1 X68.791 Y3.913 Z-1.773 F300
G1 X68.692 Y3.913 Z-1.634 F300
G1 X68.502 Y3.913 Z-1.440 F300
G1 X68.365 Y3.913 Z-1.328 F300
G1 X68.121 Y3.913 Z-1.196 F300
G1 X68.036 Y3.913 Z-1.156 F300
G1 X67.948 Y3.913 Z-1.125 F300
G1 X67.766 Y3.913 Z-1.088 F300
G1 X67.577 Y3.913 Z-1.063 F300
G1 X5.925 Y3.913 Z-1.063 F300
G1 X5.616 Y3.913 Z-1.115 F300
G1 X5.490 Y3.913 Z-1.153 F300
G1 X5.329 Y3.913 Z-1.228 F300
G1 X5.102 Y3.913 Z-1.354 F300
G1 X5.026 Y3.913 Z-1.410 F300
G1 X4.894 Y3.913 Z-1.541 F300
G1 X4.750 Y3.913 Z-1.716 F300
G1 X4.660 Y3.913 Z-1.865 F300
G1 X4.566 Y3.913 Z-2.081 F300
G1 X4.504 Y3.913 Z-2.304 F300
G1 X4.499 Y3.913 Z-2.334 F300
G1 X4.341 Y4.030 Z-2.335 F300
G1 X4.199 Y4.165 Z-2.336 F300
G1 X4.202 Y4.165 Z-2.318 F300
G1 X4.270 Y4.165 Z-2.023 F300
G1 X4.334 Y4.165 Z-1.851 F300
G1 X4.482 Y4.165 Z-1.590 F300
G1 X4.632 Y4.165 Z-1.390 F300
G1 X4.758 Y4.165 Z-1.263 F300
G1 X4.962 Y4.165 Z-1.088 F300
G1 X5.114 Y4.165 Z-0.996 F300
G1 X5.330 Y4.165 Z-0.899 F300
G1 X5.516 Y4.165 Z-0.833 F300
G1 X5.728 Y4.165 Z-0.793 F300
G1 X5.953 Y4.165 Z-0.764 F300
G1 X67.459 Y4.165 Z-0.763 F300
G1 X67.673 Y4.165 Z-0.776 F300
G1 X68.067 Y4.165 Z-0.858 F300
G1 X68.240 Y4.165 Z-0.922 F300
G1 X68.471 Y4.165 Z-1.048 F300
G1 X68.633 Y4.165 Z-1.158 F300
G1 X68.866 Y4.165 Z-1.383 F300
G1 X68.995 Y4.165 Z-1.543 F300
G1 X69.152 Y4.165 Z-1.821 F300
G1 X69.220 Y4.165 Z-1.989 F300
G1 X69.307 Y4.165 Z-2.385 F300
G1 X69.428 Y4.286 Z-2.403 F300
G1 X69.537 Y4.417 Z-2.421 F300
G1 X69.507 Y4.417 Z-2.200 F300
G1 X69.408 Y4.417 Z-1.866 F300
G1 X69.349 Y4.417 Z-1.724 F300
G1 X69.168 Y4.417 Z-1.412 F300
G1 X69.063 Y4.417 Z-1.275 F300
G1 X68.801 Y4.417 Z-1.015 F300
G1 X68.636 Y4.417 Z-0.895 F300
G1 X68.412 Y4.417 Z-0.764 F300
G1 X68.243 Y4.417 Z-0.687 F300
G1 X67.881 Y4.417 Z-0.579 F300
G1 X67.695 Y4.417 Z-0.552 F300
G1 X67.112 Y4.417 Z-0.545 F300
G1 X5.904 Y4.417 Z-0.549 F300
G1 X5.600 Y4.417 Z-0.582 F300
G1 X5.430 Y4.417 Z-0.623 F300
G1 X5.107 Y4.417 Z-0.748 F300
G1 X4.951 Y4.417 Z-0.834 F300
G1 X4.602 Y4.417 Z-1.099 F300
G1 X4.475 Y4.417 Z-1.228 F300
G1 X4.280 Y4.417 Z-1.484 F300
G1 X4.198 Y4.417 Z-1.628 F300
G1 X4.087 Y4.417 Z-1.881 F300
G1 X4.014 Y4.417 Z-2.111 F300
G1 X3.970 Y4.417 Z-2.365 F300
G1 X3.878 Y4.540 Z-2.383 F300
G1 X3.795 Y4.669 Z-2.400 F300
G1 X3.804 Y4.669 Z-2.312 F300
G1 X3.841 Y4.669 Z-2.087 F300
G1 X3.930 Y4.669 Z-1.800 F300
G1 X4.060 Y4.669 Z-1.521 F300
G1 X4.180 Y4.669 Z-1.326 F300
G1 X4.343 Y4.669 Z-1.126 F300
G1 X4.534 Y4.669 Z-0.922 F300
G1 X4.676 Y4.669 Z-0.810 F300
G1 X4.973 Y4.669 Z-0.627 F300
G1 X5.132 Y4.669 Z-0.552 F300
G1 X5.418 Y4.669 Z-0.451 F300
G1 X5.629 Y4.669 Z-0.402 F300
G1 X5.892 Y4.669 Z-0.375 F300
G1 X67.493 Y4.669 Z-0.371 F300
G1 X67.832 Y4.669 Z-0.397 F300
G1 X68.017 Y4.669 Z-0.431 F300
G1 X68.376 Y4.669 Z-0.550 F300
G1 X68.542 Y4.669 Z-0.631 F300
G1 X68.746 Y4.669 Z-0.758 F300
G1 X68.923 Y4.669 Z-0.888 F300
G1 X69.126 Y4.669 Z-1.087 F300
G1 X69.244 Y4.669 Z-1.219 F300
G1 X69.420 Y4.669 Z-1.485 F300
G1 X69.522 Y4.669 Z-1.674 F300
G1 X69.567 Y4.669 Z-1.789 F300
G1 X69.629 Y4.669 Z-1.975 F300
G1 X69.679 Y4.669 Z-2.177 F300
G1 X69.710 Y4.669 Z-2.452 F300
G1 X69.722 Y4.669 Z-2.497 F300
G1 X69.746 Y4.669 Z-2.536 F300
G1 X69.781 Y4.669 Z-2.567 F300
G1 X69.822 Y4.669 Z-2.586 F300
G1 X69.868 Y4.669 Z-2.593 F300
G1 X69.990 Y4.669 Z-2.593 F300
G1 X70.012 Y4.671 Z-2.592 F300
G1 X70.033 Y4.675 Z-2.590 F300
G1 X70.053 Y4.683 Z-2.587 F300
G1 X70.071 Y4.693 Z-2.582 F300
G1 X70.088 Y4.706 Z-2.576 F300
G1 X70.102 Y4.721 Z-2.569 F300
G1 X70.113 Y4.738 Z-2.562 F300
G1 X70.122 Y4.756 Z-2.553 F300
G1 X70.127 Y4.775 Z-2.545 F300
G1 X70.128 Y4.795 Z-2.536 F300
G1 X70.127 Y4.815 Z-2.527 F300
G1 X70.122 Y4.834 Z-2.518 F300
G1 X70.113 Y4.852 Z-2.509 F300
G1 X70.102 Y4.869 Z-2.502 F300
G1 X70.088 Y4.884 Z-2.495 F300
G1 X70.071 Y4.897 Z-2.489 F300
G1 X70.053 Y4.907 Z-2.484 F300
G1 X70.033 Y4.915 Z-2.481 F300
G1 X70.012 Y4.920 Z-2.479 F300
G1 X69.990 Y4.921 Z-2.478 F300
G1 X69.945 Y4.921 Z-2.472 F300
G1 X69.904 Y4.921 Z-2.453 F300
G1 X69.870 Y4.921 Z-2.424 F300
G1 X69.846 Y4.921 Z-2.386 F300
G1 X69.833 Y4.921 Z-2.343 F300
G1 X69.799 Y4.921 Z-2.119 F300
G1 X69.751 Y4.921 Z-1.928 F300
G1 X69.623 Y4.921 Z-1.586 F300
G1 X69.513 Y4.921 Z-1.384 F300
G1 X69.346 Y4.921 Z-1.133 F300
G1 X69.198 Y4.921 Z-0.968 F300
G1 X69.031 Y4.921 Z-0.805 F300
G1 X68.854 Y4.921 Z-0.670 F300
G1 X68.570 Y4.921 Z-0.497 F300
G1 X68.399 Y4.921 Z-0.423 F300
G1 X68.130 Y4.921 Z-0.328 F300
G1 X67.895 Y4.921 Z-0.276 F300
G1 X67.570 Y4.921 Z-0.237 F300
G1 X5.921 Y4.921 Z-0.239 F300
G1 X5.567 Y4.921 Z-0.280 F300
G1 X5.233 Y4.921 Z-0.369 F300
G1 X5.070 Y4.921 Z-0.428 F300
G1 X4.836 Y4.921 Z-0.551 F300
G1 X4.616 Y4.921 Z-0.691 F300
G1 X4.412 Y4.921 Z-0.866 F300
G1 X4.224 Y4.921 Z-1.047 F300
G1 X4.109 Y4.921 Z-1.191 F300
G1 X3.922 Y4.921 Z-1.500 F300
G1 X3.840 Y4.921 Z-1.662 F300
G1 X3.772 Y4.921 Z-1.846 F300
G1 X3.679 Y4.921 Z-2.228 F300
G1 X3.662 Y4.921 Z-2.271 F300
G1 X3.634 Y4.921 Z-2.307 F300
G1 X3.596 Y4.921 Z-2.333 F300
G1 X3.552 Y4.921 Z-2.347 F300
G1 X3.506 Y4.921 Z-2.348 F300
G1 X3.462 Y4.921 Z-2.336 F300
G1 X3.423 Y4.921 Z-2.312 F300
G1 X3.392 Y4.921 Z-2.278 F300
G1 X3.373 Y4.921 Z-2.236 F300
G1 X3.366 Y4.921 Z-2.191 F300
G1 X3.363 Y4.927 Z-2.147 F300
G1 X3.354 Y4.945 Z-2.108 F300
G1 X3.340 Y4.973 Z-2.077 F300
G1 X3.322 Y5.008 Z-2.056 F300
G1 X3.303 Y5.047 Z-2.050 F300
G1 X3.283 Y5.086 Z-2.056 F300
G1 X3.265 Y5.121 Z-2.077 F300
G1 X3.251 Y5.149 Z-2.108 F300
G1 X3.242 Y5.167 Z-2.147 F300
G1 X3.239 Y5.173 Z-2.191 F300
G1 X3.239 Y5.173 Z-2.459 F300
G1 X3.247 Y5.173 Z-2.506 F300
G1 X3.268 Y5.173 Z-2.549 F300
G1 X3.301 Y5.173 Z-2.584 F300
G1 X3.343 Y5.173 Z-2.607 F300
G1 X3.390 Y5.173 Z-2.617 F300
G1 X3.437 Y5.173 Z-2.612 F300
G1 X3.482 Y5.173 Z-2.594 F300
G1 X3.518 Y5.173 Z-2.562 F300
G1 X3.544 Y5.173 Z-2.522 F300
G1 X3.556 Y5.173 Z-2.475 F300
G1 X3.593 Y5.173 Z-2.124 F300
G1 X3.643 Y5.173 Z-1.920 F300
G1 X3.807 Y5.173 Z-1.495 F300
G1 X3.898 Y5.173 Z-1.327 F300
G1 X4.163 Y5.173 Z-0.970 F300
G1 X4.286 Y5.173 Z-0.837 F300
G1 X4.509 Y5.173 Z-0.645 F300
G1 X4.702 Y5.173 Z-0.511 F300
G1 X4.932 Y5.173 Z-0.391 F300
G1 X5.172 Y5.173 Z-0.283 F300
G1 X5.420 Y5.173 Z-0.211 F300
G1 X5.675 Y5.173 Z-0.157 F300
G1 X5.897 Y5.173 Z-0.142 F300
G1 X67.301 Y5.173 Z-0.139 F300
G1 X67.689 Y5.173 Z-0.147 F300
G1 X68.064 Y5.173 Z-0.203 F300
G1 X68.245 Y5.173 Z-0.252 F300
G1 X68.466 Y5.173 Z-0.339 F300
G1 X68.677 Y5.173 Z-0.439 F300
G1 X68.951 Y5.173 Z-0.617 F300
G1 X69.128 Y5.173 Z-0.761 F300
G1 X69.386 Y5.173 Z-1.027 F300
G1 X69.571 Y5.173 Z-1.288 F300
G1 X69.684 Y5.173 Z-1.476 F300
G1 X69.826 Y5.173 Z-1.817 F300
G1 X69.879 Y5.173 Z-2.000 F300
G1 X69.925 Y5.173 Z-2.266 F300
G1 X69.940 Y5.173 Z-2.310 F300
G1 X69.967 Y5.173 Z-2.349 F300
G1 X70.004 Y5.173 Z-2.377 F300
G1 X70.048 Y5.173 Z-2.394 F300
G1 X70.095 Y5.173 Z-2.397 F300
G1 X70.141 Y5.173 Z-2.386 F300
G1 X70.181 Y5.173 Z-2.362 F300
G1 X70.213 Y5.173 Z-2.328 F300
G1 X70.233 Y5.173 Z-2.285 F300
G1 X70.240 Y5.173 Z-2.239 F300
G1 X70.240 Y5.173 Z-2.125 F300
G1 X70.242 Y5.181 Z-2.081 F300
G1 X70.247 Y5.203 Z-2.042 F300
G1 X70.254 Y5.236 Z-2.013 F300
G1 X70.262 Y5.277 Z-1.998 F300
G1 X70.272 Y5.321 Z-1.998 F300
G1 X70.280 Y5.362 Z-2.013 F300
G1 X70.288 Y5.396 Z-2.042 F300
G1 X70.292 Y5.418 Z-2.081 F300
G1 X70.294 Y5.425 Z-2.125 F300
G1 X70.287 Y5.425 Z-2.170 F300
G1 X70.268 Y5.425 Z-2.212 F300
G1 X70.237 Y5.425 Z-2.246 F300
G1 X70.198 Y5.425 Z-2.271 F300
G1 X70.154 Y5.425 Z-2.283 F300
G1 X70.108 Y5.425 Z-2.281 F300
G1 X70.064 Y5.425 Z-2.267 F300
G1 X70.027 Y5.425 Z-2.241 F300
G1 X69.998 Y5.425 Z-2.205 F300
G1 X69.981 Y5.425 Z-2.162 F300
G1 X69.897 Y5.425 Z-1.816 F300
G1 X69.761 Y5.425 Z-1.479 F300
G1 X69.673 Y5.425 Z-1.310 F300
G1 X69.466 Y5.425 Z-1.009 F300
G1 X69.315 Y5.425 Z-0.841 F300
G1 X69.146 Y5.425 Z-0.677 F300
G1 X68.965 Y5.425 Z-0.540 F300
G1 X68.769 Y5.425 Z-0.410 F300
G1 X68.561 Y5.425 Z-0.306 F300
G1 X68.254 Y5.425 Z-0.185 F300
G1 X67.885 Y5.425 Z-0.098 F300
G1 X67.650 Y5.425 Z-0.070 F300
G1 X66.336 Y5.425 Z-0.065 F300
G1 X5.892 Y5.425 Z-0.069 F300
G1 X5.684 Y5.425 Z-0.089 F300
G1 X5.262 Y5.425 Z-0.177 F300
G1 X5.056 Y5.425 Z-0.251 F300
G1 X4.781 Y5.425 Z-0.380 F300
G1 X4.594 Y5.425 Z-0.499 F300
G1 X4.345 Y5.425 Z-0.691 F300
G1 X4.206 Y5.425 Z-0.817 F300
G1 X3.975 Y5.425 Z-1.087 F300
G1 X3.872 Y5.425 Z-1.238 F300
G1 X3.683 Y5.425 Z-1.598 F300
G1 X3.629 Y5.425 Z-1.727 F300
G1 X3.570 Y5.425 Z-1.924 F300
G1 X3.496 Y5.425 Z-2.294 F300
G1 X3.480 Y5.425 Z-2.496 F300
G1 X3.454 Y5.550 Z-2.506 F300
G1 X3.438 Y5.677 Z-2.516 F300
G1 X3.440 Y5.677 Z-2.472 F300
G1 X3.467 Y5.677 Z-2.179 F300
G1 X3.516 Y5.677 Z-1.954 F300
G1 X3.634 Y5.677 Z-1.598 F300
G1 X3.712 Y5.677 Z-1.429 F300
G1 X3.857 Y5.677 Z-1.178 F300
G1 X4.008 Y5.677 Z-0.977 F300
G1 X4.203 Y5.677 Z-0.761 F300
G1 X4.379 Y5.677 Z-0.597 F300
G1 X4.610 Y5.677 Z-0.435 F300
G1 X4.820 Y5.677 Z-0.312 F300
G1 X5.159 Y5.677 Z-0.168 F300
G1 X5.386 Y5.677 Z-0.096 F300
G1 X5.726 Y5.677 Z-0.037 F300
G1 X5.937 Y5.677 Z-0.024 F300
G1 X5.984 Y5.677 Z-0.014 F300
G1 X6.025 Y5.677 Z0.009 F300
G1 X6.058 Y5.677 Z0.044 F300
G1 X6.079 Y5.677 Z0.087 F300
G1 X6.086 Y5.677 Z0.134 F300
G1 X6.081 Y5.682 Z0.188 F300
G1 X6.064 Y5.697 Z0.237 F300
G1 X6.037 Y5.721 Z0.279 F300
G1 X6.002 Y5.751 Z0.308 F300
G1 X5.963 Y5.785 Z0.323 F300
G1 X5.922 Y5.821 Z0.323 F300
G1 X5.883 Y5.856 Z0.308 F300
G1 X5.849 Y5.886 Z0.279 F300
G1 X5.822 Y5.909 Z0.237 F300
G1 X5.805 Y5.924 Z0.188 F300
G1 X5.799 Y5.929 Z0.134 F300
G1 X5.799 Y5.929 Z0.130 F300
G1 X5.793 Y5.929 Z0.086 F300
G1 X5.775 Y5.929 Z0.045 F300
G1 X5.746 Y5.929 Z0.011 F300
G1 X5.709 Y5.929 Z-0.014 F300
G1 X5.666 Y5.929 Z-0.027 F300
G1 X5.436 Y5.929 Z-0.064 F300
G1 X5.104 Y5.929 Z-0.163 F300
G1 X4.903 Y5.929 Z-0.245 F300
G1 X4.599 Y5.929 Z-0.414 F300
G1 X4.384 Y5.929 Z-0.573 F300
G1 X4.187 Y5.929 Z-0.743 F300
G1 X3.979 Y5.929 Z-0.974 F300
G1 X3.846 Y5.929 Z-1.156 F300
G1 X3.668 Y5.929 Z-1.472 F300
G1 X3.576 Y5.929 Z-1.691 F300
G1 X3.467 Y5.929 Z-2.068 F300
G1 X3.439 Y5.929 Z-2.251 F300
G1 X3.422 Y5.929 Z-2.427 F300
G1 X3.421 Y6.055 Z-2.426 F300
G1 X3.421 Y6.181 Z-2.426 F300
G1 X3.439 Y6.181 Z-2.243 F300
G1 X3.479 Y6.181 Z-2.007 F300
G1 X3.557 Y6.181 Z-1.745 F300
G1 X3.627 Y6.181 Z-1.557 F300
G1 X3.768 Y6.181 Z-1.284 F300
G1 X3.896 Y6.181 Z-1.083 F300
G1 X4.092 Y6.181 Z-0.842 F300
G1 X4.250 Y6.181 Z-0.683 F300
G1 X4.523 Y6.181 Z-0.463 F300
G1 X4.673 Y6.181 Z-0.369 F300
G1 X4.982 Y6.181 Z-0.209 F300
G1 X5.146 Y6.181 Z-0.148 F300
G1 X5.478 Y6.181 Z-0.053 F300
G1 X5.666 Y6.181 Z-0.025 F300
G1 X5.709 Y6.181 Z-0.012 F300
G1 X5.747 Y6.181 Z0.012 F300
G1 X5.776 Y6.181 Z0.046 F300
G1 X5.795 Y6.181 Z0.087 F300
G1 X5.801 Y6.181 Z0.132 F300
G1 X5.801 Y6.189 Z0.175 F300
G1 X5.801 Y6.211 Z0.213 F300
G1 X5.801 Y6.244 Z0.241 F300
G1 X5.801 Y6.285 Z0.256 F300
G1 X5.801 Y6.329 Z0.256 F300
G1 X5.801 Y6.370 Z0.241 F300
G1 X5.801 Y6.404 Z0.213 F300
G1 X5.801 Y6.426 Z0.175 F300
G1 X5.801 Y6.433 Z0.132 F300
G1 X5.795 Y6.433 Z0.087 F300
G1 X5.776 Y6.433 Z0.046 F300
G1 X5.747 Y6.433 Z0.012 F300
G1 X5.709 Y6.433 Z-0.012 F300
G1 X5.666 Y6.433 Z-0.025 F300
G1 X5.478 Y6.433 Z-0.053 F300
G1 X5.146 Y6.433 Z-0.148 F300
G1 X4.982 Y6.433 Z-0.209 F300
G1 X4.673 Y6.433 Z-0.369 F300
G1 X4.523 Y6.433 Z-0.463 F300
G1 X4.250 Y6.433 Z-0.683 F300
G1 X4.092 Y6.433 Z-0.842 F300
G1 X3.896 Y6.433 Z-1.083 F300
G1 X3.768 Y6.433 Z-1.284 F300
G1 X3.627 Y6.433 Z-1.557 F300
G1 X3.557 Y6.433 Z-1.745 F300
G1 X3.479 Y6.433 Z-2.007 F300
G1 X3.439 Y6.433 Z-2.243 F300
G1 X3.421 Y6.433 Z-2.425 F300
G1 X3.421 Y6.685 Z-2.425 F300
G1 X3.439 Y6.685 Z-2.243 F300
G1 X3.479 Y6.685 Z-2.007 F300
G1 X3.557 Y6.685 Z-1.745 F300
G1 X3.627 Y6.685 Z-1.557 F300
G1 X3.768 Y6.685 Z-1.284 F300
G1 X3.896 Y6.685 Z-1.083 F300
G1 X4.092 Y6.685 Z-0.842 F300
G1 X4.250 Y6.685 Z-0.683 F300
G1 X4.523 Y6.685 Z-0.463 F300
G1 X4.673 Y6.685 Z-0.369 F300
G1 X4.982 Y6.685 Z-0.209 F300
G1 X5.146 Y6.685 Z-0.148 F300
G1 X5.478 Y6.685 Z-0.053 F300
G1 X5.666 Y6.685 Z-0.025 F300
G1 X5.709 Y6.685 Z-0.012 F300
G1 X5.747 Y6.685 Z0.012 F300
G1 X5.776 Y6.685 Z0.046 F300
G1 X5.795 Y6.685 Z0.087 F300
G1 X5.801 Y6.685 Z0.132 F300
G1 X5.801 Y6.693 Z0.175 F300
G1 X5.801 Y6.715 Z0.213 F300
G1 X5.801 Y6.748 Z0.241 F300
G1 X5.801 Y6.789 Z0.256 F300
G1 X5.801 Y6.833 Z0.256 F300
G1 X5.801 Y6.874 Z0.241 F300
G1 X5.801 Y6.908 Z0.213 F300
G1 X5.801 Y6.930 Z0.175 F300
G1 X5.801 Y6.937 Z0.132 F300
G1 X5.795 Y6.937 Z0.087 F300
G1 X5.776 Y6.937 Z0.046 F300
G1 X5.747 Y6.937 Z0.012 F300
G1 X5.709 Y6.937 Z-0.012 F300
G1 X5.666 Y6.937 Z-0.025 F300
G1 X5.478 Y6.937 Z-0.053 F300
G1 X5.146 Y6.937 Z-0.148 F300
G1 X4.982 Y6.937 Z-0.209 F300
G1 X4.673 Y6.937 Z-0.369 F300
G1 X4.523 Y6.937 Z-0.463 F300
G1 X4.250 Y6.937 Z-0.683 F300
G1 X4.092 Y6.937 Z-0.842 F300
G1 X3.896 Y6.937 Z-1.083 F300
G1 X3.768 Y6.937 Z-1.284 F300
G1 X3.627 Y6.937 Z-1.557 F300
G1 X3.557 Y6.937 Z-1.745 F300
G1 X3.479 Y6.937 Z-2.007 F300
G1 X3.439 Y6.937 Z-2.243 F300
G1 X3.421 Y6.937 Z-2.424 F300
G1 X3.421 Y7.189 Z-2.424 F300
G1 X3.439 Y7.189 Z-2.243 F300
G1 X3.479 Y7.189 Z-2.007 F300
G1 X3.557 Y7.189 Z-1.745 F300
G1 X3.627 Y7.189 Z-1.557 F300
G1 X3.768 Y7.189 Z-1.284 F300
G1 X3.896 Y7.189 Z-1.083 F300
G1 X4.092 Y7.189 Z-0.842 F300
G1 X4.250 Y7.189 Z-0.683 F300
G1 X4.523 Y7.189 Z-0.463 F300
G1 X4.673 Y7.189 Z-0.369 F300
G1 X4.982 Y7.189 Z-0.209 F300
G1 X5.146 Y7.189 Z-0.148 F300
G1 X5.478 Y7.189 Z-0.053 F300
G1 X5.666 Y7.189 Z-0.025 F300
G1 X5.709 Y7.189 Z-0.012 F300
G1 X5.747 Y7.189 Z0.012 F300
G1 X5.776 Y7.189 Z0.046 F300
G1 X5.795 Y7.189 Z0.087 F300
G1 X5.801 Y7.189 Z0.132 F300
G1 X5.801 Y7.197 Z0.175 F300
G1 X5.801 Y7.219 Z0.213 F300
G1 X5.801 Y7.252 Z0.241 F300
G1 X5.801 Y7.293 Z0.256 F300
G1 X5.801 Y7.337 Z0.256 F300
G1 X5.801 Y7.378 Z0.241 F300
G1 X5.801 Y7.412 Z0.213 F300
G1 X5.801 Y7.434 Z0.175 F300
G1 X5.801 Y7.441 Z0.132 F300
G1 X5.795 Y7.441 Z0.087 F300
G1 X5.776 Y7.441 Z0.046 F300
G1 X5.747 Y7.441 Z0.012 F300
G1 X5.709 Y7.441 Z-0.012 F300
G1 X5.666 Y7.441 Z-0.025 F300
G1 X5.478 Y7.441 Z-0.053 F300
G1 X5.146 Y7.441 Z-0.148 F300
G1 X4.982 Y7.441 Z-0.209 F300
G1 X4.673 Y7.441 Z-0.369 F300
G1 X4.523 Y7.441 Z-0.463 F300
G1 X4.250 Y7.441 Z-0.683 F300
G1 X4.092 Y7.441 Z-0.842 F300
G1 X3.896 Y7.441 Z-1.083 F300
G1 X3.768 Y7.441 Z-1.284 F300
G1 X3.627 Y7.441 Z-1.557 F300
G1 X3.557 Y7.441 Z-1.745 F300
G1 X3.479 Y7.441 Z-2.007 F300
G1 X3.439 Y7.441 Z-2.243 F300
G1 X3.421 Y7.441 Z-2.423 F300
G1 X3.421 Y7.693 Z-2.423 F300
G1 X3.439 Y7.693 Z-2.243 F300
G1 X3.479 Y7.693 Z-2.007 F300
G1 X3.557 Y7.693 Z-1.745 F300
G1 X3.627 Y7.693 Z-1.557 F300
G1 X3.768 Y7.693 Z-1.284 F300
G1 X3.896 Y7.693 Z-1.083 F300
G1 X4.092 Y7.693 Z-0.842 F300
G1 X4.250 Y7.693 Z-0.683 F300
G1 X4.523 Y7.693 Z-0.463 F300
G1 X4.673 Y7.693 Z-0.369 F300
G1 X4.982 Y7.693 Z-0.209 F300
G1 X5.146 Y7.693 Z-0.148 F300
G1 X5.478 Y7.693 Z-0.053 F300
G1 X5.666 Y7.693 Z-0.025 F300
G1 X5.709 Y7.693 Z-0.012 F300
G1 X5.747 Y7.693 Z0.012 F300
G1 X5.776 Y7.693 Z0.046 F300
G1 X5.795 Y7.693 Z0.087 F300
G1 X5.801 Y7.693 Z0.132 F300
G1 X5.801 Y7.701 Z0.175 F300
G1 X5.801 Y7.723 Z0.213 F300
G1 X5.801 Y7.756 Z0.241 F300
G1 X5.801 Y7.797 Z0.256 F300
G1 X5.801 Y7.841 Z0.256 F300
G1 X5.801 Y7.882 Z0.241 F300
G1 X5.801 Y7.916 Z0.213 F300
G1 X5.801 Y7.937 Z0.175 F300
G1 X5.801 Y7.945 Z0.132 F300
G1 X5.795 Y7.945 Z0.087 F300
G1 X5.776 Y7.945 Z0.046 F300
G1 X5.747 Y7.945 Z0.012 F300
G1 X5.709 Y7.945 Z-0.012 F300
G1 X5.666 Y7.945 Z-0.025 F300
G1 X5.478 Y7.945 Z-0.053 F300
G1 X5.146 Y7.945 Z-0.148 F300
G1 X4.982 Y7.945 Z-0.209 F300
G1 X4.673 Y7.945 Z-0.369 F300
G1 X4.523 Y7.945 Z-0.463 F300
G1 X4.250 Y7.945 Z-0.683 F300
G1 X4.092 Y7.945 Z-0.842 F300
G1 X3.896 Y7.945 Z-1.083 F300
G1 X3.768 Y7.945 Z-1.284 F300
G1 X3.627 Y7.945 Z-1.557 F300
G1 X3.557 Y7.945 Z-1.745 F300
G1 X3.479 Y7.945 Z-2.007 F300
G1 X3.439 Y7.945 Z-2.243 F300
G1 X3.421 Y7.945 Z-2.422 F300
G1 X3.421 Y8.197 Z-2.422 F300
G1 X3.439 Y8.197 Z-2.243 F300
G1 X3.479 Y8.197 Z-2.007 F300
G1 X3.557 Y8.197 Z-1.745 F300
G1 X3.627 Y8.197 Z-1.557 F300
G1 X3.768 Y8.197 Z-1.284 F300
G1 X3.896 Y8.197 Z-1.083 F300
G1 X4.092 Y8.197 Z-0.842 F300
G1 X4.250 Y8.197 Z-0.683 F300
G1 X4.523 Y8.197 Z-0.463 F300
G1 X4.673 Y8.197 Z-0.369 F300
G1 X4.982 Y8.197 Z-0.209 F300
G1 X5.146 Y8.197 Z-0.148 F300
G1 X5.478 Y8.197 Z-0.053 F300
G1 X5.666 Y8.197 Z-0.025 F300
G1 X5.709 Y8.197 Z-0.012 F300
G1 X5.747 Y8.197 Z0.012 F300
G1 X5.776 Y8.197 Z0.046 F300
G1 X5.795 Y8.197 Z0.087 F300
G1 X5.801 Y8.197 Z0.132 F300
G1 X5.801 Y8.205 Z0.175 F300
G1 X5.801 Y8.227 Z0.213 F300
G1 X5.801 Y8.260 Z0.241 F300
G1 X5.801 Y8.301 Z0.256 F300
G1 X5.801 Y8.345 Z0.256 F300
G1 X5.801 Y8.386 Z0.241 F300
G1 X5.801 Y8.420 Z0.213 F300
G1 X5.801 Y8.441 Z0.175 F300
G1 X5.801 Y8.449 Z0.132 F300
G1 X5.795 Y8.449 Z0.087 F300
G1 X5.776 Y8.449 Z0.046 F300
G1 X5.747 Y8.449 Z0.012 F300
G1 X5.709 Y8.449 Z-0.012 F300
G1 X5.666 Y8.449 Z-0.025 F300
G1 X5.478 Y8.449 Z-0.053 F300
G1 X5.146 Y8.449 Z-0.148 F300
G1 X4.982 Y8.449 Z-0.209 F300
G1 X4.673 Y8.449 Z-0.369 F300
G1 X4.523 Y8.449 Z-0.463 F300
G1 X4.250 Y8.449 Z-0.683 F300
G1 X4.092 Y8.449 Z-0.842 F300
G1 X3.896 Y8.449 Z-1.083 F300
G1 X3.768 Y8.449 Z-1.284 F300
G1 X3.627 Y8.449 Z-1.557 F300
G1 X3.557 Y8.449 Z-1.745 F300
G1 X3.479 Y8.449 Z-2.007 F300
G1 X3.439 Y8.449 Z-2.243 F300
G1 X3.421 Y8.449 Z-2.421 F300
G1 X3.421 Y8.701 Z-2.421 F300
G1 X3.439 Y8.701 Z-2.243 F300
G1 X3.479 Y8.701 Z-2.007 F300
G1 X3.557 Y8.701 Z-1.745 F300
G1 X3.627 Y8.701 Z-1.557 F300
G1 X3.768 Y8.701 Z-1.284 F300
G1 X3.896 Y8.701 Z-1.083 F300
G1 X4.092 Y8.701 Z-0.842 F300
G1 X4.250 Y8.701 Z-0.683 F300
G1 X4.523 Y8.701 Z-0.463 F300
G1 X4.673 Y8.701 Z-0.369 F300
G1 X4.982 Y8.701 Z-0.209 F300
G1 X5.146 Y8.701 Z-0.148 F300
G1 X5.478 Y8.701 Z-0.053 F300
G1 X5.666 Y8.701 Z-0.025 F300
G1 X5.709 Y8.701 Z-0.012 F300
G1 X5.747 Y8.701 Z0.012 F300
G1 X5.776 Y8.701 Z0.046 F300
G1 X5.795 Y8.701 Z0.087 F300
G1 X5.801 Y8.701 Z0.132 F300
G1 X5.801 Y8.709 Z0.175 F300
G1 X5.801 Y8.731 Z0.213 F300
G1 X5.801 Y8.764 Z0.241 F300
G1 X5.801 Y8.805 Z0.256 F300
G1 X5.801 Y8.849 Z0.256 F300
G1 X5.801 Y8.890 Z0.241 F300
G1 X5.801 Y8.924 Z0.213 F300
G1 X5.801 Y8.945 Z0.175 F300
G1 X5.801 Y8.953 Z0.132 F300
G1 X5.795 Y8.953 Z0.087 F300
G1 X5.776 Y8.953 Z0.046 F300
G1 X5.747 Y8.953 Z0.012 F300
G1 X5.709 Y8.953 Z-0.012 F300
G1 X5.666 Y8.953 Z-0.025 F300
G1 X5.478 Y8.953 Z-0.053 F300
G1 X5.146 Y8.953 Z-0.148 F300
G1 X4.982 Y8.953 Z-0.209 F300
G1 X4.673 Y8.953 Z-0.369 F300
G1 X4.523 Y8.953 Z-0.463 F300
G1 X4.250 Y8.953 Z-0.683 F300
G1 X4.092 Y8.953 Z-0.842 F300
G1 X3.896 Y8.953 Z-1.083 F300
G1 X3.768 Y8.953 Z-1.284 F300
G1 X3.627 Y8.953 Z-1.557 F300
G1 X3.557 Y8.953 Z-1.745 F300
G1 X3.479 Y8.953 Z-2.007 F300
G1 X3.439 Y8.953 Z-2.243 F300
G1 X3.421 Y8.953 Z-2.427 F300
G1 X3.421 Y9.205 Z-2.426 F300
G1 X3.439 Y9.205 Z-2.243 F300
G1 X3.479 Y9.205 Z-2.007 F300
G1 X3.557 Y9.205 Z-1.745 F300
G1 X3.627 Y9.205 Z-1.557 F300
G1 X3.768 Y9.205 Z-1.284 F300
G1 X3.896 Y9.205 Z-1.083 F300
G1 X4.092 Y9.205 Z-0.842 F300
G1 X4.250 Y9.205 Z-0.683 F300
G1 X4.523 Y9.205 Z-0.463 F300
G1 X4.673 Y9.205 Z-0.369 F300
G1 X4.982 Y9.205 Z-0.209 F300
G1 X5.146 Y9.205 Z-0.148 F300
G1 X5.478 Y9.205 Z-0.053 F300
G1 X5.666 Y9.205 Z-0.025 F300
G1 X5.709 Y9.205 Z-0.012 F300
G1 X5.747 Y9.205 Z0.012 F300
G1 X5.776 Y9.205 Z0.046 F300
G1 X5.795 Y9.205 Z0.087 F300
G1 X5.801 Y9.205 Z0.132 F300
G1 X5.801 Y9.213 Z0.175 F300
G1 X5.801 Y9.235 Z0.213 F300
G1 X5.801 Y9.268 Z0.241 F300
G1 X5.801 Y9.309 Z0.256 F300
G1 X5.801 Y9.353 Z0.256 F300
G1 X5.801 Y9.394 Z0.241 F300
G1 X5.801 Y9.428 Z0.213 F300
G1 X5.801 Y9.449 Z0.175 F300
G1 X5.801 Y9.457 Z0.132 F300
G1 X5.795 Y9.457 Z0.087 F300
G1 X5.776 Y9.457 Z0.046 F300
G1 X5.747 Y9.457 Z0.012 F300
G1 X5.709 Y9.457 Z-0.012 F300
G1 X5.666 Y9.457 Z-0.025 F300
G1 X5.478 Y9.457 Z-0.053 F300
G1 X5.146 Y9.457 Z-0.148 F300
G1 X4.982 Y9.457 Z-0.209 F300
G1 X4.673 Y9.457 Z-0.369 F300
G1 X4.523 Y9.457 Z-0.463 F300
G1 X4.250 Y9.457 Z-0.683 F300
G1 X4.092 Y9.457 Z-0.842 F300
G1 X3.896 Y9.457 Z-1.083 F300
G1 X3.768 Y9.457 Z-1.284 F300
G1 X3.627 Y9.457 Z-1.557 F300
G1 X3.557 Y9.457 Z-1.745 F300
G1 X3.479 Y9.457 Z-2.007 F300
G1 X3.439 Y9.457 Z-2.243 F300
G1 X3.421 Y9.457 Z-2.426 F300
G1 X3.421 Y9.709 Z-2.425 F300
G1 X3.439 Y9.709 Z-2.243 F300
G1 X3.479 Y9.709 Z-2.007 F300
G1 X3.557 Y9.709 Z-1.745 F300
G1 X3.627 Y9.709 Z-1.557 F300
G1 X3.768 Y9.709 Z-1.284 F300
G1 X3.896 Y9.709 Z-1.083 F300
G1 X4.092 Y9.709 Z-0.842 F300
G1 X4.250 Y9.709 Z-0.683 F300
G1 X4.523 Y9.709 Z-0.463 F300
G1 X4.673 Y9.709 Z-0.369 F300
G1 X4.982 Y9.709 Z-0.209 F300
G1 X5.146 Y9.709 Z-0.148 F300
G1 X5.478 Y9.709 Z-0.053 F300
G1 X5.666 Y9.709 Z-0.025 F300
G1 X5.709 Y9.709 Z-0.012 F300
G1 X5.747 Y9.709 Z0.012 F300
G1 X5.776 Y9.709 Z0.046 F300
G1 X5.795 Y9.709 Z0.087 F300
G1 X5.801 Y9.709 Z0.132 F300
G1 X5.801 Y9.717 Z0.175 F300
G1 X5.801 Y9.738 Z0.213 F300
G1 X5.801 Y9.772 Z0.241 F300
G1 X5.801 Y9.813 Z0.256 F300
G1 X5.801 Y9.857 Z0.256 F300
G1 X5.801 Y9.898 Z0.241 F300
G1 X5.801 Y9.932 Z0.213 F300
G1 X5.801 Y9.953 Z0.175 F300
G1 X5.801 Y9.961 Z0.132 F300
G1 X5.795 Y9.961 Z0.087 F300
G1 X5.776 Y9.961 Z0.046 F300
G1 X5.747 Y9.961 Z0.012 F300
G1 X5.709 Y9.961 Z-0.012 F300
G1 X5.666 Y9.961 Z-0.025 F300
G1 X5.478 Y9.961 Z-0.053 F300
G1 X5.146 Y9.961 Z-0.148 F300
G1 X4.982 Y9.961 Z-0.209 F300
G1 X4.673 Y9.961 Z-0.369 F300
G1 X4.523 Y9.961 Z-0.463 F300
G1 X4.250 Y9.961 Z-0.683 F300
G1 X4.092 Y9.961 Z-0.842 F300
G1 X3.896 Y9.961 Z-1.083 F300
G1 X3.768 Y9.961 Z-1.284 F300
G1 X3.627 Y9.961 Z-1.557 F300
G1 X3.557 Y9.961 Z-1.745 F300
G1 X3.479 Y9.961 Z-2.007 F300
G1 X3.439 Y9.961 Z-2.243 F300
G1 X3.421 Y9.961 Z-2.424 F300
G1 X3.421 Y10.213 Z-2.424 F300
G1 X3.439 Y10.213 Z-2.243 F300
G1 X3.479 Y10.213 Z-2.007 F300
G1 X3.557 Y10.213 Z-1.745 F300
G1 X3.627 Y10.213 Z-1.557 F300
G1 X3.768 Y10.213 Z-1.284 F300
G1 X3.896 Y10.213 Z-1.083 F300
G1 X4.092 Y10.213 Z-0.842 F300
G1 X4.250 Y10.213 Z-0.683 F300
G1 X4.523 Y10.213 Z-0.463 F300
G1 X4.673 Y10.213 Z-0.369 F300
G1 X4.982 Y10.213 Z-0.209 F300
G1 X5.146 Y10.213 Z-0.148 F300
G1 X5.478 Y10.213 Z-0.053 F300
G1 X5.666 Y10.213 Z-0.025 F300
G1 X5.709 Y10.213 Z-0.012 F300
G1 X5.747 Y10.213 Z0.012 F300
G1 X5.776 Y10.213 Z0.046 F300
G1 X5.795 Y10.213 Z0.087 F300
G1 X5.801 Y10.213 Z0.132 F300
G1 X5.801 Y10.221 Z0.175 F300
G1 X5.801 Y10.242 Z0.213 F300
G1 X5.801 Y10.276 Z0.241 F300
G1 X5.801 Y10.317 Z0.256 F300
G1 X5.801 Y10.361 Z0.256 F300
G1 X5.801 Y10.402 Z0.241 F300
G1 X5.801 Y10.436 Z0.213 F300
G1 X5.801 Y10.457 Z0.175 F300
G1 X5.801 Y10.465 Z0.132 F300
G1 X5.795 Y10.465 Z0.087 F300
G1 X5.776 Y10.465 Z0.046 F300
G1 X5.747 Y10.465 Z0.012 F300
G1 X5.709 Y10.465 Z-0.012 F300
G1 X5.666 Y10.465 Z-0.025 F300
G1 X5.478 Y10.465 Z-0.053 F300
G1 X5.146 Y10.465 Z-0.148 F300
G1 X4.982 Y10.465 Z-0.209 F300
G1 X4.673 Y10.465 Z-0.369 F300
G1 X4.523 Y10.465 Z-0.463 F300
G1 X4.250 Y10.465 Z-0.683 F300
G1 X4.092 Y10.465 Z-0.842 F300
G1 X3.896 Y10.465 Z-1.083 F300
G1 X3.768 Y10.465 Z-1.284 F300
G1 X3.627 Y10.465 Z-1.557 F300
G1 X3.557 Y10.465 Z-1.745 F300
G1 X3.479 Y10.465 Z-2.007 F300
G1 X3.439 Y10.465 Z-2.243 F300
G1 X3.421 Y10.465 Z-2.423 F300
G1 X3.421 Y10.717 Z-2.423 F300
G1 X3.439 Y10.717 Z-2.243 F300
G1 X3.479 Y10.717 Z-2.007 F300
G1 X3.557 Y10.717 Z-1.745 F300
G1 X3.627 Y10.717 Z-1.557 F300
G1 X3.768 Y10.717 Z-1.284 F300
G1 X3.896 Y10.717 Z-1.083 F300
G1 X4.092 Y10.717 Z-0.842 F300
G1 X4.250 Y10.717 Z-0.683 F300
G1 X4.523 Y10.717 Z-0.463 F300
G1 X4.673 Y10.717 Z-0.369 F300
G1 X4.982 Y10.717 Z-0.209 F300
G1 X5.146 Y10.717 Z-0.148 F300
G1 X5.478 Y10.717 Z-0.053 F300
G1 X5.666 Y10.717 Z-0.025 F300
G1 X5.709 Y10.717 Z-0.012 F300
G1 X5.747 Y10.717 Z0.012 F300
G1 X5.776 Y10.717 Z0.046 F300
G1 X5.795 Y10.717 Z0.087 F300
G1 X5.801 Y10.717 Z0.132 F300
G1 X5.801 Y10.725 Z0.175 F300
G1 X5.801 Y10.746 Z0.213 F300
G1 X5.801 Y10.780 Z0.241 F300
G1 X5.801 Y10.821 Z0.256 F300
G1 X5.801 Y10.865 Z0.256 F300
G1 X5.801 Y10.906 Z0.241 F300
G1 X5.801 Y10.939 Z0.213 F300
G1 X5.801 Y10.961 Z0.175 F300
G1 X5.801 Y10.969 Z0.132 F300
G1 X5.795 Y10.969 Z0.087 F300
G1 X5.776 Y10.969 Z0.046 F300
G1 X5.747 Y10.969 Z0.012 F300
G1 X5.709 Y10.969 Z-0.012 F300
G1 X5.666 Y10.969 Z-0.025 F300
G1 X5.478 Y10.969 Z-0.053 F300
G1 X5.146 Y10.969 Z-0.148 F300
G1 X4.982 Y10.969 Z-0.209 F300
G1 X4.673 Y10.969 Z-0.369 F300
G1 X4.523 Y10.969 Z-0.463 F300
G1 X4.250 Y10.969 Z-0.683 F300
G1 X4.092 Y10.969 Z-0.842 F300
G1 X3.896 Y10.969 Z-1.083 F300
G1 X3.768 Y10.969 Z-1.284 F300
G1 X3.627 Y10.969 Z-1.557 F300
G1 X3.557 Y10.969 Z-1.745 F300
G1 X3.479 Y10.969 Z-2.007 F300
G1 X3.439 Y10.969 Z-2.243 F300
G1 X3.421 Y10.969 Z-2.422 F300
G1 X3.421 Y11.221 Z-2.421 F300
G1 X3.439 Y11.221 Z-2.243 F300
G1 X3.479 Y11.221 Z-2.007 F300
G1 X3.557 Y11.221 Z-1.745 F300
G1 X3.627 Y11.221 Z-1.557 F300
G1 X3.768 Y11.221 Z-1.284 F300
G1 X3.896 Y11.221 Z-1.083 F300
G1 X4.092 Y11.221 Z-0.842 F300
G1 X4.250 Y11.221 Z-0.683 F300
G1 X4.523 Y11.221 Z-0.463 F300
G1 X4.673 Y11.221 Z-0.369 F300
G1 X4.982 Y11.221 Z-0.209 F300
G1 X5.146 Y11.221 Z-0.148 F300
G1 X5.478 Y11.221 Z-0.053 F300
G1 X5.666 Y11.221 Z-0.025 F300
G1 X5.709 Y11.221 Z-0.012 F300
G1 X5.747 Y11.221 Z0.012 F300
G1 X5.776 Y11.221 Z0.046 F300
G1 X5.795 Y11.221 Z0.087 F300
G1 X5.801 Y11.221 Z0.132 F300
G1 X5.801 Y11.229 Z0.175 F300
G1 X5.801 Y11.250 Z0.213 F300
G1 X5.801 Y11.284 Z0.241 F300
G1 X5.801 Y11.325 Z0.256 F300
G1 X5.801 Y11.369 Z0.256 F300
G1 X5.801 Y11.410 Z0.241 F300
G1 X5.801 Y11.443 Z0.213 F300
G1 X5.801 Y11.465 Z0.175 F300
G1 X5.801 Y11.473 Z0.132 F300
G1 X5.795 Y11.473 Z0.087 F300
G1 X5.776 Y11.473 Z0.046 F300
G1 X5.747 Y11.473 Z0.012 F300
G1 X5.709 Y11.473 Z-0.012 F300
G1 X5.666 Y11.473 Z-0.025 F300
G1 X5.478 Y11.473 Z-0.053 F300
G1 X5.146 Y11.473 Z-0.148 F300
G1 X4.982 Y11.473 Z-0.209 F300
G1 X4.673 Y11.473 Z-0.369 F300
G1 X4.523 Y11.473 Z-0.463 F300
G1 X4.250 Y11.473 Z-0.683 F300
G1 X4.092 Y11.473 Z-0.842 F300
G1 X3.896 Y11.473 Z-1.083 F300
G1 X3.768 Y11.473 Z-1.284 F300
G1 X3.627 Y11.473 Z-1.557 F300
G1 X3.557 Y11.473 Z-1.745 F300
G1 X3.479 Y11.473 Z-2.007 F300
G1 X3.439 Y11.473 Z-2.243 F300
G1 X3.421 Y11.473 Z-2.426 F300
G1 X3.421 Y11.725 Z-2.425 F300
G1 X3.439 Y11.725 Z-2.243 F300
G1 X3.479 Y11.725 Z-2.007 F300
G1 X3.557 Y11.725 Z-1.745 F300
G1 X3.627 Y11.725 Z-1.557 F300
G1 X3.768 Y11.725 Z-1.284 F300
G1 X3.896 Y11.725 Z-1.083 F300
G1 X4.092 Y11.725 Z-0.842 F300
G1 X4.250 Y11.725 Z-0.683 F300
G1 X4.523 Y11.725 Z-0.463 F300
G1 X4.673 Y11.725 Z-0.369 F300
G1 X4.982 Y11.725 Z-0.209 F300
G1 X5.146 Y11.725 Z-0.148 F300
G1 X5.478 Y11.725 Z-0.053 F300
G1 X5.666 Y11.725 Z-0.025 F300
G1 X5.709 Y11.725 Z-0.012 F300
G1 X5.747 Y11.725 Z0.012 F300
G1 X5.776 Y11.725 Z0.046 F300
G1 X5.795 Y11.725 Z0.087 F300
G1 X5.801 Y11.725 Z0.132 F300
G1 X5.801 Y11.733 Z0.175 F300
G1 X5.801 Y11.754 Z0.213 F300
G1 X5.801 Y11.788 Z0.241 F300
G1 X5.801 Y11.829 Z0.256 F300
G1 X5.801 Y11.873 Z0.256 F300
G1 X5.801 Y11.914 Z0.241 F300
G1 X5.801 Y11.947 Z0.213 F300
G1 X5.801 Y11.969 Z0.175 F300
G1 X5.801 Y11.977 Z0.132 F300
G1 X5.795 Y11.977 Z0.087 F300
G1 X5.776 Y11.977 Z0.046 F300
G1 X5.747 Y11.977 Z0.012 F300
G1 X5.709 Y11.977 Z-0.012 F300
G1 X5.666 Y11.977 Z-0.025 F300
G1 X5.478 Y11.977 Z-0.053 F300
G1 X5.146 Y11.977 Z-0.148 F300
G1 X4.982 Y11.977 Z-0.209 F300
G1 X4.673 Y11.977 Z-0.369 F300
G1 X4.523 Y11.977 Z-0.463 F300
G1 X4.250 Y11.977 Z-0.683 F300
G1 X4.092 Y11.977 Z-0.842 F300
G1 X3.896 Y11.977 Z-1.083 F300
G1 X3.768 Y11.977 Z-1.284 F300
G1 X3.627 Y11.977 Z-1.557 F300
G1 X3.557 Y11.977 Z-1.745 F300
G1 X3.479 Y11.977 Z-2.007 F300
G1 X3.439 Y11.977 Z-2.243 F300
G1 X3.421 Y11.977 Z-2.425 F300
G1 X3.421 Y12.229 Z-2.424 F300
G1 X3.439 Y12.229 Z-2.243 F300
G1 X3.479 Y12.229 Z-2.007 F300
G1 X3.557 Y12.229 Z-1.745 F300
G1 X3.627 Y12.229 Z-1.557 F300
G1 X3.768 Y12.229 Z-1.284 F300
G1 X3.896 Y12.229 Z-1.083 F300
G1 X4.092 Y12.229 Z-0.842 F300
G1 X4.250 Y12.229 Z-0.683 F300
G1 X4.523 Y12.229 Z-0.463 F300
G1 X4.673 Y12.229 Z-0.369 F300
G1 X4.982 Y12.229 Z-0.209 F300
G1 X5.146 Y12.229 Z-0.148 F300
G1 X5.478 Y12.229 Z-0.053 F300
G1 X5.666 Y12.229 Z-0.025 F300
G1 X5.709 Y12.229 Z-0.012 F300
G1 X5.747 Y12.229 Z0.012 F300
G1 X5.776 Y12.229 Z0.046 F300
G1 X5.795 Y12.229 Z0.087 F300
G1 X5.801 Y12.229 Z0.132 F300
G1 X5.801 Y12.237 Z0.175 F300
G1 X5.801 Y12.258 Z0.213 F300
G1 X5.801 Y12.292 Z0.241 F300
G1 X5.801 Y12.333 Z0.256 F300
G1 X5.801 Y12.377 Z0.256 F300
G1 X5.801 Y12.418 Z0.241 F300
G1 X5.801 Y12.451 Z0.213 F300
G1 X5.801 Y12.473 Z0.175 F300
G1 X5.801 Y12.481 Z0.132 F300
G1 X5.795 Y12.481 Z0.087 F300
G1 X5.776 Y12.481 Z0.046 F300
G1 X5.747 Y12.481 Z0.012 F300
G1 X5.709 Y12.481 Z-0.012 F300
G1 X5.666 Y12.481 Z-0.025 F300
G1 X5.478 Y12.481 Z-0.053 F300
G1 X5.146 Y12.481 Z-0.148 F300
G1 X4.982 Y12.481 Z-0.209 F300
G1 X4.673 Y12.481 Z-0.369 F300
G1 X4.523 Y12.481 Z-0.463 F300
G1 X4.250 Y12.481 Z-0.683 F300
G1 X4.092 Y12.481 Z-0.842 F300
G1 X3.896 Y12.481 Z-1.083 F300
G1 X3.768 Y12.481 Z-1.284 F300
G1 X3.627 Y12.481 Z-1.557 F300
G1 X3.557 Y12.481 Z-1.745 F300
G1 X3.479 Y12.481 Z-2.007 F300
G1 X3.439 Y12.481 Z-2.243 F300
G1 X3.421 Y12.481 Z-2.423 F300
G1 X3.421 Y12.733 Z-2.423 F300
G1 X3.439 Y12.733 Z-2.243 F300
G1 X3.479 Y12.733 Z-2.007 F300
G1 X3.557 Y12.733 Z-1.745 F300
G1 X3.627 Y12.733 Z-1.557 F300
G1 X3.768 Y12.733 Z-1.284 F300
G1 X3.896 Y12.733 Z-1.083 F300
G1 X4.092 Y12.733 Z-0.842 F300
G1 X4.250 Y12.733 Z-0.683 F300
G1 X4.523 Y12.733 Z-0.463 F300
G1 X4.673 Y12.733 Z-0.369 F300
G1 X4.982 Y12.733 Z-0.209 F300
G1 X5.146 Y12.733 Z-0.148 F300
G1 X5.478 Y12.733 Z-0.053 F300
G1 X5.666 Y12.733 Z-0.025 F300
G1 X5.709 Y12.733 Z-0.012 F300
G1 X5.747 Y12.733 Z0.012 F300
G1 X5.776 Y12.733 Z0.046 F300
G1 X5.795 Y12.733 Z0.087 F300
G1 X5.801 Y12.733 Z0.132 F300
G1 X5.801 Y12.741 Z0.175 F300
G1 X5.801 Y12.762 Z0.213 F300
G1 X5.801 Y12.796 Z0.241 F300
G1 X5.801 Y12.837 Z0.256 F300
G1 X5.801 Y12.881 Z0.256 F300
G1 X5.801 Y12.922 Z0.241 F300
G1 X5.801 Y12.955 Z0.213 F300
G1 X5.801 Y12.977 Z0.175 F300
G1 X5.801 Y12.985 Z0.132 F300
G1 X5.795 Y12.985 Z0.087 F300
G1 X5.776 Y12.985 Z0.046 F300
G1 X5.747 Y12.985 Z0.012 F300
G1 X5.709 Y12.985 Z-0.012 F300
G1 X5.666 Y12.985 Z-0.025 F300
G1 X5.478 Y12.985 Z-0.053 F300
G1 X5.146 Y12.985 Z-0.148 F300
G1 X4.982 Y12.985 Z-0.209 F300
G1 X4.673 Y12.985 Z-0.369 F300
G1 X4.523 Y12.985 Z-0.463 F300
G1 X4.250 Y12.985 Z-0.683 F300
G1 X4.092 Y12.985 Z-0.842 F300
G1 X3.896 Y12.985 Z-1.083 F300
G1 X3.768 Y12.985 Z-1.284 F300
G1 X3.627 Y12.985 Z-1.557 F300
G1 X3.557 Y12.985 Z-1.745 F300
G1 X3.479 Y12.985 Z-2.007 F300
G1 X3.439 Y12.985 Z-2.243 F300
G1 X3.421 Y12.985 Z-2.426 F300
G1 X3.421 Y13.237 Z-2.426 F300
G1 X3.439 Y13.237 Z-2.243 F300
G1 X3.479 Y13.237 Z-2.007 F300
G1 X3.557 Y13.237 Z-1.745 F300
G1 X3.627 Y13.237 Z-1.557 F300
G1 X3.768 Y13.237 Z-1.284 F300
G1 X3.896 Y13.237 Z-1.083 F300
G1 X4.092 Y13.237 Z-0.842 F300
G1 X4.250 Y13.237 Z-0.683 F300
G1 X4.523 Y13.237 Z-0.463 F300
G1 X4.673 Y13.237 Z-0.369 F300
G1 X4.982 Y13.237 Z-0.209 F300
G1 X5.146 Y13.237 Z-0.148 F300
G1 X5.478 Y13.237 Z-0.053 F300
G1 X5.666 Y13.237 Z-0.025 F300
G1 X5.709 Y13.237 Z-0.012 F300
G1 X5.747 Y13.237 Z0.012 F300
G1 X5.776 Y13.237 Z0.046 F300
G1 X5.795 Y13.237 Z0.087 F300
G1 X5.801 Y13.237 Z0.132 F300
G1 X5.801 Y13.244 Z0.175 F300
G1 X5.801 Y13.266 Z0.213 F300
G1 X5.801 Y13.300 Z0.241 F300
G1 X5.801 Y13.341 Z0.256 F300
G1 X5.801 Y13.385 Z0.256 F300
G1 X5.801 Y13.426 Z0.241 F300
G1 X5.801 Y13.459 Z0.213 F300
G1 X5.801 Y13.481 Z0.175 F300
G1 X5.801 Y13.489 Z0.132 F300
G1 X5.795 Y13.489 Z0.087 F300
G1 X5.776 Y13.489 Z0.046 F300
G1 X5.747 Y13.489 Z0.012 F300
G1 X5.709 Y13.489 Z-0.012 F300
G1 X5.666 Y13.489 Z-0.025 F300
G1 X5.478 Y13.489 Z-0.053 F300
G1 X5.146 Y13.489 Z-0.148 F300
G1 X4.982 Y13.489 Z-0.209 F300
G1 X4.673 Y13.489 Z-0.369 F300
G1 X4.523 Y13.489 Z-0.463 F300
G1 X4.250 Y13.489 Z-0.683 F300
G1 X4.092 Y13.489 Z-0.842 F300
G1 X3.896 Y13.489 Z-1.083 F300
G1 X3.768 Y13.489 Z-1.284 F300
G1 X3.627 Y13.489 Z-1.557 F300
G1 X3.557 Y13.489 Z-1.745 F300
G1 X3.479 Y13.489 Z-2.007 F300
G1 X3.439 Y13.489 Z-2.243 F300
G1 X3.421 Y13.489 Z-2.426 F300
G1 X3.421 Y13.741 Z-2.426 F300
G1 X3.439 Y13.741 Z-2.243 F300
G1 X3.479 Y13.741 Z-2.007 F300
G1 X3.557 Y13.741 Z-1.745 F300
G1 X3.627 Y13.741 Z-1.557 F300
G1 X3.768 Y13.741 Z-1.284 F300
G1 X3.896 Y13.741 Z-1.083 F300
G1 X4.092 Y13.741 Z-0.842 F300
G1 X4.250 Y13.741 Z-0.683 F300
G1 X4.523 Y13.741 Z-0.463 F300
G1 X4.673 Y13.741 Z-0.369 F300
G1 X4.982 Y13.741 Z-0.209 F300
G1 X5.146 Y13.741 Z-0.148 F300
G1 X5.478 Y13.741 Z-0.053 F300
G1 X5.666 Y13.741 Z-0.025 F300
G1 X5.709 Y13.741 Z-0.012 F300
G1 X5.747 Y13.741 Z0.012 F300
G1 X5.776 Y13.741 Z0.046 F300
G1 X5.795 Y13.741 Z0.087 F300
G1 X5.801 Y13.741 Z0.132 F300
G1 X5.801 Y13.748 Z0.175 F300
G1 X5.801 Y13.770 Z0.213 F300
G1 X5.801 Y13.804 Z0.241 F300
G1 X5.801 Y13.845 Z0.256 F300
G1 X5.801 Y13.889 Z0.256 F300
G1 X5.801 Y13.930 Z0.241 F300
G1 X5.801 Y13.963 Z0.213 F300
G1 X5.801 Y13.985 Z0.175 F300
G1 X5.801 Y13.993 Z0.132 F300
G1 X5.795 Y13.993 Z0.087 F300
G1 X5.776 Y13.993 Z0.046 F300
G1 X5.747 Y13.993 Z0.012 F300
G1 X5.709 Y13.993 Z-0.012 F300
G1 X5.666 Y13.993 Z-0.025 F300
G1 X5.478 Y13.993 Z-0.053 F300
G1 X5.146 Y13.993 Z-0.148 F300
G1 X4.982 Y13.993 Z-0.209 F300
G1 X4.673 Y13.993 Z-0.369 F300
G1 X4.523 Y13.993 Z-0.463 F300
G1 X4.250 Y13.993 Z-0.683 F300
G1 X4.092 Y13.993 Z-0.842 F300
G1 X3.896 Y13.993 Z-1.083 F300
G1 X3.768 Y13.993 Z-1.284 F300
G1 X3.627 Y13.993 Z-1.557 F300
G1 X3.557 Y13.993 Z-1.745 F300
G1 X3.479 Y13.993 Z-2.007 F300
G1 X3.439 Y13.993 Z-2.243 F300
G1 X3.421 Y13.993 Z-2.426 F300
G1 X3.421 Y14.245 Z-2.426 F300
G1 X3.439 Y14.245 Z-2.243 F300
G1 X3.479 Y14.245 Z-2.007 F300
G1 X3.557 Y14.245 Z-1.745 F300
G1 X3.627 Y14.245 Z-1.557 F300
G1 X3.768 Y14.245 Z-1.284 F300
G1 X3.896 Y14.245 Z-1.083 F300
G1 X4.092 Y14.245 Z-0.842 F300
G1 X4.250 Y14.245 Z-0.683 F300
G1 X4.523 Y14.245 Z-0.463 F300
G1 X4.673 Y14.245 Z-0.369 F300
G1 X4.982 Y14.245 Z-0.209 F300
G1 X5.146 Y14.245 Z-0.148 F300
G1 X5.478 Y14.245 Z-0.053 F300
G1 X5.666 Y14.245 Z-0.025 F300
G1 X5.709 Y14.245 Z-0.012 F300
G1 X5.747 Y14.245 Z0.012 F300
G1 X5.776 Y14.245 Z0.046 F300
G1 X5.795 Y14.245 Z0.087 F300
G1 X5.801 Y14.245 Z0.132 F300
G1 X5.801 Y14.252 Z0.175 F300
G1 X5.801 Y14.274 Z0.213 F300
G1 X5.801 Y14.308 Z0.241 F300
G1 X5.801 Y14.349 Z0.256 F300
G1 X5.801 Y14.393 Z0.256 F300
G1 X5.801 Y14.434 Z0.241 F300
G1 X5.801 Y14.467 Z0.213 F300
G1 X5.801 Y14.489 Z0.175 F300
G1 X5.801 Y14.497 Z0.132 F300
G1 X5.795 Y14.497 Z0.087 F300
G1 X5.776 Y14.497 Z0.046 F300
G1 X5.747 Y14.497 Z0.012 F300
G1 X5.709 Y14.497 Z-0.012 F300
G1 X5.666 Y14.497 Z-0.025 F300
G1 X5.478 Y14.497 Z-0.053 F300
G1 X5.146 Y14.497 Z-0.148 F300
G1 X4.982 Y14.497 Z-0.209 F300
G1 X4.673 Y14.497 Z-0.369 F300
G1 X4.523 Y14.497 Z-0.463 F300
G1 X4.250 Y14.497 Z-0.683 F300
G1 X4.092 Y14.497 Z-0.842 F300
G1 X3.896 Y14.497 Z-1.083 F300
G1 X3.768 Y14.497 Z-1.284 F300
G1 X3.627 Y14.497 Z-1.557 F300
G1 X3.557 Y14.497 Z-1.745 F300
G1 X3.479 Y14.497 Z-2.007 F300
G1 X3.439 Y14.497 Z-2.243 F300
G1 X3.421 Y14.497 Z-2.426 F300
G1 X3.421 Y14.749 Z-2.426 F300
G1 X3.439 Y14.749 Z-2.243 F300
G1 X3.479 Y14.749 Z-2.007 F300
G1 X3.557 Y14.749 Z-1.745 F300
G1 X3.627 Y14.749 Z-1.557 F300
G1 X3.768 Y14.749 Z-1.284 F300
G1 X3.896 Y14.749 Z-1.083 F300
G1 X4.092 Y14.749 Z-0.842 F300
G1 X4.250 Y14.749 Z-0.683 F300
G1 X4.523 Y14.749 Z-0.463 F300
G1 X4.673 Y14.749 Z-0.369 F300
G1 X4.982 Y14.749 Z-0.209 F300
G1 X5.146 Y14.749 Z-0.148 F300
G1 X5.478 Y14.749 Z-0.053 F300
G1 X5.666 Y14.749 Z-0.025 F300
G1 X5.709 Y14.749 Z-0.012 F300
G1 X5.747 Y14.749 Z0.012 F300
G1 X5.776 Y14.749 Z0.046 F300
G1 X5.795 Y14.749 Z0.087 F300
G1 X5.801 Y14.749 Z0.132 F300
G1 X5.801 Y14.756 Z0.175 F300
G1 X5.801 Y14.778 Z0.213 F300
G1 X5.801 Y14.812 Z0.241 F300
G1 X5.801 Y14.853 Z0.256 F300
G1 X5.801 Y14.897 Z0.256 F300
G1 X5.801 Y14.938 Z0.241 F300
G1 X5.801 Y14.971 Z0.213 F300
G1 X5.801 Y14.993 Z0.175 F300
G1 X5.801 Y15.001 Z0.132 F300
G1 X5.795 Y15.001 Z0.087 F300
G1 X5.776 Y15.001 Z0.046 F300
G1 X5.747 Y15.001 Z0.012 F300
G1 X5.709 Y15.001 Z-0.012 F300
G1 X5.666 Y15.001 Z-0.025 F300
G1 X5.478 Y15.001 Z-0.053 F300
G1 X5.146 Y15.001 Z-0.148 F300
G1 X4.982 Y15.001 Z-0.209 F300
G1 X4.673 Y15.001 Z-0.369 F300
G1 X4.523 Y15.001 Z-0.463 F300
G1 X4.250 Y15.001 Z-0.683 F300
G1 X4.092 Y15.001 Z-0.842 F300
G1 X3.896 Y15.001 Z-1.083 F300
G1 X3.768 Y15.001 Z-1.284 F300
G1 X3.627 Y15.001 Z-1.557 F300
G1 X3.557 Y15.001 Z-1.745 F300
G1 X3.479 Y15.001 Z-2.007 F300
G1 X3.439 Y15.001 Z-2.243 F300
G1 X3.421 Y15.001 Z-2.426 F300
G1 X3.421 Y15.253 Z-2.426 F300
G1 X3.439 Y15.253 Z-2.243 F300
G1 X3.479 Y15.253 Z-2.007 F300
G1 X3.557 Y15.253 Z-1.745 F300
G1 X3.627 Y15.253 Z-1.557 F300
G1 X3.768 Y15.253 Z-1.284 F300
G1 X3.896 Y15.253 Z-1.083 F300
G1 X4.092 Y15.253 Z-0.842 F300
G1 X4.250 Y15.253 Z-0.683 F300
G1 X4.523 Y15.253 Z-0.463 F300
G1 X4.673 Y15.253 Z-0.369 F300
G1 X4.982 Y15.253 Z-0.209 F300
G1 X5.146 Y15.253 Z-0.148 F300
G1 X5.478 Y15.253 Z-0.053 F300
G1 X5.666 Y15.253 Z-0.025 F300
G1 X5.709 Y15.253 Z-0.012 F300
G1 X5.747 Y15.253 Z0.012 F300
G1 X5.776 Y15.253 Z0.046 F300
G1 X5.795 Y15.253 Z0.087 F300
G1 X5.801 Y15.253 Z0.132 F300
G1 X5.801 Y15.260 Z0.175 F300
G1 X5.801 Y15.282 Z0.213 F300
G1 X5.801 Y15.316 Z0.241 F300
G1 X5.801 Y15.357 Z0.256 F300
G1 X5.801 Y15.401 Z0.256 F300
G1 X5.801 Y15.442 Z0.241 F300
G1 X5.801 Y15.475 Z0.213 F300
G1 X5.801 Y15.497 Z0.175 F300
G1 X5.801 Y15.505 Z0.132 F300
G1 X5.795 Y15.505 Z0.087 F300
G1 X5.776 Y15.505 Z0.046 F300
G1 X5.747 Y15.505 Z0.012 F300
G1 X5.709 Y15.505 Z-0.012 F300
G1 X5.666 Y15.505 Z-0.025 F300
G1 X5.478 Y15.505 Z-0.053 F300
G1 X5.146 Y15.505 Z-0.148 F300
G1 X4.982 Y15.505 Z-0.209 F300
G1 X4.673 Y15.505 Z-0.369 F300
G1 X4.523 Y15.505 Z-0.463 F300
G1 X4.250 Y15.505 Z-0.683 F300
G1 X4.092 Y15.505 Z-0.842 F300
G1 X3.896 Y15.505 Z-1.083 F300
G1 X3.768 Y15.505 Z-1.284 F300
G1 X3.627 Y15.505 Z-1.557 F300
G1 X3.557 Y15.505 Z-1.745 F300
G1 X3.479 Y15.505 Z-2.007 F300
G1 X3.439 Y15.505 Z-2.243 F300
G1 X3.421 Y15.505 Z-2.426 F300
G1 X3.421 Y15.757 Z-2.426 F300
G1 X3.439 Y15.757 Z-2.243 F300
G1 X3.479 Y15.757 Z-2.007 F300
G1 X3.557 Y15.757 Z-1.745 F300
G1 X3.627 Y15.757 Z-1.557 F300
G1 X3.768 Y15.757 Z-1.284 F300
G1 X3.896 Y15.757 Z-1.083 F300
G1 X4.092 Y15.757 Z-0.842 F300
G1 X4.250 Y15.757 Z-0.683 F300
G1 X4.523 Y15.757 Z-0.463 F300
G1 X4.673 Y15.757 Z-0.369 F300
G1 X4.982 Y15.757 Z-0.209 F300
G1 X5.146 Y15.757 Z-0.148 F300
G1 X5.478 Y15.757 Z-0.053 F300
G1 X5.666 Y15.757 Z-0.025 F300
G1 X5.709 Y15.757 Z-0.012 F300
G1 X5.747 Y15.757 Z0.012 F300
G1 X5.776 Y15.757 Z0.046 F300
G1 X5.795 Y15.757 Z0.087 F300
G1 X5.801 Y15.757 Z0.132 F300
G1 X5.801 Y15.764 Z0.175 F300
G1 X5.801 Y15.786 Z0.213 F300
G1 X5.801 Y15.820 Z0.241 F300
G1 X5.801 Y15.861 Z0.256 F300
G1 X5.801 Y15.905 Z0.256 F300
G1 X5.801 Y15.946 Z0.241 F300
G1 X5.801 Y15.979 Z0.213 F300
G1 X5.801 Y16.001 Z0.175 F300
G1 X5.801 Y16.009 Z0.132 F300
G1 X5.795 Y16.009 Z0.087 F300
G1 X5.776 Y16.009 Z0.046 F300
G1 X5.747 Y16.009 Z0.012 F300
G1 X5.709 Y16.009 Z-0.012 F300
G1 X5.666 Y16.009 Z-0.025 F300
G1 X5.478 Y16.009 Z-0.053 F300
G1 X5.146 Y16.009 Z-0.148 F300
G1 X4.982 Y16.009 Z-0.209 F300
G1 X4.673 Y16.009 Z-0.369 F300
G1 X4.523 Y16.009 Z-0.463 F300
G1 X4.250 Y16.009 Z-0.683 F300
G1 X4.092 Y16.009 Z-0.842 F300
G1 X3.896 Y16.009 Z-1.083 F300
G1 X3.768 Y16.009 Z-1.284 F300
G1 X3.627 Y16.009 Z-1.557 F300
G1 X3.557 Y16.009 Z-1.745 F300
G1 X3.479 Y16.009 Z-2.007 F300
G1 X3.439 Y16.009 Z-2.243 F300
G1 X3.421 Y16.009 Z-2.426 F300
G1 X3.421 Y16.261 Z-2.426 F300
G1 X3.439 Y16.261 Z-2.243 F300
G1 X3.479 Y16.261 Z-2.007 F300
G1 X3.557 Y16.261 Z-1.745 F300
G1 X3.627 Y16.261 Z-1.557 F300
G1 X3.768 Y16.261 Z-1.284 F300
G1 X3.896 Y16.261 Z-1.083 F300
G1 X4.092 Y16.261 Z-0.842 F300
G1 X4.250 Y16.261 Z-0.683 F300
G1 X4.523 Y16.261 Z-0.463 F300
G1 X4.673 Y16.261 Z-0.369 F300
G1 X4.982 Y16.261 Z-0.209 F300
G1 X5.146 Y16.261 Z-0.148 F300
G1 X5.478 Y16.261 Z-0.053 F300
G1 X5.666 Y16.261 Z-0.025 F300
G1 X5.709 Y16.261 Z-0.012 F300
G1 X5.747 Y16.261 Z0.012 F300
G1 X5.776 Y16.261 Z0.046 F300
G1 X5.795 Y16.261 Z0.087 F300
G1 X5.801 Y16.261 Z0.132 F300
G1 X5.801 Y16.268 Z0.175 F300
G1 X5.801 Y16.290 Z0.213 F300
G1 X5.801 Y16.324 Z0.241 F300
G1 X5.801 Y16.365 Z0.256 F300
G1 X5.801 Y16.409 Z0.256 F300
G1 X5.801 Y16.450 Z0.241 F300
G1 X5.801 Y16.483 Z0.213 F300
G1 X5.801 Y16.505 Z0.175 F300
G1 X5.801 Y16.513 Z0.132 F300
G1 X5.795 Y16.513 Z0.087 F300
G1 X5.776 Y16.513 Z0.046 F300
G1 X5.747 Y16.513 Z0.012 F300
G1 X5.709 Y16.513 Z-0.012 F300
G1 X5.666 Y16.513 Z-0.025 F300
G1 X5.478 Y16.513 Z-0.053 F300
G1 X5.146 Y16.513 Z-0.148 F300
G1 X4.982 Y16.513 Z-0.209 F300
G1 X4.673 Y16.513 Z-0.369 F300
G1 X4.523 Y16.513 Z-0.463 F300
G1 X4.250 Y16.513 Z-0.683 F300
G1 X4.092 Y16.513 Z-0.842 F300
G1 X3.896 Y16.513 Z-1.083 F300
G1 X3.768 Y16.513 Z-1.284 F300
G1 X3.627 Y16.513 Z-1.557 F300
G1 X3.557 Y16.513 Z-1.745 F300
G1 X3.479 Y16.513 Z-2.007 F300
G1 X3.439 Y16.513 Z-2.243 F300
G1 X3.421 Y16.513 Z-2.426 F300
G1 X3.421 Y16.765 Z-2.426 F300
G1 X3.439 Y16.765 Z-2.243 F300
G1 X3.479 Y16.765 Z-2.007 F300
G1 X3.557 Y16.765 Z-1.745 F300
G1 X3.627 Y16.765 Z-1.557 F300
G1 X3.768 Y16.765 Z-1.284 F300
G1 X3.896 Y16.765 Z-1.083 F300
G1 X4.092 Y16.765 Z-0.842 F300
G1 X4.250 Y16.765 Z-0.683 F300
G1 X4.523 Y16.765 Z-0.463 F300
G1 X4.673 Y16.765 Z-0.369 F300
G1 X4.982 Y16.765 Z-0.209 F300
G1 X5.146 Y16.765 Z-0.148 F300
G1 X5.478 Y16.765 Z-0.053 F300
G1 X5.666 Y16.765 Z-0.025 F300
G1 X5.709 Y16.765 Z-0.012 F300
G1 X5.747 Y16.765 Z0.012 F300
G1 X5.776 Y16.765 Z0.046 F300
G1 X5.795 Y16.765 Z0.087 F300
G1 X5.801 Y16.765 Z0.132 F300
G1 X5.801 Y16.772 Z0.175 F300
G1 X5.801 Y16.794 Z0.213 F300
G1 X5.801 Y16.828 Z0.241 F300
G1 X5.801 Y16.869 Z0.256 F300
G1 X5.801 Y16.913 Z0.256 F300
G1 X5.801 Y16.954 Z0.241 F300
G1 X5.801 Y16.987 Z0.213 F300
G1 X5.801 Y17.009 Z0.175 F300
G1 X5.801 Y17.017 Z0.132 F300
G1 X5.795 Y17.017 Z0.087 F300
G1 X5.776 Y17.017 Z0.046 F300
G1 X5.747 Y17.017 Z0.012 F300
G1 X5.709 Y17.017 Z-0.012 F300
G1 X5.666 Y17.017 Z-0.025 F300
G1 X5.478 Y17.017 Z-0.053 F300
G1 X5.146 Y17.017 Z-0.148 F300
G1 X4.982 Y17.017 Z-0.209 F300
G1 X4.673 Y17.017 Z-0.369 F300
G1 X4.523 Y17.017 Z-0.463 F300
G1 X4.250 Y17.017 Z-0.683 F300
G1 X4.092 Y17.017 Z-0.842 F300
G1 X3.896 Y17.017 Z-1.083 F300
G1 X3.768 Y17.017 Z-1.284 F300
G1 X3.627 Y17.017 Z-1.557 F300
G1 X3.557 Y17.017 Z-1.745 F300
G1 X3.479 Y17.017 Z-2.007 F300
G1 X3.439 Y17.017 Z-2.243 F300
G1 X3.421 Y17.017 Z-2.426 F300
G1 X3.421 Y17.269 Z-2.426 F300
G1 X3.439 Y17.269 Z-2.243 F300
G1 X3.479 Y17.269 Z-2.007 F300
G1 X3.557 Y17.269 Z-1.745 F300
G1 X3.627 Y17.269 Z-1.557 F300
G1 X3.768 Y17.269 Z-1.284 F300
G1 X3.896 Y17.269 Z-1.083 F300
G1 X4.092 Y17.269 Z-0.842 F300
G1 X4.250 Y17.269 Z-0.683 F300
G1 X4.523 Y17.269 Z-0.463 F300
G1 X4.673 Y17.269 Z-0.369 F300
G1 X4.982 Y17.269 Z-0.209 F300
G1 X5.146 Y17.269 Z-0.148 F300
G1 X5.478 Y17.269 Z-0.053 F300
G1 X5.666 Y17.269 Z-0.025 F300
G1 X5.709 Y17.269 Z-0.012 F300
G1 X5.747 Y17.269 Z0.012 F300
G1 X5.776 Y17.269 Z0.046 F300
G1 X5.795 Y17.269 Z0.087 F300
G1 X5.801 Y17.269 Z0.132 F300
G1 X5.801 Y17.276 Z0.175 F300
G1 X5.801 Y17.298 Z0.213 F300
G1 X5.801 Y17.332 Z0.241 F300
G1 X5.801 Y17.373 Z0.256 F300
G1 X5.801 Y17.417 Z0.256 F300
G1 X5.801 Y17.458 Z0.241 F300
G1 X5.801 Y17.491 Z0.213 F300
G1 X5.801 Y17.513 Z0.175 F300
G1 X5.801 Y17.521 Z0.132 F300
G1 X5.795 Y17.521 Z0.087 F300
G1 X5.776 Y17.521 Z0.046 F300
G1 X5.747 Y17.521 Z0.012 F300
G1 X5.709 Y17.521 Z-0.012 F300
G1 X5.666 Y17.521 Z-0.025 F300
G1 X5.478 Y17.521 Z-0.053 F300
G1 X5.146 Y17.521 Z-0.148 F300
G1 X4.982 Y17.521 Z-0.209 F300
G1 X4.673 Y17.521 Z-0.369 F300
G1 X4.523 Y17.521 Z-0.463 F300
G1 X4.250 Y17.521 Z-0.683 F300
G1 X4.092 Y17.521 Z-0.842 F300
G1 X3.896 Y17.521 Z-1.083 F300
G1 X3.768 Y17.521 Z-1.284 F300
G1 X3.627 Y17.521 Z-1.557 F300
G1 X3.557 Y17.521 Z-1.745 F300
G1 X3.479 Y17.521 Z-2.007 F300
G1 X3.439 Y17.521 Z-2.243 F300
G1 X3.421 Y17.521 Z-2.426 F300
G1 X3.421 Y17.773 Z-2.426 F300
G1 X3.439 Y17.773 Z-2.243 F300
G1 X3.479 Y17.773 Z-2.007 F300
G1 X3.557 Y17.773 Z-1.745 F300
G1 X3.627 Y17.773 Z-1.557 F300
G1 X3.768 Y17.773 Z-1.284 F300
G1 X3.896 Y17.773 Z-1.083 F300
G1 X4.092 Y17.773 Z-0.842 F300
G1 X4.250 Y17.773 Z-0.683 F300
G1 X4.523 Y17.773 Z-0.463 F300
G1 X4.673 Y17.773 Z-0.369 F300
G1 X4.982 Y17.773 Z-0.209 F300
G1 X5.146 Y17.773 Z-0.148 F300
G1 X5.478 Y17.773 Z-0.053 F300
G1 X5.666 Y17.773 Z-0.025 F300
G1 X5.709 Y17.773 Z-0.012 F300
G1 X5.747 Y17.773 Z0.012 F300
G1 X5.776 Y17.773 Z0.046 F300
G1 X5.795 Y17.773 Z0.087 F300
G1 X5.801 Y17.773 Z0.132 F300
G1 X5.801 Y17.780 Z0.175 F300
G1 X5.801 Y17.802 Z0.213 F300
G1 X5.801 Y17.836 Z0.241 F300
G1 X5.801 Y17.877 Z0.256 F300
G1 X5.801 Y17.921 Z0.256 F300
G1 X5.801 Y17.962 Z0.241 F300
G1 X5.801 Y17.995 Z0.213 F300
G1 X5.801 Y18.017 Z0.175 F300
G1 X5.801 Y18.025 Z0.132 F300
G1 X5.795 Y18.025 Z0.087 F300
G1 X5.776 Y18.025 Z0.046 F300
G1 X5.747 Y18.025 Z0.012 F300
G1 X5.709 Y18.025 Z-0.012 F300
G1 X5.666 Y18.025 Z-0.025 F300
G1 X5.478 Y18.025 Z-0.053 F300
G1 X5.146 Y18.025 Z-0.148 F300
G1 X4.982 Y18.025 Z-0.209 F300
G1 X4.673 Y18.025 Z-0.369 F300
G1 X4.523 Y18.025 Z-0.463 F300
G1 X4.250 Y18.025 Z-0.683 F300
G1 X4.092 Y18.025 Z-0.842 F300
G1 X3.896 Y18.025 Z-1.083 F300
G1 X3.768 Y18.025 Z-1.284 F300
G1 X3.627 Y18.025 Z-1.557 F300
G1 X3.557 Y18.025 Z-1.745 F300
G1 X3.479 Y18.025 Z-2.007 F300
G1 X3.439 Y18.025 Z-2.243 F300
G1 X3.421 Y18.025 Z-2.426 F300
G1 X3.421 Y18.277 Z-2.426 F300
G1 X3.439 Y18.277 Z-2.243 F300
G1 X3.479 Y18.277 Z-2.007 F300
G1 X3.557 Y18.277 Z-1.745 F300
G1 X3.627 Y18.277 Z-1.557 F300
G1 X3.768 Y18.277 Z-1.284 F300
G1 X3.896 Y18.277 Z-1.083 F300
G1 X4.092 Y18.277 Z-0.842 F300
G1 X4.250 Y18.277 Z-0.683 F300
G1 X4.523 Y18.277 Z-0.463 F300
G1 X4.673 Y18.277 Z-0.369 F300
G1 X4.982 Y18.277 Z-0.209 F300
G1 X5.146 Y18.277 Z-0.148 F300
G1 X5.478 Y18.277 Z-0.053 F300
G1 X5.666 Y18.277 Z-0.025 F300
G1 X5.709 Y18.277 Z-0.012 F300
G1 X5.747 Y18.277 Z0.012 F300
G1 X5.776 Y18.277 Z0.046 F300
G1 X5.795 Y18.277 Z0.087 F300
G1 X5.801 Y18.277 Z0.132 F300
G1 X5.801 Y18.284 Z0.175 F300
G1 X5.801 Y18.306 Z0.213 F300
G1 X5.801 Y18.340 Z0.241 F300
G1 X5.801 Y18.381 Z0.256 F300
G1 X5.801 Y18.425 Z0.256 F300
G1 X5.801 Y18.466 Z0.241 F300
G1 X5.801 Y18.499 Z0.213 F300
G1 X5.801 Y18.521 Z0.175 F300
G1 X5.801 Y18.529 Z0.132 F300
G1 X5.795 Y18.529 Z0.087 F300
G1 X5.776 Y18.529 Z0.046 F300
G1 X5.747 Y18.529 Z0.012 F300
G1 X5.709 Y18.529 Z-0.012 F300
G1 X5.666 Y18.529 Z-0.025 F300
G1 X5.478 Y18.529 Z-0.053 F300
G1 X5.146 Y18.529 Z-0.148 F300
G1 X4.982 Y18.529 Z-0.209 F300
G1 X4.673 Y18.529 Z-0.369 F300
G1 X4.523 Y18.529 Z-0.463 F300
G1 X4.250 Y18.529 Z-0.683 F300
G1 X4.092 Y18.529 Z-0.842 F300
G1 X3.896 Y18.529 Z-1.083 F300
G1 X3.768 Y18.529 Z-1.284 F300
G1 X3.627 Y18.529 Z-1.557 F300
G1 X3.557 Y18.529 Z-1.745 F300
G1 X3.479 Y18.529 Z-2.007 F300
G1 X3.439 Y18.529 Z-2.243 F300
G1 X3.421 Y18.529 Z-2.426 F300
G1 X3.421 Y18.781 Z-2.426 F300
G1 X3.439 Y18.781 Z-2.243 F300
G1 X3.479 Y18.781 Z-2.007 F300
G1 X3.557 Y18.781 Z-1.745 F300
G1 X3.627 Y18.781 Z-1.557 F300
G1 X3.768 Y18.781 Z-1.284 F300
G1 X3.896 Y18.781 Z-1.083 F300
G1 X4.092 Y18.781 Z-0.842 F300
G1 X4.250 Y18.781 Z-0.683 F300
G1 X4.523 Y18.781 Z-0.463 F300
G1 X4.673 Y18.781 Z-0.369 F300
G1 X4.982 Y18.781 Z-0.209 F300
G1 X5.146 Y18.781 Z-0.148 F300
G1 X5.478 Y18.781 Z-0.053 F300
G1 X5.666 Y18.781 Z-0.025 F300
G1 X5.709 Y18.781 Z-0.012 F300
G1 X5.747 Y18.781 Z0.012 F300
G1 X5.776 Y18.781 Z0.046 F300
G1 X5.795 Y18.781 Z0.087 F300
G1 X5.801 Y18.781 Z0.132 F300
G1 X5.801 Y18.788 Z0.175 F300
G1 X5.801 Y18.810 Z0.213 F300
G1 X5.801 Y18.844 Z0.241 F300
G1 X5.801 Y18.885 Z0.256 F300
G1 X5.801 Y18.929 Z0.256 F300
G1 X5.801 Y18.970 Z0.241 F300
G1 X5.801 Y19.003 Z0.213 F300
G1 X5.801 Y19.025 Z0.175 F300
G1 X5.801 Y19.033 Z0.132 F300
G1 X5.795 Y19.033 Z0.087 F300
G1 X5.776 Y19.033 Z0.046 F300
G1 X5.747 Y19.033 Z0.012 F300
G1 X5.709 Y19.033 Z-0.012 F300
G1 X5.666 Y19.033 Z-0.025 F300
G1 X5.478 Y19.033 Z-0.053 F300
G1 X5.146 Y19.033 Z-0.148 F300
G1 X4.982 Y19.033 Z-0.209 F300
G1 X4.673 Y19.033 Z-0.369 F300
G1 X4.523 Y19.033 Z-0.463 F300
G1 X4.250 Y19.033 Z-0.683 F300
G1 X4.092 Y19.033 Z-0.842 F300
G1 X3.896 Y19.033 Z-1.083 F300
G1 X3.768 Y19.033 Z-1.284 F300
G1 X3.627 Y19.033 Z-1.557 F300
G1 X3.557 Y19.033 Z-1.745 F300
G1 X3.479 Y19.033 Z-2.007 F300
G1 X3.439 Y19.033 Z-2.243 F300
G1 X3.421 Y19.033 Z-2.426 F300
G1 X3.421 Y19.285 Z-2.426 F300
G1 X3.439 Y19.285 Z-2.243 F300
G1 X3.479 Y19.285 Z-2.007 F300
G1 X3.557 Y19.285 Z-1.745 F300
G1 X3.627 Y19.285 Z-1.557 F300
G1 X3.768 Y19.285 Z-1.284 F300
G1 X3.896 Y19.285 Z-1.083 F300
G1 X4.092 Y19.285 Z-0.842 F300
G1 X4.250 Y19.285 Z-0.683 F300
G1 X4.523 Y19.285 Z-0.463 F300
G1 X4.673 Y19.285 Z-0.369 F300
G1 X4.982 Y19.285 Z-0.209 F300
G1 X5.146 Y19.285 Z-0.148 F300
G1 X5.478 Y19.285 Z-0.053 F300
G1 X5.666 Y19.285 Z-0.025 F300
G1 X5.709 Y19.285 Z-0.012 F300
G1 X5.747 Y19.285 Z0.012 F300
G1 X5.776 Y19.285 Z0.046 F300
G1 X5.795 Y19.285 Z0.087 F300
G1 X5.801 Y19.285 Z0.132 F300
G1 X5.801 Y19.292 Z0.175 F300
G1 X5.801 Y19.314 Z0.213 F300
G1 X5.801 Y19.348 Z0.241 F300
G1 X5.801 Y19.389 Z0.256 F300
G1 X5.801 Y19.433 Z0.256 F300
G1 X5.801 Y19.474 Z0.241 F300
G1 X5.801 Y19.507 Z0.213 F300
G1 X5.801 Y19.529 Z0.175 F300
G1 X5.801 Y19.537 Z0.132 F300
G1 X5.795 Y19.537 Z0.087 F300
G1 X5.776 Y19.537 Z0.046 F300
G1 X5.747 Y19.537 Z0.012 F300
G1 X5.709 Y19.537 Z-0.012 F300
G1 X5.666 Y19.537 Z-0.025 F300
G1 X5.478 Y19.537 Z-0.053 F300
G1 X5.146 Y19.537 Z-0.148 F300
G1 X4.982 Y19.537 Z-0.209 F300
G1 X4.673 Y19.537 Z-0.369 F300
G1 X4.523 Y19.537 Z-0.463 F300
G1 X4.250 Y19.537 Z-0.683 F300
G1 X4.092 Y19.537 Z-0.842 F300
G1 X3.896 Y19.537 Z-1.083 F300
G1 X3.768 Y19.537 Z-1.284 F300
G1 X3.627 Y19.537 Z-1.557 F300
G1 X3.557 Y19.537 Z-1.745 F300
G1 X3.479 Y19.537 Z-2.007 F300
G1 X3.439 Y19.537 Z-2.243 F300
G1 X3.421 Y19.537 Z-2.426 F300
G1 X3.421 Y19.789 Z-2.426 F300
G1 X3.439 Y19.789 Z-2.243 F300
G1 X3.479 Y19.789 Z-2.007 F300
G1 X3.557 Y19.789 Z-1.745 F300
G1 X3.627 Y19.789 Z-1.557 F300
G1 X3.768 Y19.789 Z-1.284 F300
G1 X3.896 Y19.789 Z-1.083 F300
G1 X4.092 Y19.789 Z-0.842 F300
G1 X4.250 Y19.789 Z-0.683 F300
G1 X4.523 Y19.789 Z-0.463 F300
G1 X4.673 Y19.789 Z-0.369 F300
G1 X4.982 Y19.789 Z-0.209 F300
G1 X5.146 Y19.789 Z-0.148 F300
G1 X5.478 Y19.789 Z-0.053 F300
G1 X5.666 Y19.789 Z-0.025 F300
G1 X5.709 Y19.789 Z-0.012 F300
G1 X5.747 Y19.789 Z0.012 F300
G1 X5.776 Y19.789 Z0.046 F300
G1 X5.795 Y19.789 Z0.087 F300
G1 X5.801 Y19.789 Z0.132 F300
G1 X5.801 Y19.796 Z0.175 F300
G1 X5.801 Y19.818 Z0.213 F300
G1 X5.801 Y19.852 Z0.241 F300
G1 X5.801 Y19.893 Z0.256 F300
G1 X5.801 Y19.937 Z0.256 F300
G1 X5.801 Y19.978 Z0.241 F300
G1 X5.801 Y20.011 Z0.213 F300
G1 X5.801 Y20.033 Z0.175 F300
G1 X5.801 Y20.041 Z0.132 F300
G1 X5.795 Y20.041 Z0.087 F300
G1 X5.776 Y20.041 Z0.046 F300
G1 X5.747 Y20.041 Z0.012 F300
G1 X5.709 Y20.041 Z-0.012 F300
G1 X5.666 Y20.041 Z-0.025 F300
G1 X5.478 Y20.041 Z-0.053 F300
G1 X5.146 Y20.041 Z-0.148 F300
G1 X4.982 Y20.041 Z-0.209 F300
G1 X4.673 Y20.041 Z-0.369 F300
G1 X4.523 Y20.041 Z-0.463 F300
G1 X4.250 Y20.041 Z-0.683 F300
G1 X4.092 Y20.041 Z-0.842 F300
G1 X3.896 Y20.041 Z-1.083 F300
G1 X3.768 Y20.041 Z-1.284 F300
G1 X3.627 Y20.041 Z-1.557 F300
G1 X3.557 Y20.041 Z-1.745 F300
G1 X3.479 Y20.041 Z-2.007 F300
G1 X3.439 Y20.041 Z-2.243 F300
G1 X3.421 Y20.041 Z-2.426 F300
G1 X3.421 Y20.293 Z-2.426 F300
G1 X3.439 Y20.293 Z-2.243 F300
G1 X3.479 Y20.293 Z-2.007 F300
G1 X3.557 Y20.293 Z-1.745 F300
G1 X3.627 Y20.293 Z-1.557 F300
G1 X3.768 Y20.293 Z-1.284 F300
G1 X3.896 Y20.293 Z-1.083 F300
G1 X4.092 Y20.293 Z-0.842 F300
G1 X4.250 Y20.293 Z-0.683 F300
G1 X4.523 Y20.293 Z-0.463 F300
G1 X4.673 Y20.293 Z-0.369 F300
G1 X4.982 Y20.293 Z-0.209 F300
G1 X5.146 Y20.293 Z-0.148 F300
G1 X5.478 Y20.293 Z-0.053 F300
G1 X5.666 Y20.293 Z-0.025 F300
G1 X5.709 Y20.293 Z-0.012 F300
G1 X5.747 Y20.293 Z0.012 F300
G1 X5.776 Y20.293 Z0.046 F300
G1 X5.795 Y20.293 Z0.087 F300
G1 X5.801 Y20.293 Z0.132 F300
G1 X5.801 Y20.300 Z0.175 F300
G1 X5.801 Y20.322 Z0.213 F300
G1 X5.801 Y20.356 Z0.241 F300
G1 X5.801 Y20.397 Z0.256 F300
G1 X5.801 Y20.440 Z0.256 F300
G1 X5.801 Y20.482 Z0.241 F300
G1 X5.801 Y20.515 Z0.213 F300
G1 X5.801 Y20.537 Z0.175 F300
G1 X5.801 Y20.545 Z0.132 F300
G1 X5.795 Y20.545 Z0.087 F300
G1 X5.776 Y20.545 Z0.046 F300
G1 X5.747 Y20.545 Z0.012 F300
G1 X5.709 Y20.545 Z-0.012 F300
G1 X5.666 Y20.545 Z-0.025 F300
G1 X5.478 Y20.545 Z-0.053 F300
G1 X5.146 Y20.545 Z-0.148 F300
G1 X4.982 Y20.545 Z-0.209 F300
G1 X4.673 Y20.545 Z-0.369 F300
G1 X4.523 Y20.545 Z-0.463 F300
G1 X4.250 Y20.545 Z-0.683 F300
G1 X4.092 Y20.545 Z-0.842 F300
G1 X3.896 Y20.545 Z-1.083 F300
G1 X3.768 Y20.545 Z-1.284 F300
G1 X3.627 Y20.545 Z-1.557 F300
G1 X3.557 Y20.545 Z-1.745 F300
G1 X3.479 Y20.545 Z-2.007 F300
G1 X3.439 Y20.545 Z-2.243 F300
G1 X3.421 Y20.545 Z-2.426 F300
G1 X3.421 Y20.797 Z-2.426 F300
G1 X3.439 Y20.797 Z-2.243 F300
G1 X3.479 Y20.797 Z-2.007 F300
G1 X3.557 Y20.797 Z-1.745 F300
G1 X3.627 Y20.797 Z-1.557 F300
G1 X3.768 Y20.797 Z-1.284 F300
G1 X3.896 Y20.797 Z-1.083 F300
G1 X4.092 Y20.797 Z-0.842 F300
G1 X4.250 Y20.797 Z-0.683 F300
G1 X4.523 Y20.797 Z-0.463 F300
G1 X4.673 Y20.797 Z-0.369 F300
G1 X4.982 Y20.797 Z-0.209 F300
G1 X5.146 Y20.797 Z-0.148 F300
G1 X5.478 Y20.797 Z-0.053 F300
G1 X5.666 Y20.797 Z-0.025 F300
G1 X5.709 Y20.797 Z-0.012 F300
G1 X5.747 Y20.797 Z0.012 F300
G1 X5.776 Y20.797 Z0.046 F300
G1 X5.795 Y20.797 Z0.087 F300
G1 X5.801 Y20.797 Z0.132 F300
G1 X5.801 Y20.804 Z0.175 F300
G1 X5.801 Y20.826 Z0.213 F300
G1 X5.801 Y20.860 Z0.241 F300
G1 X5.801 Y20.901 Z0.256 F300
G1 X5.801 Y20.944 Z0.256 F300
G1 X5.801 Y20.986 Z0.241 F300
G1 X5.801 Y21.019 Z0.213 F300
G1 X5.801 Y21.041 Z0.175 F300
G1 X5.801 Y21.049 Z0.132 F300
G1 X5.795 Y21.049 Z0.087 F300
G1 X5.776 Y21.049 Z0.046 F300
G1 X5.747 Y21.049 Z0.012 F300
G1 X5.709 Y21.049 Z-0.012 F300
G1 X5.666 Y21.049 Z-0.025 F300
G1 X5.478 Y21.049 Z-0.053 F300
G1 X5.146 Y21.049 Z-0.148 F300
G1 X4.982 Y21.049 Z-0.209 F300
G1 X4.673 Y21.049 Z-0.369 F300
G1 X4.523 Y21.049 Z-0.463 F300
G1 X4.250 Y21.049 Z-0.683 F300
G1 X4.092 Y21.049 Z-0.842 F300
G1 X3.896 Y21.049 Z-1.083 F300
G1 X3.768 Y21.049 Z-1.284 F300
G1 X3.627 Y21.049 Z-1.557 F300
G1 X3.557 Y21.049 Z-1.745 F300
G1 X3.479 Y21.049 Z-2.007 F300
G1 X3.439 Y21.049 Z-2.243 F300
G1 X3.421 Y21.049 Z-2.426 F300
G1 X3.421 Y21.301 Z-2.426 F300
G1 X3.439 Y21.301 Z-2.243 F300
G1 X3.479 Y21.301 Z-2.007 F300
G1 X3.557 Y21.301 Z-1.745 F300
G1 X3.627 Y21.301 Z-1.557 F300
G1 X3.768 Y21.301 Z-1.284 F300
G1 X3.896 Y21.301 Z-1.083 F300
G1 X4.092 Y21.301 Z-0.842 F300
G1 X4.250 Y21.301 Z-0.683 F300
G1 X4.523 Y21.301 Z-0.463 F300
G1 X4.673 Y21.301 Z-0.369 F300
G1 X4.982 Y21.301 Z-0.209 F300
G1 X5.146 Y21.301 Z-0.148 F300
G1 X5.478 Y21.301 Z-0.053 F300
G1 X5.666 Y21.301 Z-0.025 F300
G1 X5.709 Y21.301 Z-0.012 F300
G1 X5.747 Y21.301 Z0.012 F300
G1 X5.776 Y21.301 Z0.046 F300
G1 X5.795 Y21.301 Z0.087 F300
G1 X5.801 Y21.301 Z0.132 F300
G1 X5.801 Y21.308 Z0.175 F300
G1 X5.801 Y21.330 Z0.213 F300
G1 X5.801 Y21.364 Z0.241 F300
G1 X5.801 Y21.405 Z0.256 F300
G1 X5.801 Y21.448 Z0.256 F300
G1 X5.801 Y21.490 Z0.241 F300
G1 X5.801 Y21.523 Z0.213 F300
G1 X5.801 Y21.545 Z0.175 F300
G1 X5.801 Y21.553 Z0.132 F300
G1 X5.795 Y21.553 Z0.087 F300
G1 X5.776 Y21.553 Z0.046 F300
G1 X5.747 Y21.553 Z0.012 F300
G1 X5.709 Y21.553 Z-0.012 F300
G1 X5.666 Y21.553 Z-0.025 F300
G1 X5.478 Y21.553 Z-0.053 F300
G1 X5.146 Y21.553 Z-0.148 F300
G1 X4.982 Y21.553 Z-0.209 F300
G1 X4.673 Y21.553 Z-0.369 F300
G1 X4.523 Y21.553 Z-0.463 F300
G1 X4.250 Y21.553 Z-0.683 F300
G1 X4.092 Y21.553 Z-0.842 F300
G1 X3.896 Y21.553 Z-1.083 F300
G1 X3.768 Y21.553 Z-1.284 F300
G1 X3.627 Y21.553 Z-1.557 F300
G1 X3.557 Y21.553 Z-1.745 F300
G1 X3.479 Y21.553 Z-2.007 F300
G1 X3.439 Y21.553 Z-2.243 F300
G1 X3.421 Y21.553 Z-2.426 F300
G1 X3.421 Y21.805 Z-2.426 F300
G1 X3.439 Y21.805 Z-2.243 F300
G1 X3.479 Y21.805 Z-2.007 F300
G1 X3.557 Y21.805 Z-1.745 F300
G1 X3.627 Y21.805 Z-1.557 F300
G1 X3.768 Y21.805 Z-1.284 F300
G1 X3.896 Y21.805 Z-1.083 F300
G1 X4.092 Y21.805 Z-0.842 F300
G1 X4.250 Y21.805 Z-0.683 F300
G1 X4.523 Y21.805 Z-0.463 F300
G1 X4.673 Y21.805 Z-0.369 F300
G1 X4.982 Y21.805 Z-0.209 F300
G1 X5.146 Y21.805 Z-0.148 F300
G1 X5.478 Y21.805 Z-0.053 F300
G1 X5.666 Y21.805 Z-0.025 F300
G1 X5.709 Y21.805 Z-0.012 F300
G1 X5.747 Y21.805 Z0.012 F300
G1 X5.776 Y21.805 Z0.046 F300
G1 X5.795 Y21.805 Z0.087 F300
G1 X5.801 Y21.805 Z0.132 F300
G1 X5.801 Y21.812 Z0.175 F300
G1 X5.801 Y21.834 Z0.213 F300
G1 X5.801 Y21.868 Z0.241 F300
G1 X5.801 Y21.909 Z0.256 F300
G1 X5.801 Y21.952 Z0.256 F300
G1 X5.801 Y21.994 Z0.241 F300
G1 X5.801 Y22.027 Z0.213 F300
G1 X5.801 Y22.049 Z0.175 F300
G1 X5.801 Y22.057 Z0.132 F300
G1 X5.795 Y22.057 Z0.087 F300
G1 X5.776 Y22.057 Z0.046 F300
G1 X5.747 Y22.057 Z0.012 F300
G1 X5.709 Y22.057 Z-0.012 F300
G1 X5.666 Y22.057 Z-0.025 F300
G1 X5.478 Y22.057 Z-0.053 F300
G1 X5.146 Y22.057 Z-0.148 F300
G1 X4.982 Y22.057 Z-0.209 F300
G1 X4.673 Y22.057 Z-0.369 F300
G1 X4.523 Y22.057 Z-0.463 F300
G1 X4.250 Y22.057 Z-0.683 F300
G1 X4.092 Y22.057 Z-0.842 F300
G1 X3.896 Y22.057 Z-1.083 F300
G1 X3.768 Y22.057 Z-1.284 F300
G1 X3.627 Y22.057 Z-1.557 F300
G1 X3.557 Y22.057 Z-1.745 F300
G1 X3.479 Y22.057 Z-2.007 F300
G1 X3.439 Y22.057 Z-2.243 F300
G1 X3.421 Y22.057 Z-2.426 F300
G1 X3.421 Y22.309 Z-2.426 F300
G1 X3.439 Y22.309 Z-2.243 F300
G1 X3.479 Y22.309 Z-2.007 F300
G1 X3.557 Y22.309 Z-1.745 F300
G1 X3.627 Y22.309 Z-1.557 F300
G1 X3.768 Y22.309 Z-1.284 F300
G1 X3.896 Y22.309 Z-1.083 F300
G1 X4.092 Y22.309 Z-0.842 F300
G1 X4.250 Y22.309 Z-0.683 F300
G1 X4.523 Y22.309 Z-0.463 F300
G1 X4.673 Y22.309 Z-0.369 F300
G1 X4.982 Y22.309 Z-0.209 F300
G1 X5.146 Y22.309 Z-0.148 F300
G1 X5.478 Y22.309 Z-0.053 F300
G1 X5.666 Y22.309 Z-0.025 F300
G1 X5.709 Y22.309 Z-0.012 F300
G1 X5.747 Y22.309 Z0.012 F300
G1 X5.776 Y22.309 Z0.046 F300
G1 X5.795 Y22.309 Z0.087 F300
G1 X5.801 Y22.309 Z0.132 F300
G1 X5.801 Y22.316 Z0.175 F300
G1 X5.801 Y22.338 Z0.213 F300
G1 X5.801 Y22.372 Z0.241 F300
G1 X5.801 Y22.413 Z0.256 F300
G1 X5.801 Y22.456 Z0.256 F300
G1 X5.801 Y22.498 Z0.241 F300
G1 X5.801 Y22.531 Z0.213 F300
G1 X5.801 Y22.553 Z0.175 F300
G1 X5.801 Y22.561 Z0.132 F300
G1 X5.795 Y22.561 Z0.087 F300
G1 X5.776 Y22.561 Z0.046 F300
G1 X5.747 Y22.561 Z0.012 F300
G1 X5.709 Y22.561 Z-0.012 F300
G1 X5.666 Y22.561 Z-0.025 F300
G1 X5.478 Y22.561 Z-0.053 F300
G1 X5.146 Y22.561 Z-0.148 F300
G1 X4.982 Y22.561 Z-0.209 F300
G1 X4.673 Y22.561 Z-0.369 F300
G1 X4.523 Y22.561 Z-0.463 F300
G1 X4.250 Y22.561 Z-0.683 F300
G1 X4.092 Y22.561 Z-0.842 F300
G1 X3.896 Y22.561 Z-1.083 F300
G1 X3.768 Y22.561 Z-1.284 F300
G1 X3.627 Y22.561 Z-1.557 F300
G1 X3.557 Y22.561 Z-1.745 F300
G1 X3.479 Y22.561 Z-2.007 F300
G1 X3.439 Y22.561 Z-2.243 F300
G1 X3.421 Y22.561 Z-2.426 F300
G1 X3.421 Y22.813 Z-2.426 F300
G1 X3.439 Y22.813 Z-2.243 F300
G1 X3.479 Y22.813 Z-2.007 F300
G1 X3.557 Y22.813 Z-1.745 F300
G1 X3.627 Y22.813 Z-1.557 F300
G1 X3.768 Y22.813 Z-1.284 F300
G1 X3.896 Y22.813 Z-1.083 F300
G1 X4.092 Y22.813 Z-0.842 F300
G1 X4.250 Y22.813 Z-0.683 F300
G1 X4.523 Y22.813 Z-0.463 F300
G1 X4.673 Y22.813 Z-0.369 F300
G1 X4.982 Y22.813 Z-0.209 F300
G1 X5.146 Y22.813 Z-0.148 F300
G1 X5.478 Y22.813 Z-0.053 F300
G1 X5.666 Y22.813 Z-0.025 F300
G1 X5.709 Y22.813 Z-0.012 F300
G1 X5.747 Y22.813 Z0.012 F300
G1 X5.776 Y22.813 Z0.046 F300
G1 X5.795 Y22.813 Z0.087 F300
G1 X5.801 Y22.813 Z0.132 F300
G1 X5.801 Y22.820 Z0.175 F300
G1 X5.801 Y22.842 Z0.213 F300
G1 X5.801 Y22.876 Z0.241 F300
G1 X5.801 Y22.917 Z0.256 F300
G1 X5.801 Y22.960 Z0.256 F300
G1 X5.801 Y23.002 Z0.241 F300
G1 X5.801 Y23.035 Z0.213 F300
G1 X5.801 Y23.057 Z0.175 F300
G1 X5.801 Y23.065 Z0.132 F300
G1 X5.795 Y23.065 Z0.087 F300
G1 X5.776 Y23.065 Z0.046 F300
G1 X5.747 Y23.065 Z0.012 F300
G1 X5.709 Y23.065 Z-0.012 F300
G1 X5.666 Y23.065 Z-0.025 F300
G1 X5.478 Y23.065 Z-0.053 F300
G1 X5.146 Y23.065 Z-0.148 F300
G1 X4.982 Y23.065 Z-0.209 F300
G1 X4.673 Y23.065 Z-0.369 F300
G1 X4.523 Y23.065 Z-0.463 F300
G1 X4.250 Y23.065 Z-0.683 F300
G1 X4.092 Y23.065 Z-0.842 F300
G1 X3.896 Y23.065 Z-1.083 F300
G1 X3.768 Y23.065 Z-1.284 F300
G1 X3.627 Y23.065 Z-1.557 F300
G1 X3.557 Y23.065 Z-1.745 F300
G1 X3.479 Y23.065 Z-2.007 F300
G1 X3.439 Y23.065 Z-2.243 F300
G1 X3.421 Y23.065 Z-2.426 F300
G1 X3.421 Y23.317 Z-2.426 F300
G1 X3.439 Y23.317 Z-2.243 F300
G1 X3.479 Y23.317 Z-2.007 F300
G1 X3.557 Y23.317 Z-1.745 F300
G1 X3.627 Y23.317 Z-1.557 F300
G1 X3.768 Y23.317 Z-1.284 F300
G1 X3.896 Y23.317 Z-1.083 F300
G1 X4.092 Y23.317 Z-0.842 F300
G1 X4.250 Y23.317 Z-0.683 F300
G1 X4.523 Y23.317 Z-0.463 F300
G1 X4.673 Y23.317 Z-0.369 F300
G1 X4.982 Y23.317 Z-0.209 F300
G1 X5.146 Y23.317 Z-0.148 F300
G1 X5.478 Y23.317 Z-0.053 F300
G1 X5.666 Y23.317 Z-0.025 F300
G1 X5.709 Y23.317 Z-0.012 F300
G1 X5.747 Y23.317 Z0.012 F300
G1 X5.776 Y23.317 Z0.046 F300
G1 X5.795 Y23.317 Z0.087 F300
G1 X5.801 Y23.317 Z0.132 F300
G1 X5.801 Y23.324 Z0.175 F300
G1 X5.801 Y23.346 Z0.213 F300
G1 X5.801 Y23.380 Z0.241 F300
G1 X5.801 Y23.421 Z0.256 F300
G1 X5.801 Y23.464 Z0.256 F300
G1 X5.801 Y23.506 Z0.241 F300
G1 X5.801 Y23.539 Z0.213 F300
G1 X5.801 Y23.561 Z0.175 F300
G1 X5.801 Y23.568 Z0.132 F300
G1 X5.795 Y23.568 Z0.087 F300
G1 X5.776 Y23.568 Z0.046 F300
G1 X5.747 Y23.568 Z0.012 F300
G1 X5.709 Y23.568 Z-0.012 F300
G1 X5.666 Y23.568 Z-0.025 F300
G1 X5.478 Y23.568 Z-0.053 F300
G1 X5.146 Y23.568 Z-0.148 F300
G1 X4.982 Y23.568 Z-0.209 F300
G1 X4.673 Y23.568 Z-0.369 F300
G1 X4.523 Y23.568 Z-0.463 F300
G1 X4.250 Y23.568 Z-0.683 F300
G1 X4.092 Y23.568 Z-0.842 F300
G1 X3.896 Y23.568 Z-1.083 F300
G1 X3.768 Y23.568 Z-1.284 F300
G1 X3.627 Y23.568 Z-1.557 F300
G1 X3.557 Y23.568 Z-1.745 F300
G1 X3.479 Y23.568 Z-2.007 F300
G1 X3.439 Y23.568 Z-2.243 F300
G1 X3.421 Y23.568 Z-2.426 F300
G1 X3.421 Y23.820 Z-2.426 F300
G1 X3.439 Y23.820 Z-2.243 F300
G1 X3.479 Y23.820 Z-2.007 F300
G1 X3.557 Y23.820 Z-1.745 F300
G1 X3.627 Y23.820 Z-1.557 F300
G1 X3.768 Y23.820 Z-1.284 F300
G1 X3.896 Y23.820 Z-1.083 F300
G1 X4.092 Y23.820 Z-0.842 F300
G1 X4.250 Y23.820 Z-0.683 F300
G1 X4.523 Y23.820 Z-0.463 F300
G1 X4.673 Y23.820 Z-0.369 F300
G1 X4.982 Y23.820 Z-0.209 F300
G1 X5.146 Y23.820 Z-0.148 F300
G1 X5.478 Y23.820 Z-0.053 F300
G1 X5.666 Y23.820 Z-0.025 F300
G1 X5.709 Y23.820 Z-0.012 F300
G1 X5.747 Y23.820 Z0.012 F300
G1 X5.776 Y23.820 Z0.046 F300
G1 X5.795 Y23.820 Z0.087 F300
G1 X5.801 Y23.820 Z0.132 F300
G1 X5.801 Y23.828 Z0.175 F300
G1 X5.801 Y23.850 Z0.213 F300
G1 X5.801 Y23.883 Z0.241 F300
G1 X5.801 Y23.925 Z0.256 F300
G1 X5.801 Y23.968 Z0.256 F300
G1 X5.801 Y24.009 Z0.241 F300
G1 X5.801 Y24.043 Z0.213 F300
G1 X5.801 Y24.065 Z0.175 F300
G1 X5.801 Y24.072 Z0.132 F300
G1 X5.795 Y24.072 Z0.087 F300
G1 X5.776 Y24.072 Z0.046 F300
G1 X5.747 Y24.072 Z0.012 F300
G1 X5.709 Y24.072 Z-0.012 F300
G1 X5.666 Y24.072 Z-0.025 F300
G1 X5.478 Y24.072 Z-0.053 F300
G1 X5.146 Y24.072 Z-0.148 F300
G1 X4.982 Y24.072 Z-0.209 F300
G1 X4.673 Y24.072 Z-0.369 F300
G1 X4.523 Y24.072 Z-0.463 F300
G1 X4.250 Y24.072 Z-0.683 F300
G1 X4.092 Y24.072 Z-0.842 F300
G1 X3.896 Y24.072 Z-1.083 F300
G1 X3.768 Y24.072 Z-1.284 F300
G1 X3.627 Y24.072 Z-1.557 F300
G1 X3.557 Y24.072 Z-1.745 F300
G1 X3.479 Y24.072 Z-2.007 F300
G1 X3.439 Y24.072 Z-2.243 F300
G1 X3.421 Y24.072 Z-2.426 F300
G1 X3.421 Y24.324 Z-2.426 F300
G1 X3.439 Y24.324 Z-2.243 F300
G1 X3.479 Y24.324 Z-2.007 F300
G1 X3.557 Y24.324 Z-1.745 F300
G1 X3.627 Y24.324 Z-1.557 F300
G1 X3.768 Y24.324 Z-1.284 F300
G1 X3.896 Y24.324 Z-1.083 F300
G1 X4.092 Y24.324 Z-0.842 F300
G1 X4.250 Y24.324 Z-0.683 F300
G1 X4.523 Y24.324 Z-0.463 F300
G1 X4.673 Y24.324 Z-0.369 F300
G1 X4.982 Y24.324 Z-0.209 F300
G1 X5.146 Y24.324 Z-0.148 F300
G1 X5.478 Y24.324 Z-0.053 F300
G1 X5.666 Y24.324 Z-0.025 F300
G1 X5.709 Y24.324 Z-0.012 F300
G1 X5.747 Y24.324 Z0.012 F300
G1 X5.776 Y24.324 Z0.046 F300
G1 X5.795 Y24.324 Z0.087 F300
G1 X5.801 Y24.324 Z0.132 F300
G1 X5.801 Y24.332 Z0.175 F300
G1 X5.801 Y24.354 Z0.213 F300
G1 X5.801 Y24.387 Z0.241 F300
G1 X5.801 Y24.429 Z0.256 F300
G1 X5.801 Y24.472 Z0.256 F300
G1 X5.801 Y24.513 Z0.241 F300
G1 X5.801 Y24.547 Z0.213 F300
G1 X5.801 Y24.569 Z0.175 F300
G1 X5.801 Y24.576 Z0.132 F300
G1 X5.795 Y24.576 Z0.087 F300
G1 X5.776 Y24.576 Z0.046 F300
G1 X5.747 Y24.576 Z0.012 F300
G1 X5.709 Y24.576 Z-0.012 F300
G1 X5.666 Y24.576 Z-0.025 F300
G1 X5.478 Y24.576 Z-0.053 F300
G1 X5.146 Y24.576 Z-0.148 F300
G1 X4.982 Y24.576 Z-0.209 F300
G1 X4.673 Y24.576 Z-0.369 F300
G1 X4.523 Y24.576 Z-0.463 F300
G1 X4.250 Y24.576 Z-0.683 F300
G1 X4.092 Y24.576 Z-0.842 F300
G1 X3.896 Y24.576 Z-1.083 F300
G1 X3.768 Y24.576 Z-1.284 F300
G1 X3.627 Y24.576 Z-1.557 F300
G1 X3.557 Y24.576 Z-1.745 F300
G1 X3.479 Y24.576 Z-2.007 F300
G1 X3.439 Y24.576 Z-2.243 F300
G1 X3.421 Y24.576 Z-2.426 F300
G1 X3.421 Y24.828 Z-2.426 F300
G1 X3.439 Y24.828 Z-2.243 F300
G1 X3.479 Y24.828 Z-2.007 F300
G1 X3.557 Y24.828 Z-1.745 F300
G1 X3.627 Y24.828 Z-1.557 F300
G1 X3.768 Y24.828 Z-1.284 F300
G1 X3.896 Y24.828 Z-1.083 F300
G1 X4.092 Y24.828 Z-0.842 F300
G1 X4.250 Y24.828 Z-0.683 F300
G1 X4.523 Y24.828 Z-0.463 F300
G1 X4.673 Y24.828 Z-0.369 F300
G1 X4.982 Y24.828 Z-0.209 F300
G1 X5.146 Y24.828 Z-0.148 F300
G1 X5.478 Y24.828 Z-0.053 F300
G1 X5.666 Y24.828 Z-0.025 F300
G1 X5.709 Y24.828 Z-0.012 F300
G1 X5.747 Y24.828 Z0.012 F300
G1 X5.776 Y24.828 Z0.046 F300
G1 X5.795 Y24.828 Z0.087 F300
G1 X5.801 Y24.828 Z0.132 F300
G1 X5.801 Y24.836 Z0.175 F300
G1 X5.801 Y24.858 Z0.213 F300
G1 X5.801 Y24.891 Z0.241 F300
G1 X5.801 Y24.933 Z0.256 F300
G1 X5.801 Y24.976 Z0.256 F300
G1 X5.801 Y25.017 Z0.241 F300
G1 X5.801 Y25.051 Z0.213 F300
G1 X5.801 Y25.073 Z0.175 F300
G1 X5.801 Y25.080 Z0.132 F300
G1 X5.795 Y25.080 Z0.087 F300
G1 X5.776 Y25.080 Z0.046 F300
G1 X5.747 Y25.080 Z0.012 F300
G1 X5.709 Y25.080 Z-0.012 F300
G1 X5.666 Y25.080 Z-0.025 F300
G1 X5.478 Y25.080 Z-0.053 F300
G1 X5.146 Y25.080 Z-0.148 F300
G1 X4.982 Y25.080 Z-0.209 F300
G1 X4.673 Y25.080 Z-0.369 F300
G1 X4.523 Y25.080 Z-0.463 F300
G1 X4.250 Y25.080 Z-0.683 F300
G1 X4.092 Y25.080 Z-0.842 F300
G1 X3.896 Y25.080 Z-1.083 F300
G1 X3.768 Y25.080 Z-1.284 F300
G1 X3.627 Y25.080 Z-1.557 F300
G1 X3.557 Y25.080 Z-1.745 F300
G1 X3.479 Y25.080 Z-2.007 F300
G1 X3.439 Y25.080 Z-2.243 F300
G1 X3.421 Y25.080 Z-2.426 F300
G1 X3.421 Y25.332 Z-2.426 F300
G1 X3.439 Y25.332 Z-2.243 F300
G1 X3.479 Y25.332 Z-2.007 F300
G1 X3.557 Y25.332 Z-1.745 F300
G1 X3.627 Y25.332 Z-1.557 F300
G1 X3.768 Y25.332 Z-1.284 F300
G1 X3.896 Y25.332 Z-1.083 F300
G1 X4.092 Y25.332 Z-0.842 F300
G1 X4.250 Y25.332 Z-0.683 F300
G1 X4.523 Y25.332 Z-0.463 F300
G1 X4.673 Y25.332 Z-0.369 F300
G1 X4.982 Y25.332 Z-0.209 F300
G1 X5.146 Y25.332 Z-0.148 F300
G1 X5.478 Y25.332 Z-0.053 F300
G1 X5.666 Y25.332 Z-0.025 F300
G1 X5.709 Y25.332 Z-0.012 F300
G1 X5.747 Y25.332 Z0.012 F300
G1 X5.776 Y25.332 Z0.046 F300
G1 X5.795 Y25.332 Z0.087 F300
G1 X5.801 Y25.332 Z0.132 F300
G1 X5.801 Y25.340 Z0.175 F300
G1 X5.801 Y25.362 Z0.213 F300
G1 X5.801 Y25.395 Z0.241 F300
G1 X5.801 Y25.437 Z0.256 F300
G1 X5.801 Y25.480 Z0.256 F300
G1 X5.801 Y25.521 Z0.241 F300
G1 X5.801 Y25.555 Z0.213 F300
G1 X5.801 Y25.577 Z0.175 F300
G1 X5.801 Y25.584 Z0.132 F300
G1 X5.795 Y25.584 Z0.087 F300
G1 X5.776 Y25.584 Z0.046 F300
G1 X5.747 Y25.584 Z0.012 F300
G1 X5.709 Y25.584 Z-0.012 F300
G1 X5.666 Y25.584 Z-0.025 F300
G1 X5.478 Y25.584 Z-0.053 F300
G1 X5.146 Y25.584 Z-0.148 F300
G1 X4.982 Y25.584 Z-0.209 F300
G1 X4.673 Y25.584 Z-0.369 F300
G1 X4.523 Y25.584 Z-0.463 F300
G1 X4.250 Y25.584 Z-0.683 F300
G1 X4.092 Y25.584 Z-0.842 F300
G1 X3.896 Y25.584 Z-1.083 F300
G1 X3.768 Y25.584 Z-1.284 F300
G1 X3.627 Y25.584 Z-1.557 F300
G1 X3.557 Y25.584 Z-1.745 F300
G1 X3.479 Y25.584 Z-2.007 F300
G1 X3.439 Y25.584 Z-2.243 F300
G1 X3.421 Y25.584 Z-2.426 F300
G1 X3.421 Y25.836 Z-2.426 F300
G1 X3.439 Y25.836 Z-2.243 F300
G1 X3.479 Y25.836 Z-2.007 F300
G1 X3.557 Y25.836 Z-1.745 F300
G1 X3.627 Y25.836 Z-1.557 F300
G1 X3.768 Y25.836 Z-1.284 F300
G1 X3.896 Y25.836 Z-1.083 F300
G1 X4.092 Y25.836 Z-0.842 F300
G1 X4.250 Y25.836 Z-0.683 F300
G1 X4.523 Y25.836 Z-0.463 F300
G1 X4.673 Y25.836 Z-0.369 F300
G1 X4.982 Y25.836 Z-0.209 F300
G1 X5.146 Y25.836 Z-0.148 F300
G1 X5.478 Y25.836 Z-0.053 F300
G1 X5.666 Y25.836 Z-0.025 F300
G1 X5.709 Y25.836 Z-0.012 F300
G1 X5.747 Y25.836 Z0.012 F300
G1 X5.776 Y25.836 Z0.046 F300
G1 X5.795 Y25.836 Z0.087 F300
G1 X5.801 Y25.836 Z0.132 F300
G1 X5.801 Y25.844 Z0.175 F300
G1 X5.801 Y25.866 Z0.213 F300
G1 X5.801 Y25.899 Z0.241 F300
G1 X5.801 Y25.941 Z0.256 F300
G1 X5.801 Y25.984 Z0.256 F300
G1 X5.801 Y26.025 Z0.241 F300
G1 X5.801 Y26.059 Z0.213 F300
G1 X5.801 Y26.081 Z0.175 F300
G1 X5.801 Y26.088 Z0.132 F300
G1 X5.795 Y26.088 Z0.087 F300
G1 X5.776 Y26.088 Z0.046 F300
G1 X5.747 Y26.088 Z0.012 F300
G1 X5.709 Y26.088 Z-0.012 F300
G1 X5.666 Y26.088 Z-0.025 F300
G1 X5.478 Y26.088 Z-0.053 F300
G1 X5.146 Y26.088 Z-0.148 F300
G1 X4.982 Y26.088 Z-0.209 F300
G1 X4.673 Y26.088 Z-0.369 F300
G1 X4.523 Y26.088 Z-0.463 F300
G1 X4.250 Y26.088 Z-0.683 F300
G1 X4.092 Y26.088 Z-0.842 F300
G1 X3.896 Y26.088 Z-1.083 F300
G1 X3.768 Y26.088 Z-1.284 F300
G1 X3.627 Y26.088 Z-1.557 F300
G1 X3.557 Y26.088 Z-1.745 F300
G1 X3.479 Y26.088 Z-2.007 F300
G1 X3.439 Y26.088 Z-2.243 F300
G1 X3.421 Y26.088 Z-2.426 F300
G1 X3.421 Y26.340 Z-2.426 F300
G1 X3.439 Y26.340 Z-2.243 F300
G1 X3.479 Y26.340 Z-2.007 F300
G1 X3.557 Y26.340 Z-1.745 F300
G1 X3.627 Y26.340 Z-1.557 F300
G1 X3.768 Y26.340 Z-1.284 F300
G1 X3.896 Y26.340 Z-1.083 F300
G1 X4.092 Y26.340 Z-0.842 F300
G1 X4.250 Y26.340 Z-0.683 F300
G1 X4.523 Y26.340 Z-0.463 F300
G1 X4.673 Y26.340 Z-0.369 F300
G1 X4.982 Y26.340 Z-0.209 F300
G1 X5.146 Y26.340 Z-0.148 F300
G1 X5.478 Y26.340 Z-0.053 F300
G1 X5.666 Y26.340 Z-0.025 F300
G1 X5.709 Y26.340 Z-0.012 F300
G1 X5.747 Y26.340 Z0.012 F300
G1 X5.776 Y26.340 Z0.046 F300
G1 X5.795 Y26.340 Z0.087 F300
G1 X5.801 Y26.340 Z0.132 F300
G1 X5.801 Y26.348 Z0.175 F300
G1 X5.801 Y26.370 Z0.213 F300
G1 X5.801 Y26.403 Z0.241 F300
G1 X5.801 Y26.445 Z0.256 F300
G1 X5.801 Y26.488 Z0.256 F300
G1 X5.801 Y26.529 Z0.241 F300
G1 X5.801 Y26.563 Z0.213 F300
G1 X5.801 Y26.585 Z0.175 F300
G1 X5.801 Y26.592 Z0.132 F300
G1 X5.795 Y26.592 Z0.087 F300
G1 X5.776 Y26.592 Z0.046 F300
G1 X5.747 Y26.592 Z0.012 F300
G1 X5.709 Y26.592 Z-0.012 F300
G1 X5.666 Y26.592 Z-0.025 F300
G1 X5.478 Y26.592 Z-0.053 F300
G1 X5.146 Y26.592 Z-0.148 F300
G1 X4.982 Y26.592 Z-0.209 F300
G1 X4.673 Y26.592 Z-0.369 F300
G1 X4.523 Y26.592 Z-0.463 F300
G1 X4.250 Y26.592 Z-0.683 F300
G1 X4.092 Y26.592 Z-0.842 F300
G1 X3.896 Y26.592 Z-1.083 F300
G1 X3.768 Y26.592 Z-1.284 F300
G1 X3.627 Y26.592 Z-1.557 F300
G1 X3.557 Y26.592 Z-1.745 F300
G1 X3.479 Y26.592 Z-2.007 F300
G1 X3.439 Y26.592 Z-2.243 F300
G1 X3.421 Y26.592 Z-2.426 F300
G1 X3.421 Y26.844 Z-2.426 F300
G1 X3.439 Y26.844 Z-2.243 F300
G1 X3.479 Y26.844 Z-2.007 F300
G1 X3.557 Y26.844 Z-1.745 F300
G1 X3.627 Y26.844 Z-1.557 F300
G1 X3.768 Y26.844 Z-1.284 F300
G1 X3.896 Y26.844 Z-1.083 F300
G1 X4.092 Y26.844 Z-0.842 F300
G1 X4.250 Y26.844 Z-0.683 F300
G1 X4.523 Y26.844 Z-0.463 F300
G1 X4.673 Y26.844 Z-0.369 F300
G1 X4.982 Y26.844 Z-0.209 F300
G1 X5.146 Y26.844 Z-0.148 F300
G1 X5.478 Y26.844 Z-0.053 F300
G1 X5.666 Y26.844 Z-0.025 F300
G1 X5.709 Y26.844 Z-0.012 F300
G1 X5.747 Y26.844 Z0.012 F300
G1 X5.776 Y26.844 Z0.046 F300
G1 X5.795 Y26.844 Z0.087 F300
G1 X5.801 Y26.844 Z0.132 F300
G1 X5.801 Y26.852 Z0.175 F300
G1 X5.801 Y26.874 Z0.213 F300
G1 X5.801 Y26.907 Z0.241 F300
G1 X5.801 Y26.948 Z0.256 F300
G1 X5.801 Y26.992 Z0.256 F300
G1 X5.801 Y27.033 Z0.241 F300
G1 X5.801 Y27.067 Z0.213 F300
G1 X5.801 Y27.089 Z0.175 F300
G1 X5.801 Y27.096 Z0.132 F300
G1 X5.795 Y27.096 Z0.087 F300
G1 X5.776 Y27.096 Z0.046 F300
G1 X5.747 Y27.096 Z0.012 F300
G1 X5.709 Y27.096 Z-0.012 F300
G1 X5.666 Y27.096 Z-0.025 F300
G1 X5.478 Y27.096 Z-0.053 F300
G1 X5.146 Y27.096 Z-0.148 F300
G1 X4.982 Y27.096 Z-0.209 F300
G1 X4.673 Y27.096 Z-0.369 F300
G1 X4.523 Y27.096 Z-0.463 F300
G1 X4.250 Y27.096 Z-0.683 F300
G1 X4.092 Y27.096 Z-0.842 F300
G1 X3.896 Y27.096 Z-1.083 F300
G1 X3.768 Y27.096 Z-1.284 F300
G1 X3.627 Y27.096 Z-1.557 F300
G1 X3.557 Y27.096 Z-1.745 F300
G1 X3.479 Y27.096 Z-2.007 F300
G1 X3.439 Y27.096 Z-2.243 F300
G1 X3.421 Y27.096 Z-2.426 F300
G1 X3.421 Y27.348 Z-2.426 F300
G1 X3.439 Y27.348 Z-2.243 F300
G1 X3.479 Y27.348 Z-2.007 F300
G1 X3.557 Y27.348 Z-1.745 F300
G1 X3.627 Y27.348 Z-1.557 F300
G1 X3.768 Y27.348 Z-1.284 F300
G1 X3.896 Y27.348 Z-1.083 F300
G1 X4.092 Y27.348 Z-0.842 F300
G1 X4.250 Y27.348 Z-0.683 F300
G1 X4.523 Y27.348 Z-0.463 F300
G1 X4.673 Y27.348 Z-0.369 F300
G1 X4.982 Y27.348 Z-0.209 F300
G1 X5.146 Y27.348 Z-0.148 F300
G1 X5.478 Y27.348 Z-0.053 F300
G1 X5.666 Y27.348 Z-0.025 F300
G1 X5.709 Y27.348 Z-0.012 F300
G1 X5.747 Y27.348 Z0.012 F300
G1 X5.776 Y27.348 Z0.046 F300
G1 X5.795 Y27.348 Z0.087 F300
G1 X5.801 Y27.348 Z0.132 F300
G1 X5.801 Y27.356 Z0.175 F300
G1 X5.801 Y27.378 Z0.213 F300
G1 X5.801 Y27.411 Z0.241 F300
G1 X5.801 Y27.452 Z0.256 F300
G1 X5.801 Y27.496 Z0.256 F300
G1 X5.801 Y27.537 Z0.241 F300
G1 X5.801 Y27.571 Z0.213 F300
G1 X5.801 Y27.593 Z0.175 F300
G1 X5.801 Y27.600 Z0.132 F300
G1 X5.795 Y27.600 Z0.087 F300
G1 X5.776 Y27.600 Z0.046 F300
G1 X5.747 Y27.600 Z0.012 F300
G1 X5.709 Y27.600 Z-0.012 F300
G1 X5.666 Y27.600 Z-0.025 F300
G1 X5.478 Y27.600 Z-0.053 F300
G1 X5.146 Y27.600 Z-0.148 F300
G1 X4.982 Y27.600 Z-0.209 F300
G1 X4.673 Y27.600 Z-0.369 F300
G1 X4.523 Y27.600 Z-0.463 F300
G1 X4.250 Y27.600 Z-0.683 F300
G1 X4.092 Y27.600 Z-0.842 F300
G1 X3.896 Y27.600 Z-1.083 F300
G1 X3.768 Y27.600 Z-1.284 F300
G1 X3.627 Y27.600 Z-1.557 F300
G1 X3.557 Y27.600 Z-1.745 F300
G1 X3.479 Y27.600 Z-2.007 F300
G1 X3.439 Y27.600 Z-2.243 F300
G1 X3.421 Y27.600 Z-2.426 F300
G1 X3.421 Y27.852 Z-2.426 F300
G1 X3.439 Y27.852 Z-2.243 F300
G1 X3.479 Y27.852 Z-2.007 F300
G1 X3.557 Y27.852 Z-1.745 F300
G1 X3.627 Y27.852 Z-1.557 F300
G1 X3.768 Y27.852 Z-1.284 F300
G1 X3.896 Y27.852 Z-1.083 F300
G1 X4.092 Y27.852 Z-0.842 F300
G1 X4.250 Y27.852 Z-0.683 F300
G1 X4.523 Y27.852 Z-0.463 F300
G1 X4.673 Y27.852 Z-0.369 F300
G1 X4.982 Y27.852 Z-0.209 F300
G1 X5.146 Y27.852 Z-0.148 F300
G1 X5.478 Y27.852 Z-0.053 F300
G1 X5.666 Y27.852 Z-0.025 F300
G1 X5.709 Y27.852 Z-0.012 F300
G1 X5.747 Y27.852 Z0.012 F300
G1 X5.776 Y27.852 Z0.046 F300
G1 X5.795 Y27.852 Z0.087 F300
G1 X5.801 Y27.852 Z0.132 F300
G1 X5.801 Y27.860 Z0.175 F300
G1 X5.801 Y27.882 Z0.213 F300
G1 X5.801 Y27.915 Z0.241 F300
G1 X5.801 Y27.956 Z0.256 F300
G1 X5.801 Y28.000 Z0.256 F300
G1 X5.801 Y28.041 Z0.241 F300
G1 X5.801 Y28.075 Z0.213 F300
G1 X5.801 Y28.097 Z0.175 F300
G1 X5.801 Y28.104 Z0.132 F300
G1 X5.795 Y28.104 Z0.087 F300
G1 X5.776 Y28.104 Z0.046 F300
G1 X5.747 Y28.104 Z0.012 F300
G1 X5.709 Y28.104 Z-0.012 F300
G1 X5.666 Y28.104 Z-0.025 F300
G1 X5.478 Y28.104 Z-0.053 F300
G1 X5.146 Y28.104 Z-0.148 F300
G1 X4.982 Y28.104 Z-0.209 F300
G1 X4.673 Y28.104 Z-0.369 F300
G1 X4.523 Y28.104 Z-0.463 F300
G1 X4.250 Y28.104 Z-0.683 F300
G1 X4.092 Y28.104 Z-0.842 F300
G1 X3.896 Y28.104 Z-1.083 F300
G1 X3.768 Y28.104 Z-1.284 F300
G1 X3.627 Y28.104 Z-1.557 F300
G1 X3.557 Y28.104 Z-1.745 F300
G1 X3.479 Y28.104 Z-2.007 F300
G1 X3.439 Y28.104 Z-2.243 F300
G1 X3.421 Y28.104 Z-2.426 F300
G1 X3.421 Y28.356 Z-2.426 F300
G1 X3.439 Y28.356 Z-2.243 F300
G1 X3.479 Y28.356 Z-2.007 F300
G1 X3.557 Y28.356 Z-1.745 F300
G1 X3.627 Y28.356 Z-1.557 F300
G1 X3.768 Y28.356 Z-1.284 F300
G1 X3.896 Y28.356 Z-1.083 F300
G1 X4.092 Y28.356 Z-0.842 F300
G1 X4.250 Y28.356 Z-0.683 F300
G1 X4.523 Y28.356 Z-0.463 F300
G1 X4.673 Y28.356 Z-0.369 F300
G1 X4.982 Y28.356 Z-0.209 F300
G1 X5.146 Y28.356 Z-0.148 F300
G1 X5.478 Y28.356 Z-0.053 F300
G1 X5.666 Y28.356 Z-0.025 F300
G1 X5.709 Y28.356 Z-0.012 F300
G1 X5.747 Y28.356 Z0.012 F300
G1 X5.776 Y28.356 Z0.046 F300
G1 X5.795 Y28.356 Z0.087 F300
G1 X5.801 Y28.356 Z0.132 F300
G1 X5.801 Y28.364 Z0.175 F300
G1 X5.801 Y28.386 Z0.213 F300
G1 X5.801 Y28.419 Z0.241 F300
G1 X5.801 Y28.460 Z0.256 F300
G1 X5.801 Y28.504 Z0.256 F300
G1 X5.801 Y28.545 Z0.241 F300
G1 X5.801 Y28.579 Z0.213 F300
G1 X5.801 Y28.601 Z0.175 F300
G1 X5.801 Y28.608 Z0.132 F300
G1 X5.795 Y28.608 Z0.087 F300
G1 X5.776 Y28.608 Z0.046 F300
G1 X5.747 Y28.608 Z0.012 F300
G1 X5.709 Y28.608 Z-0.012 F300
G1 X5.666 Y28.608 Z-0.025 F300
G1 X5.478 Y28.608 Z-0.053 F300
G1 X5.146 Y28.608 Z-0.148 F300
G1 X4.982 Y28.608 Z-0.209 F300
G1 X4.673 Y28.608 Z-0.369 F300
G1 X4.523 Y28.608 Z-0.463 F300
G1 X4.250 Y28.608 Z-0.683 F300
G1 X4.092 Y28.608 Z-0.842 F300
G1 X3.896 Y28.608 Z-1.083 F300
G1 X3.768 Y28.608 Z-1.284 F300
G1 X3.627 Y28.608 Z-1.557 F300
G1 X3.557 Y28.608 Z-1.745 F300
G1 X3.479 Y28.608 Z-2.007 F300
G1 X3.439 Y28.608 Z-2.243 F300
G1 X3.421 Y28.608 Z-2.426 F300
G1 X3.421 Y28.860 Z-2.426 F300
G1 X3.439 Y28.860 Z-2.243 F300
G1 X3.479 Y28.860 Z-2.007 F300
G1 X3.557 Y28.860 Z-1.745 F300
G1 X3.627 Y28.860 Z-1.557 F300
G1 X3.768 Y28.860 Z-1.284 F300
G1 X3.896 Y28.860 Z-1.083 F300
G1 X4.092 Y28.860 Z-0.842 F300
G1 X4.250 Y28.860 Z-0.683 F300
G1 X4.523 Y28.860 Z-0.463 F300
G1 X4.673 Y28.860 Z-0.369 F300
G1 X4.982 Y28.860 Z-0.209 F300
G1 X5.146 Y28.860 Z-0.148 F300
G1 X5.478 Y28.860 Z-0.053 F300
G1 X5.666 Y28.860 Z-0.025 F300
G1 X5.709 Y28.860 Z-0.012 F300
G1 X5.747 Y28.860 Z0.012 F300
G1 X5.776 Y28.860 Z0.046 F300
G1 X5.795 Y28.860 Z0.087 F300
G1 X5.801 Y28.860 Z0.132 F300
G1 X5.801 Y28.868 Z0.175 F300
G1 X5.801 Y28.890 Z0.213 F300
G1 X5.801 Y28.923 Z0.241 F300
G1 X5.801 Y28.964 Z0.256 F300
G1 X5.801 Y29.008 Z0.256 F300
G1 X5.801 Y29.049 Z0.241 F300
G1 X5.801 Y29.083 Z0.213 F300
G1 X5.801 Y29.105 Z0.175 F300
G1 X5.801 Y29.112 Z0.132 F300
G1 X5.795 Y29.112 Z0.087 F300
G1 X5.776 Y29.112 Z0.046 F300
G1 X5.747 Y29.112 Z0.012 F300
G1 X5.709 Y29.112 Z-0.012 F300
G1 X5.666 Y29.112 Z-0.025 F300
G1 X5.478 Y29.112 Z-0.053 F300
G1 X5.146 Y29.112 Z-0.148 F300
G1 X4.982 Y29.112 Z-0.209 F300
G1 X4.673 Y29.112 Z-0.369 F300
G1 X4.523 Y29.112 Z-0.463 F300
G1 X4.250 Y29.112 Z-0.683 F300
G1 X4.092 Y29.112 Z-0.842 F300
G1 X3.896 Y29.112 Z-1.083 F300
G1 X3.768 Y29.112 Z-1.284 F300
G1 X3.627 Y29.112 Z-1.557 F300
G1 X3.557 Y29.112 Z-1.745 F300
G1 X3.479 Y29.112 Z-2.007 F300
G1 X3.439 Y29.112 Z-2.243 F300
G1 X3.421 Y29.112 Z-2.426 F300
G1 X3.421 Y29.364 Z-2.426 F300
G1 X3.439 Y29.364 Z-2.243 F300
G1 X3.479 Y29.364 Z-2.007 F300
G1 X3.557 Y29.364 Z-1.745 F300
G1 X3.627 Y29.364 Z-1.557 F300
G1 X3.768 Y29.364 Z-1.284 F300
G1 X3.896 Y29.364 Z-1.083 F300
G1 X4.092 Y29.364 Z-0.842 F300
G1 X4.250 Y29.364 Z-0.683 F300
G1 X4.523 Y29.364 Z-0.463 F300
G1 X4.673 Y29.364 Z-0.369 F300
G1 X4.982 Y29.364 Z-0.209 F300
G1 X5.146 Y29.364 Z-0.148 F300
G1 X5.478 Y29.364 Z-0.053 F300
G1 X5.666 Y29.364 Z-0.025 F300
G1 X5.709 Y29.364 Z-0.012 F300
G1 X5.747 Y29.364 Z0.012 F300
G1 X5.776 Y29.364 Z0.046 F300
G1 X5.795 Y29.364 Z0.087 F300
G1 X5.801 Y29.364 Z0.132 F300
G1 X5.801 Y29.372 Z0.175 F300
G1 X5.801 Y29.394 Z0.213 F300
G1 X5.801 Y29.427 Z0.241 F300
G1 X5.801 Y29.468 Z0.256 F300
G1 X5.801 Y29.512 Z0.256 F300
G1 X5.801 Y29.553 Z0.241 F300
G1 X5.801 Y29.587 Z0.213 F300
G1 X5.801 Y29.609 Z0.175 F300
G1 X5.801 Y29.616 Z0.132 F300
G1 X5.795 Y29.616 Z0.087 F300
G1 X5.776 Y29.616 Z0.046 F300
G1 X5.747 Y29.616 Z0.012 F300
G1 X5.709 Y29.616 Z-0.012 F300
G1 X5.666 Y29.616 Z-0.025 F300
G1 X5.478 Y29.616 Z-0.053 F300
G1 X5.146 Y29.616 Z-0.148 F300
G1 X4.982 Y29.616 Z-0.209 F300
G1 X4.673 Y29.616 Z-0.369 F300
G1 X4.523 Y29.616 Z-0.463 F300
G1 X4.250 Y29.616 Z-0.683 F300
G1 X4.092 Y29.616 Z-0.842 F300
G1 X3.896 Y29.616 Z-1.083 F300
G1 X3.768 Y29.616 Z-1.284 F300
G1 X3.627 Y29.616 Z-1.557 F300
G1 X3.557 Y29.616 Z-1.745 F300
G1 X3.479 Y29.616 Z-2.007 F300
G1 X3.439 Y29.616 Z-2.243 F300
G1 X3.421 Y29.616 Z-2.426 F300
G1 X3.421 Y29.868 Z-2.426 F300
G1 X3.439 Y29.868 Z-2.243 F300
G1 X3.479 Y29.868 Z-2.007 F300
G1 X3.557 Y29.868 Z-1.745 F300
G1 X3.627 Y29.868 Z-1.557 F300
G1 X3.768 Y29.868 Z-1.284 F300
G1 X3.896 Y29.868 Z-1.083 F300
G1 X4.092 Y29.868 Z-0.842 F300
G1 X4.250 Y29.868 Z-0.683 F300
G1 X4.523 Y29.868 Z-0.463 F300
G1 X4.673 Y29.868 Z-0.369 F300
G1 X4.982 Y29.868 Z-0.209 F300
G1 X5.146 Y29.868 Z-0.148 F300
G1 X5.478 Y29.868 Z-0.053 F300
G1 X5.666 Y29.868 Z-0.025 F300
G1 X5.709 Y29.868 Z-0.012 F300
G1 X5.747 Y29.868 Z0.012 F300
G1 X5.776 Y29.868 Z0.046 F300
G1 X5.795 Y29.868 Z0.087 F300
G1 X5.801 Y29.868 Z0.132 F300
G1 X5.801 Y29.876 Z0.175 F300
G1 X5.801 Y29.898 Z0.213 F300
G1 X5.801 Y29.931 Z0.241 F300
G1 X5.801 Y29.972 Z0.256 F300
G1 X5.801 Y30.016 Z0.256 F300
G1 X5.801 Y30.057 Z0.241 F300
G1 X5.801 Y30.091 Z0.213 F300
G1 X5.801 Y30.113 Z0.175 F300
G1 X5.801 Y30.120 Z0.132 F300
G1 X5.795 Y30.120 Z0.087 F300
G1 X5.776 Y30.120 Z0.046 F300
G1 X5.747 Y30.120 Z0.012 F300
G1 X5.709 Y30.120 Z-0.012 F300
G1 X5.666 Y30.120 Z-0.025 F300
G1 X5.478 Y30.120 Z-0.053 F300
G1 X5.146 Y30.120 Z-0.148 F300
G1 X4.982 Y30.120 Z-0.209 F300
G1 X4.673 Y30.120 Z-0.369 F300
G1 X4.523 Y30.120 Z-0.463 F300
G1 X4.250 Y30.120 Z-0.683 F300
G1 X4.092 Y30.120 Z-0.842 F300
G1 X3.896 Y30.120 Z-1.083 F300
G1 X3.768 Y30.120 Z-1.284 F300
G1 X3.627 Y30.120 Z-1.557 F300
G1 X3.557 Y30.120 Z-1.745 F300
G1 X3.479 Y30.120 Z-2.007 F300
G1 X3.439 Y30.120 Z-2.243 F300
G1 X3.421 Y30.120 Z-2.426 F300
G1 X3.421 Y30.372 Z-2.426 F300
G1 X3.439 Y30.372 Z-2.243 F300
G1 X3.479 Y30.372 Z-2.007 F300
G1 X3.557 Y30.372 Z-1.745 F300
G1 X3.627 Y30.372 Z-1.557 F300
G1 X3.768 Y30.372 Z-1.284 F300
G1 X3.896 Y30.372 Z-1.083 F300
G1 X4.092 Y30.372 Z-0.842 F300
G1 X4.250 Y30.372 Z-0.683 F300
G1 X4.523 Y30.372 Z-0.463 F300
G1 X4.673 Y30.372 Z-0.369 F300
G1 X4.982 Y30.372 Z-0.209 F300
G1 X5.146 Y30.372 Z-0.148 F300
G1 X5.478 Y30.372 Z-0.053 F300
G1 X5.666 Y30.372 Z-0.025 F300
G1 X5.709 Y30.372 Z-0.012 F300
G1 X5.747 Y30.372 Z0.012 F300
G1 X5.776 Y30.372 Z0.046 F300
G1 X5.795 Y30.372 Z0.087 F300
G1 X5.801 Y30.372 Z0.132 F300
G1 X5.801 Y30.380 Z0.175 F300
G1 X5.801 Y30.402 Z0.213 F300
G1 X5.801 Y30.435 Z0.241 F300
G1 X5.801 Y30.476 Z0.256 F300
G1 X5.801 Y30.520 Z0.256 F300
G1 X5.801 Y30.561 Z0.241 F300
G1 X5.801 Y30.595 Z0.213 F300
G1 X5.801 Y30.617 Z0.175 F300
G1 X5.801 Y30.624 Z0.132 F300
G1 X5.795 Y30.624 Z0.087 F300
G1 X5.776 Y30.624 Z0.046 F300
G1 X5.747 Y30.624 Z0.012 F300
G1 X5.709 Y30.624 Z-0.012 F300
G1 X5.666 Y30.624 Z-0.025 F300
G1 X5.478 Y30.624 Z-0.053 F300
G1 X5.146 Y30.624 Z-0.148 F300
G1 X4.982 Y30.624 Z-0.209 F300
G1 X4.673 Y30.624 Z-0.369 F300
G1 X4.523 Y30.624 Z-0.463 F300
G1 X4.250 Y30.624 Z-0.683 F300
G1 X4.092 Y30.624 Z-0.842 F300
G1 X3.896 Y30.624 Z-1.083 F300
G1 X3.768 Y30.624 Z-1.284 F300
G1 X3.627 Y30.624 Z-1.557 F300
G1 X3.557 Y30.624 Z-1.745 F300
G1 X3.479 Y30.624 Z-2.007 F300
G1 X3.439 Y30.624 Z-2.243 F300
G1 X3.421 Y30.624 Z-2.426 F300
G1 X3.421 Y30.876 Z-2.426 F300
G1 X3.439 Y30.876 Z-2.243 F300
G1 X3.479 Y30.876 Z-2.007 F300
G1 X3.557 Y30.876 Z-1.745 F300
G1 X3.627 Y30.876 Z-1.557 F300
G1 X3.768 Y30.876 Z-1.284 F300
G1 X3.896 Y30.876 Z-1.083 F300
G1 X4.092 Y30.876 Z-0.842 F300
G1 X4.250 Y30.876 Z-0.683 F300
G1 X4.523 Y30.876 Z-0.463 F300
G1 X4.673 Y30.876 Z-0.369 F300
G1 X4.982 Y30.876 Z-0.209 F300
G1 X5.146 Y30.876 Z-0.148 F300
G1 X5.478 Y30.876 Z-0.053 F300
G1 X5.666 Y30.876 Z-0.025 F300
G1 X5.709 Y30.876 Z-0.012 F300
G1 X5.747 Y30.876 Z0.012 F300
G1 X5.776 Y30.876 Z0.046 F300
G1 X5.795 Y30.876 Z0.087 F300
G1 X5.801 Y30.876 Z0.132 F300
G1 X5.801 Y30.884 Z0.175 F300
G1 X5.801 Y30.906 Z0.213 F300
G1 X5.801 Y30.939 Z0.241 F300
G1 X5.801 Y30.980 Z0.256 F300
G1 X5.801 Y31.024 Z0.256 F300
G1 X5.801 Y31.065 Z0.241 F300
G1 X5.801 Y31.099 Z0.213 F300
G1 X5.801 Y31.121 Z0.175 F300
G1 X5.801 Y31.128 Z0.132 F300
G1 X5.795 Y31.128 Z0.087 F300
G1 X5.776 Y31.128 Z0.046 F300
G1 X5.747 Y31.128 Z0.012 F300
G1 X5.709 Y31.128 Z-0.012 F300
G1 X5.666 Y31.128 Z-0.025 F300
G1 X5.478 Y31.128 Z-0.053 F300
G1 X5.146 Y31.128 Z-0.148 F300
G1 X4.982 Y31.128 Z-0.209 F300
G1 X4.673 Y31.128 Z-0.369 F300
G1 X4.523 Y31.128 Z-0.463 F300
G1 X4.250 Y31.128 Z-0.683 F300
G1 X4.092 Y31.128 Z-0.842 F300
G1 X3.896 Y31.128 Z-1.083 F300
G1 X3.768 Y31.128 Z-1.284 F300
G1 X3.627 Y31.128 Z-1.557 F300
G1 X3.557 Y31.128 Z-1.745 F300
G1 X3.479 Y31.128 Z-2.007 F300
G1 X3.439 Y31.128 Z-2.243 F300
G1 X3.421 Y31.128 Z-2.426 F300
G1 X3.421 Y31.380 Z-2.426 F300
G1 X3.439 Y31.380 Z-2.243 F300
G1 X3.479 Y31.380 Z-2.007 F300
G1 X3.557 Y31.380 Z-1.745 F300
G1 X3.627 Y31.380 Z-1.557 F300
G1 X3.768 Y31.380 Z-1.284 F300
G1 X3.896 Y31.380 Z-1.083 F300
G1 X4.092 Y31.380 Z-0.842 F300
G1 X4.250 Y31.380 Z-0.683 F300
G1 X4.523 Y31.380 Z-0.463 F300
G1 X4.673 Y31.380 Z-0.369 F300
G1 X4.982 Y31.380 Z-0.209 F300
G1 X5.146 Y31.380 Z-0.148 F300
G1 X5.478 Y31.380 Z-0.053 F300
G1 X5.666 Y31.380 Z-0.025 F300
G1 X5.709 Y31.380 Z-0.012 F300
G1 X5.747 Y31.380 Z0.012 F300
G1 X5.776 Y31.380 Z0.046 F300
G1 X5.795 Y31.380 Z0.087 F300
G1 X5.801 Y31.380 Z0.132 F300
G1 X5.801 Y31.388 Z0.175 F300
G1 X5.801 Y31.410 Z0.213 F300
G1 X5.801 Y31.443 Z0.241 F300
G1 X5.801 Y31.484 Z0.256 F300
G1 X5.801 Y31.528 Z0.256 F300
G1 X5.801 Y31.569 Z0.241 F300
G1 X5.801 Y31.603 Z0.213 F300
G1 X5.801 Y31.625 Z0.175 F300
G1 X5.801 Y31.632 Z0.132 F300
G1 X5.795 Y31.632 Z0.087 F300
G1 X5.776 Y31.632 Z0.046 F300
G1 X5.747 Y31.632 Z0.012 F300
G1 X5.709 Y31.632 Z-0.012 F300
G1 X5.666 Y31.632 Z-0.025 F300
G1 X5.478 Y31.632 Z-0.053 F300
G1 X5.146 Y31.632 Z-0.148 F300
G1 X4.982 Y31.632 Z-0.209 F300
G1 X4.673 Y31.632 Z-0.369 F300
G1 X4.523 Y31.632 Z-0.463 F300
G1 X4.250 Y31.632 Z-0.683 F300
G1 X4.092 Y31.632 Z-0.842 F300
G1 X3.896 Y31.632 Z-1.083 F300
G1 X3.768 Y31.632 Z-1.284 F300
G1 X3.627 Y31.632 Z-1.557 F300
G1 X3.557 Y31.632 Z-1.745 F300
G1 X3.479 Y31.632 Z-2.007 F300
G1 X3.439 Y31.632 Z-2.243 F300
G1 X3.421 Y31.632 Z-2.426 F300
G1 X3.421 Y31.884 Z-2.426 F300
G1 X3.439 Y31.884 Z-2.243 F300
G1 X3.479 Y31.884 Z-2.007 F300
G1 X3.557 Y31.884 Z-1.745 F300
G1 X3.627 Y31.884 Z-1.557 F300
G1 X3.768 Y31.884 Z-1.284 F300
G1 X3.896 Y31.884 Z-1.083 F300
G1 X4.092 Y31.884 Z-0.842 F300
G1 X4.250 Y31.884 Z-0.683 F300
G1 X4.523 Y31.884 Z-0.463 F300
G1 X4.673 Y31.884 Z-0.369 F300
G1 X4.982 Y31.884 Z-0.209 F300
G1 X5.146 Y31.884 Z-0.148 F300
G1 X5.478 Y31.884 Z-0.053 F300
G1 X5.666 Y31.884 Z-0.025 F300
G1 X5.709 Y31.884 Z-0.012 F300
G1 X5.747 Y31.884 Z0.012 F300
G1 X5.776 Y31.884 Z0.046 F300
G1 X5.795 Y31.884 Z0.087 F300
G1 X5.801 Y31.884 Z0.132 F300
G1 X5.801 Y31.892 Z0.175 F300
G1 X5.801 Y31.914 Z0.213 F300
G1 X5.801 Y31.947 Z0.241 F300
G1 X5.801 Y31.988 Z0.256 F300
G1 X5.801 Y32.032 Z0.256 F300
G1 X5.801 Y32.073 Z0.241 F300
G1 X5.801 Y32.107 Z0.213 F300
G1 X5.801 Y32.129 Z0.175 F300
G1 X5.801 Y32.136 Z0.132 F300
G1 X5.795 Y32.136 Z0.087 F300
G1 X5.776 Y32.136 Z0.046 F300
G1 X5.747 Y32.136 Z0.012 F300
G1 X5.709 Y32.136 Z-0.012 F300
G1 X5.666 Y32.136 Z-0.025 F300
G1 X5.478 Y32.136 Z-0.053 F300
G1 X5.146 Y32.136 Z-0.148 F300
G1 X4.982 Y32.136 Z-0.209 F300
G1 X4.673 Y32.136 Z-0.369 F300
G1 X4.523 Y32.136 Z-0.463 F300
G1 X4.250 Y32.136 Z-0.683 F300
G1 X4.092 Y32.136 Z-0.842 F300
G1 X3.896 Y32.136 Z-1.083 F300
G1 X3.768 Y32.136 Z-1.284 F300
G1 X3.627 Y32.136 Z-1.557 F300
G1 X3.557 Y32.136 Z-1.745 F300
G1 X3.479 Y32.136 Z-2.007 F300
G1 X3.439 Y32.136 Z-2.243 F300
G1 X3.421 Y32.136 Z-2.426 F300
G1 X3.421 Y32.388 Z-2.426 F300
G1 X3.439 Y32.388 Z-2.243 F300
G1 X3.479 Y32.388 Z-2.007 F300
G1 X3.557 Y32.388 Z-1.745 F300
G1 X3.627 Y32.388 Z-1.557 F300
G1 X3.768 Y32.388 Z-1.284 F300
G1 X3.896 Y32.388 Z-1.083 F300
G1 X4.092 Y32.388 Z-0.842 F300
G1 X4.250 Y32.388 Z-0.683 F300
G1 X4.523 Y32.388 Z-0.463 F300
G1 X4.673 Y32.388 Z-0.369 F300
G1 X4.982 Y32.388 Z-0.209 F300
G1 X5.146 Y32.388 Z-0.148 F300
G1 X5.478 Y32.388 Z-0.053 F300
G1 X5.666 Y32.388 Z-0.025 F300
G1 X5.709 Y32.388 Z-0.012 F300
G1 X5.747 Y32.388 Z0.012 F300
G1 X5.776 Y32.388 Z0.046 F300
G1 X5.795 Y32.388 Z0.087 F300
G1 X5.801 Y32.388 Z0.132 F300
G1 X5.801 Y32.396 Z0.175 F300
G1 X5.801 Y32.418 Z0.213 F300
G1 X5.801 Y32.451 Z0.241 F300
G1 X5.801 Y32.492 Z0.256 F300
G1 X5.801 Y32.536 Z0.256 F300
G1 X5.801 Y32.577 Z0.241 F300
G1 X5.801 Y32.611 Z0.213 F300
G1 X5.801 Y32.633 Z0.175 F300
G1 X5.801 Y32.640 Z0.132 F300
G1 X5.795 Y32.640 Z0.087 F300
G1 X5.776 Y32.640 Z0.046 F300
G1 X5.747 Y32.640 Z0.012 F300
G1 X5.709 Y32.640 Z-0.012 F300
G1 X5.666 Y32.640 Z-0.025 F300
G1 X5.478 Y32.640 Z-0.053 F300
G1 X5.146 Y32.640 Z-0.148 F300
G1 X4.982 Y32.640 Z-0.209 F300
G1 X4.673 Y32.640 Z-0.369 F300
G1 X4.523 Y32.640 Z-0.463 F300
G1 X4.250 Y32.640 Z-0.683 F300
G1 X4.092 Y32.640 Z-0.842 F300
G1 X3.896 Y32.640 Z-1.083 F300
G1 X3.768 Y32.640 Z-1.284 F300
G1 X3.627 Y32.640 Z-1.557 F300
G1 X3.557 Y32.640 Z-1.745 F300
G1 X3.479 Y32.640 Z-2.007 F300
G1 X3.439 Y32.640 Z-2.243 F300
G1 X3.421 Y32.640 Z-2.426 F300
G1 X3.421 Y32.892 Z-2.426 F300
G1 X3.439 Y32.892 Z-2.243 F300
G1 X3.479 Y32.892 Z-2.007 F300
G1 X3.557 Y32.892 Z-1.745 F300
G1 X3.627 Y32.892 Z-1.557 F300
G1 X3.768 Y32.892 Z-1.284 F300
G1 X3.896 Y32.892 Z-1.083 F300
G1 X4.092 Y32.892 Z-0.842 F300
G1 X4.250 Y32.892 Z-0.683 F300
G1 X4.523 Y32.892 Z-0.463 F300
G1 X4.673 Y32.892 Z-0.369 F300
G1 X4.982 Y32.892 Z-0.209 F300
G1 X5.146 Y32.892 Z-0.148 F300
G1 X5.478 Y32.892 Z-0.053 F300
G1 X5.666 Y32.892 Z-0.025 F300
G1 X5.709 Y32.892 Z-0.012 F300
G1 X5.747 Y32.892 Z0.012 F300
G1 X5.776 Y32.892 Z0.046 F300
G1 X5.795 Y32.892 Z0.087 F300
G1 X5.801 Y32.892 Z0.132 F300
G1 X5.801 Y32.900 Z0.175 F300
G1 X5.801 Y32.922 Z0.213 F300
G1 X5.801 Y32.955 Z0.241 F300
G1 X5.801 Y32.996 Z0.256 F300
G1 X5.801 Y33.040 Z0.256 F300
G1 X5.801 Y33.081 Z0.241 F300
G1 X5.801 Y33.115 Z0.213 F300
G1 X5.801 Y33.137 Z0.175 F300
G1 X5.801 Y33.144 Z0.132 F300
G1 X5.795 Y33.144 Z0.087 F300
G1 X5.776 Y33.144 Z0.046 F300
G1 X5.747 Y33.144 Z0.012 F300
G1 X5.709 Y33.144 Z-0.012 F300
G1 X5.666 Y33.144 Z-0.025 F300
G1 X5.478 Y33.144 Z-0.053 F300
G1 X5.146 Y33.144 Z-0.148 F300
G1 X4.982 Y33.144 Z-0.209 F300
G1 X4.673 Y33.144 Z-0.369 F300
G1 X4.523 Y33.144 Z-0.463 F300
G1 X4.250 Y33.144 Z-0.683 F300
G1 X4.092 Y33.144 Z-0.842 F300
G1 X3.896 Y33.144 Z-1.083 F300
G1 X3.768 Y33.144 Z-1.284 F300
G1 X3.627 Y33.144 Z-1.557 F300
G1 X3.557 Y33.144 Z-1.745 F300
G1 X3.479 Y33.144 Z-2.007 F300
G1 X3.439 Y33.144 Z-2.243 F300
G1 X3.421 Y33.144 Z-2.426 F300
G1 X3.421 Y33.396 Z-2.426 F300
G1 X3.439 Y33.396 Z-2.243 F300
G1 X3.479 Y33.396 Z-2.007 F300
G1 X3.557 Y33.396 Z-1.745 F300
G1 X3.627 Y33.396 Z-1.557 F300
G1 X3.768 Y33.396 Z-1.284 F300
G1 X3.896 Y33.396 Z-1.083 F300
G1 X4.092 Y33.396 Z-0.842 F300
G1 X4.250 Y33.396 Z-0.683 F300
G1 X4.523 Y33.396 Z-0.463 F300
G1 X4.673 Y33.396 Z-0.369 F300
G1 X4.982 Y33.396 Z-0.209 F300
G1 X5.146 Y33.396 Z-0.148 F300
G1 X5.478 Y33.396 Z-0.053 F300
G1 X5.666 Y33.396 Z-0.025 F300
G1 X5.709 Y33.396 Z-0.012 F300
G1 X5.747 Y33.396 Z0.012 F300
G1 X5.776 Y33.396 Z0.046 F300
G1 X5.795 Y33.396 Z0.087 F300
G1 X5.801 Y33.396 Z0.132 F300
G1 X5.801 Y33.404 Z0.175 F300
G1 X5.801 Y33.426 Z0.213 F300
G1 X5.801 Y33.459 Z0.241 F300
G1 X5.801 Y33.500 Z0.256 F300
G1 X5.801 Y33.544 Z0.256 F300
G1 X5.801 Y33.585 Z0.241 F300
G1 X5.801 Y33.619 Z0.213 F300
G1 X5.801 Y33.641 Z0.175 F300
G1 X5.801 Y33.648 Z0.132 F300
G1 X5.795 Y33.648 Z0.087 F300
G1 X5.776 Y33.648 Z0.046 F300
G1 X5.747 Y33.648 Z0.012 F300
G1 X5.709 Y33.648 Z-0.012 F300
G1 X5.666 Y33.648 Z-0.025 F300
G1 X5.478 Y33.648 Z-0.053 F300
G1 X5.146 Y33.648 Z-0.148 F300
G1 X4.982 Y33.648 Z-0.209 F300
G1 X4.673 Y33.648 Z-0.369 F300
G1 X4.523 Y33.648 Z-0.463 F300
G1 X4.250 Y33.648 Z-0.683 F300
G1 X4.092 Y33.648 Z-0.842 F300
G1 X3.896 Y33.648 Z-1.083 F300
G1 X3.768 Y33.648 Z-1.284 F300
G1 X3.627 Y33.648 Z-1.557 F300
G1 X3.557 Y33.648 Z-1.745 F300
G1 X3.479 Y33.648 Z-2.007 F300
G1 X3.439 Y33.648 Z-2.243 F300
G1 X3.421 Y33.648 Z-2.426 F300
G1 X3.421 Y33.900 Z-2.426 F300
G1 X3.439 Y33.900 Z-2.243 F300
G1 X3.479 Y33.900 Z-2.007 F300
G1 X3.557 Y33.900 Z-1.745 F300
G1 X3.627 Y33.900 Z-1.557 F300
G1 X3.768 Y33.900 Z-1.284 F300
G1 X3.896 Y33.900 Z-1.083 F300
G1 X4.092 Y33.900 Z-0.842 F300
G1 X4.250 Y33.900 Z-0.683 F300
G1 X4.523 Y33.900 Z-0.463 F300
G1 X4.673 Y33.900 Z-0.369 F300
G1 X4.982 Y33.900 Z-0.209 F300
G1 X5.146 Y33.900 Z-0.148 F300
G1 X5.478 Y33.900 Z-0.053 F300
G1 X5.666 Y33.900 Z-0.025 F300
G1 X5.709 Y33.900 Z-0.012 F300
G1 X5.747 Y33.900 Z0.012 F300
G1 X5.776 Y33.900 Z0.046 F300
G1 X5.795 Y33.900 Z0.087 F300
G1 X5.801 Y33.900 Z0.132 F300
G1 X5.801 Y33.908 Z0.175 F300
G1 X5.801 Y33.930 Z0.213 F300
G1 X5.801 Y33.963 Z0.241 F300
G1 X5.801 Y34.004 Z0.256 F300
G1 X5.801 Y34.048 Z0.256 F300
G1 X5.801 Y34.089 Z0.241 F300
G1 X5.801 Y34.123 Z0.213 F300
G1 X5.801 Y34.145 Z0.175 F300
G1 X5.801 Y34.152 Z0.132 F300
G1 X5.795 Y34.152 Z0.087 F300
G1 X5.776 Y34.152 Z0.046 F300
G1 X5.747 Y34.152 Z0.012 F300
G1 X5.709 Y34.152 Z-0.012 F300
G1 X5.666 Y34.152 Z-0.025 F300
G1 X5.478 Y34.152 Z-0.053 F300
G1 X5.146 Y34.152 Z-0.148 F300
G1 X4.982 Y34.152 Z-0.209 F300
G1 X4.673 Y34.152 Z-0.369 F300
G1 X4.523 Y34.152 Z-0.463 F300
G1 X4.250 Y34.152 Z-0.683 F300
G1 X4.092 Y34.152 Z-0.842 F300
G1 X3.896 Y34.152 Z-1.083 F300
G1 X3.768 Y34.152 Z-1.284 F300
G1 X3.627 Y34.152 Z-1.557 F300
G1 X3.557 Y34.152 Z-1.745 F300
G1 X3.479 Y34.152 Z-2.007 F300
G1 X3.439 Y34.152 Z-2.243 F300
G1 X3.421 Y34.152 Z-2.426 F300
G1 X3.421 Y34.404 Z-2.426 F300
G1 X3.439 Y34.404 Z-2.243 F300
G1 X3.479 Y34.404 Z-2.007 F300
G1 X3.557 Y34.404 Z-1.745 F300
G1 X3.627 Y34.404 Z-1.557 F300
G1 X3.768 Y34.404 Z-1.284 F300
G1 X3.896 Y34.404 Z-1.083 F300
G1 X4.092 Y34.404 Z-0.842 F300
G1 X4.250 Y34.404 Z-0.683 F300
G1 X4.523 Y34.404 Z-0.463 F300
G1 X4.673 Y34.404 Z-0.369 F300
G1 X4.982 Y34.404 Z-0.209 F300
G1 X5.146 Y34.404 Z-0.148 F300
G1 X5.478 Y34.404 Z-0.053 F300
G1 X5.666 Y34.404 Z-0.025 F300
G1 X5.709 Y34.404 Z-0.012 F300
G1 X5.747 Y34.404 Z0.012 F300
G1 X5.776 Y34.404 Z0.046 F300
G1 X5.795 Y34.404 Z0.087 F300
G1 X5.801 Y34.404 Z0.132 F300
G1 X5.801 Y34.412 Z0.175 F300
G1 X5.801 Y34.434 Z0.213 F300
G1 X5.801 Y34.467 Z0.241 F300
G1 X5.801 Y34.508 Z0.256 F300
G1 X5.801 Y34.552 Z0.256 F300
G1 X5.801 Y34.593 Z0.241 F300
G1 X5.801 Y34.627 Z0.213 F300
G1 X5.801 Y34.648 Z0.175 F300
G1 X5.801 Y34.656 Z0.132 F300
G1 X5.795 Y34.656 Z0.087 F300
G1 X5.776 Y34.656 Z0.046 F300
G1 X5.747 Y34.656 Z0.012 F300
G1 X5.709 Y34.656 Z-0.012 F300
G1 X5.666 Y34.656 Z-0.025 F300
G1 X5.478 Y34.656 Z-0.053 F300
G1 X5.146 Y34.656 Z-0.148 F300
G1 X4.982 Y34.656 Z-0.209 F300
G1 X4.673 Y34.656 Z-0.369 F300
G1 X4.523 Y34.656 Z-0.463 F300
G1 X4.250 Y34.656 Z-0.683 F300
G1 X4.092 Y34.656 Z-0.842 F300
G1 X3.896 Y34.656 Z-1.083 F300
G1 X3.768 Y34.656 Z-1.284 F300
