;Program
; -> Name        : 1001
;Machine
; -> Vendor      : Snapmaker
; -> Vendor URL  : http://www.snapmaker.com
; -> Description : Snapmaker 2.0 Marlin
;Post-Processor
; -> Author      : Nuno Vaz Oliveira
; -> Version     : v20230108.1
; -> Description : Milling post for Snapmaker 2.0v20230108.1, created by Nuno Vaz Oliveira

;Set units to millimeters
G21
;Set working units as absolute positioning system
G90

;Parameter "operation:tool_clockwise" read successfully with a value of CW
;Parameter "operation:retractHeight_value" read successfully with a value of 5

;Operation name: Parallel2
;Raize Z axis to safe position
G0 Z15.000
;Set tool speed to 12000RPM, or 100% in CW direction
M3 P100
;Dwell for 2 seconds to allow the spindle to spin up
G4 S2
G0 X141.330 Y5.001 Z15.000
G1 X141.330 Y5.001 Z15.000 F1000
G1 X141.330 Y5.001 Z1.877 F1000
G1 X141.330 Y5.001 Z0.117 F250
G1 X141.322 Y5.001 Z0.046 F1000
G1 X141.299 Y5.001 Z-0.021 F1000
G1 X141.261 Y5.001 Z-0.081 F1000
G1 X141.211 Y5.001 Z-0.131 F1000
G1 X141.151 Y5.001 Z-0.169 F1000
G1 X141.083 Y5.001 Z-0.193 F1000
G1 X141.013 Y5.001 Z-0.201 F1000
G1 X79.487 Y5.001 Z-0.201 F1000
G1 X79.438 Y5.001 Z-0.193 F1000
G1 X79.394 Y5.001 Z-0.170 F1000
G1 X79.359 Y5.001 Z-0.135 F1000
G1 X79.336 Y5.001 Z-0.091 F1000
G1 X79.328 Y5.001 Z-0.042 F1000
G1 X79.321 Y5.004 Z0.033 F1000
G1 X79.299 Y5.012 Z0.105 F1000
G1 X79.264 Y5.025 Z0.171 F1000
G1 X79.216 Y5.043 Z0.227 F1000
G1 X79.159 Y5.064 Z0.272 F1000
G1 X79.094 Y5.088 Z0.303 F1000
G1 X79.024 Y5.114 Z0.318 F1000
G1 X78.953 Y5.140 Z0.318 F1000
G1 X78.884 Y5.166 Z0.303 F1000
G1 X78.819 Y5.190 Z0.272 F1000
G1 X78.762 Y5.212 Z0.227 F1000
G1 X78.714 Y5.229 Z0.171 F1000
G1 X78.679 Y5.242 Z0.105 F1000
G1 X78.657 Y5.250 Z0.033 F1000
G1 X78.649 Y5.253 Z-0.042 F1000
G1 X78.649 Y5.253 Z-0.048 F1000
G1 X78.656 Y5.253 Z-0.094 F1000
G1 X78.676 Y5.253 Z-0.137 F1000
G1 X78.708 Y5.253 Z-0.171 F1000
G1 X78.749 Y5.253 Z-0.195 F1000
G1 X78.794 Y5.253 Z-0.206 F1000
G1 X78.841 Y5.253 Z-0.203 F1000
G1 X79.164 Y5.253 Z-0.134 F1000
G1 X79.369 Y5.253 Z-0.119 F1000
G1 X141.048 Y5.253 Z-0.115 F1000
G1 X141.286 Y5.253 Z-0.128 F1000
G1 X141.659 Y5.253 Z-0.200 F1000
G1 X141.705 Y5.253 Z-0.202 F1000
G1 X141.750 Y5.253 Z-0.191 F1000
G1 X141.790 Y5.253 Z-0.167 F1000
G1 X141.821 Y5.253 Z-0.132 F1000
G1 X141.841 Y5.253 Z-0.090 F1000
G1 X141.848 Y5.253 Z-0.044 F1000
G1 X141.852 Y5.258 Z0.003 F1000
G1 X141.865 Y5.273 Z0.046 F1000
G1 X141.885 Y5.297 Z0.082 F1000
G1 X141.912 Y5.327 Z0.108 F1000
G1 X141.942 Y5.361 Z0.121 F1000
G1 X141.973 Y5.397 Z0.121 F1000
G1 X142.003 Y5.432 Z0.108 F1000
G1 X142.029 Y5.462 Z0.082 F1000
G1 X142.049 Y5.485 Z0.046 F1000
G1 X142.062 Y5.500 Z0.003 F1000
G1 X142.067 Y5.505 Z-0.044 F1000
G1 X142.067 Y5.505 Z-0.050 F1000
G1 X142.059 Y5.505 Z-0.098 F1000
G1 X142.037 Y5.505 Z-0.142 F1000
G1 X142.003 Y5.505 Z-0.177 F1000
G1 X141.960 Y5.505 Z-0.200 F1000
G1 X141.912 Y5.505 Z-0.209 F1000
G1 X141.864 Y5.505 Z-0.202 F1000
G1 X141.638 Y5.505 Z-0.137 F1000
G1 X141.312 Y5.505 Z-0.071 F1000
G1 X141.003 Y5.505 Z-0.048 F1000
G1 X79.378 Y5.505 Z-0.052 F1000
G1 X79.152 Y5.505 Z-0.076 F1000
G1 X78.773 Y5.505 Z-0.159 F1000
G1 X78.636 Y5.505 Z-0.204 F1000
G1 X78.596 Y5.505 Z-0.211 F1000
G1 X78.555 Y5.505 Z-0.209 F1000
G1 X78.517 Y5.505 Z-0.196 F1000
G1 X78.482 Y5.505 Z-0.183 F1000
G1 X78.447 Y5.505 Z-0.179 F1000
G1 X78.322 Y5.505 Z-0.179 F1000
G1 X78.279 Y5.513 Z-0.179 F1000
G1 X78.241 Y5.535 Z-0.179 F1000
G1 X78.213 Y5.568 Z-0.179 F1000
G1 X78.198 Y5.609 Z-0.179 F1000
G1 X78.198 Y5.653 Z-0.179 F1000
G1 X78.213 Y5.694 Z-0.179 F1000
G1 X78.241 Y5.728 Z-0.179 F1000
G1 X78.279 Y5.750 Z-0.179 F1000
G1 X78.322 Y5.757 Z-0.179 F1000
G1 X78.358 Y5.757 Z-0.183 F1000
G1 X78.392 Y5.757 Z-0.196 F1000
G1 X78.405 Y5.757 Z-0.202 F1000
G1 X78.447 Y5.757 Z-0.216 F1000
G1 X78.491 Y5.757 Z-0.218 F1000
G1 X78.534 Y5.757 Z-0.207 F1000
G1 X78.687 Y5.757 Z-0.146 F1000
G1 X78.922 Y5.757 Z-0.078 F1000
G1 X79.262 Y5.757 Z-0.027 F1000
G1 X79.305 Y5.757 Z-0.014 F1000
G1 X79.343 Y5.757 Z0.011 F1000
G1 X79.372 Y5.757 Z0.045 F1000
G1 X79.391 Y5.757 Z0.086 F1000
G1 X79.397 Y5.757 Z0.130 F1000
G1 X79.397 Y5.757 Z0.132 F1000
G1 X79.395 Y5.763 Z0.173 F1000
G1 X79.388 Y5.781 Z0.211 F1000
G1 X79.377 Y5.809 Z0.241 F1000
G1 X79.364 Y5.844 Z0.260 F1000
G1 X79.349 Y5.883 Z0.267 F1000
G1 X79.334 Y5.922 Z0.260 F1000
G1 X79.321 Y5.957 Z0.241 F1000
G1 X79.311 Y5.985 Z0.211 F1000
G1 X79.304 Y6.003 Z0.173 F1000
G1 X79.301 Y6.009 Z0.132 F1000
G1 X79.295 Y6.009 Z0.087 F1000
G1 X79.276 Y6.009 Z0.046 F1000
G1 X79.247 Y6.009 Z0.012 F1000
G1 X79.209 Y6.009 Z-0.012 F1000
G1 X79.166 Y6.009 Z-0.025 F1000
G1 X78.978 Y6.009 Z-0.053 F1000
G1 X78.646 Y6.009 Z-0.148 F1000
G1 X78.500 Y6.009 Z-0.201 F1000
G1 X78.458 Y6.009 Z-0.210 F1000
G1 X78.416 Y6.009 Z-0.208 F1000
G1 X78.376 Y6.009 Z-0.195 F1000
G1 X78.342 Y6.009 Z-0.182 F1000
G1 X78.306 Y6.009 Z-0.178 F1000
G1 X78.263 Y6.017 Z-0.178 F1000
G1 X78.225 Y6.039 Z-0.178 F1000
G1 X78.197 Y6.072 Z-0.178 F1000
G1 X78.182 Y6.113 Z-0.178 F1000
G1 X78.182 Y6.157 Z-0.178 F1000
G1 X78.197 Y6.198 Z-0.178 F1000
G1 X78.225 Y6.232 Z-0.178 F1000
G1 X78.263 Y6.254 Z-0.178 F1000
G1 X78.306 Y6.261 Z-0.178 F1000
G1 X78.342 Y6.261 Z-0.182 F1000
G1 X78.376 Y6.261 Z-0.195 F1000
G1 X78.416 Y6.261 Z-0.208 F1000
G1 X78.458 Y6.261 Z-0.210 F1000
G1 X78.500 Y6.261 Z-0.201 F1000
G1 X78.646 Y6.261 Z-0.148 F1000
G1 X78.978 Y6.261 Z-0.053 F1000
G1 X79.166 Y6.261 Z-0.025 F1000
G1 X79.209 Y6.261 Z-0.012 F1000
G1 X79.247 Y6.261 Z0.012 F1000
G1 X79.276 Y6.261 Z0.046 F1000
G1 X79.295 Y6.261 Z0.087 F1000
G1 X79.301 Y6.261 Z0.132 F1000
G1 X79.301 Y6.269 Z0.175 F1000
G1 X79.301 Y6.291 Z0.213 F1000
G1 X79.301 Y6.324 Z0.241 F1000
G1 X79.301 Y6.365 Z0.256 F1000
G1 X79.301 Y6.409 Z0.256 F1000
G1 X79.301 Y6.450 Z0.241 F1000
G1 X79.301 Y6.484 Z0.213 F1000
G1 X79.301 Y6.506 Z0.175 F1000
G1 X79.301 Y6.513 Z0.132 F1000
G1 X79.295 Y6.513 Z0.087 F1000
G1 X79.276 Y6.513 Z0.046 F1000
G1 X79.247 Y6.513 Z0.012 F1000
G1 X79.209 Y6.513 Z-0.012 F1000
G1 X79.166 Y6.513 Z-0.025 F1000
G1 X78.978 Y6.513 Z-0.053 F1000
G1 X78.646 Y6.513 Z-0.148 F1000
G1 X78.500 Y6.513 Z-0.201 F1000
G1 X78.458 Y6.513 Z-0.210 F1000
G1 X78.416 Y6.513 Z-0.208 F1000
G1 X78.376 Y6.513 Z-0.195 F1000
G1 X78.342 Y6.513 Z-0.182 F1000
G1 X78.306 Y6.513 Z-0.178 F1000
G1 X78.263 Y6.521 Z-0.178 F1000
G1 X78.225 Y6.543 Z-0.178 F1000
G1 X78.197 Y6.576 Z-0.178 F1000
G1 X78.182 Y6.617 Z-0.178 F1000
G1 X78.182 Y6.661 Z-0.178 F1000
G1 X78.197 Y6.702 Z-0.178 F1000
G1 X78.225 Y6.736 Z-0.178 F1000
G1 X78.263 Y6.758 Z-0.178 F1000
G1 X78.306 Y6.765 Z-0.178 F1000
G1 X78.342 Y6.765 Z-0.182 F1000
G1 X78.376 Y6.765 Z-0.195 F1000
G1 X78.416 Y6.765 Z-0.208 F1000
G1 X78.458 Y6.765 Z-0.210 F1000
G1 X78.500 Y6.765 Z-0.201 F1000
G1 X78.646 Y6.765 Z-0.148 F1000
G1 X78.978 Y6.765 Z-0.053 F1000
G1 X79.166 Y6.765 Z-0.025 F1000
G1 X79.209 Y6.765 Z-0.012 F1000
G1 X79.247 Y6.765 Z0.012 F1000
G1 X79.276 Y6.765 Z0.046 F1000
G1 X79.295 Y6.765 Z0.087 F1000
G1 X79.301 Y6.765 Z0.132 F1000
G1 X79.301 Y6.773 Z0.175 F1000
G1 X79.301 Y6.795 Z0.213 F1000
G1 X79.301 Y6.828 Z0.241 F1000
G1 X79.301 Y6.869 Z0.256 F1000
G1 X79.301 Y6.913 Z0.256 F1000
G1 X79.301 Y6.954 Z0.241 F1000
G1 X79.301 Y6.988 Z0.213 F1000
G1 X79.301 Y7.010 Z0.175 F1000
G1 X79.301 Y7.017 Z0.132 F1000
G1 X79.295 Y7.017 Z0.087 F1000
G1 X79.276 Y7.017 Z0.046 F1000
G1 X79.247 Y7.017 Z0.012 F1000
G1 X79.209 Y7.017 Z-0.012 F1000
G1 X79.166 Y7.017 Z-0.025 F1000
G1 X78.978 Y7.017 Z-0.053 F1000
G1 X78.646 Y7.017 Z-0.148 F1000
G1 X78.500 Y7.017 Z-0.201 F1000
G1 X78.458 Y7.017 Z-0.210 F1000
G1 X78.416 Y7.017 Z-0.208 F1000
G1 X78.376 Y7.017 Z-0.195 F1000
G1 X78.342 Y7.017 Z-0.182 F1000
G1 X78.306 Y7.017 Z-0.178 F1000
G1 X78.263 Y7.025 Z-0.178 F1000
G1 X78.225 Y7.047 Z-0.178 F1000
G1 X78.197 Y7.080 Z-0.178 F1000
G1 X78.182 Y7.121 Z-0.178 F1000
G1 X78.182 Y7.165 Z-0.178 F1000
G1 X78.197 Y7.206 Z-0.178 F1000
G1 X78.225 Y7.240 Z-0.178 F1000
G1 X78.263 Y7.262 Z-0.178 F1000
G1 X78.306 Y7.269 Z-0.178 F1000
G1 X78.342 Y7.269 Z-0.182 F1000
G1 X78.376 Y7.269 Z-0.195 F1000
G1 X78.416 Y7.269 Z-0.208 F1000
G1 X78.458 Y7.269 Z-0.210 F1000
G1 X78.500 Y7.269 Z-0.201 F1000
G1 X78.646 Y7.269 Z-0.148 F1000
G1 X78.978 Y7.269 Z-0.053 F1000
G1 X79.166 Y7.269 Z-0.025 F1000
G1 X79.209 Y7.269 Z-0.012 F1000
G1 X79.247 Y7.269 Z0.012 F1000
G1 X79.276 Y7.269 Z0.046 F1000
G1 X79.295 Y7.269 Z0.087 F1000
G1 X79.301 Y7.269 Z0.132 F1000
G1 X79.301 Y7.277 Z0.175 F1000
G1 X79.301 Y7.299 Z0.213 F1000
G1 X79.301 Y7.332 Z0.241 F1000
G1 X79.301 Y7.373 Z0.256 F1000
G1 X79.301 Y7.417 Z0.256 F1000
G1 X79.301 Y7.458 Z0.241 F1000
G1 X79.301 Y7.492 Z0.213 F1000
G1 X79.301 Y7.514 Z0.175 F1000
G1 X79.301 Y7.521 Z0.132 F1000
G1 X79.295 Y7.521 Z0.087 F1000
G1 X79.276 Y7.521 Z0.046 F1000
G1 X79.247 Y7.521 Z0.012 F1000
G1 X79.209 Y7.521 Z-0.012 F1000
G1 X79.166 Y7.521 Z-0.025 F1000
G1 X78.978 Y7.521 Z-0.053 F1000
G1 X78.646 Y7.521 Z-0.148 F1000
G1 X78.500 Y7.521 Z-0.201 F1000
G1 X78.458 Y7.521 Z-0.210 F1000
G1 X78.416 Y7.521 Z-0.208 F1000
G1 X78.376 Y7.521 Z-0.195 F1000
G1 X78.342 Y7.521 Z-0.182 F1000
G1 X78.306 Y7.521 Z-0.178 F1000
G1 X78.263 Y7.529 Z-0.178 F1000
G1 X78.225 Y7.551 Z-0.178 F1000
G1 X78.197 Y7.584 Z-0.178 F1000
G1 X78.182 Y7.625 Z-0.178 F1000
G1 X78.182 Y7.669 Z-0.178 F1000
G1 X78.197 Y7.710 Z-0.178 F1000
G1 X78.225 Y7.744 Z-0.178 F1000
G1 X78.263 Y7.766 Z-0.178 F1000
G1 X78.306 Y7.773 Z-0.178 F1000
G1 X78.342 Y7.773 Z-0.182 F1000
G1 X78.376 Y7.773 Z-0.195 F1000
G1 X78.416 Y7.773 Z-0.208 F1000
G1 X78.458 Y7.773 Z-0.210 F1000
G1 X78.500 Y7.773 Z-0.201 F1000
G1 X78.646 Y7.773 Z-0.148 F1000
G1 X78.978 Y7.773 Z-0.053 F1000
G1 X79.166 Y7.773 Z-0.025 F1000
G1 X79.209 Y7.773 Z-0.012 F1000
G1 X79.247 Y7.773 Z0.012 F1000
G1 X79.276 Y7.773 Z0.046 F1000
G1 X79.295 Y7.773 Z0.087 F1000
G1 X79.301 Y7.773 Z0.132 F1000
G1 X79.301 Y7.781 Z0.175 F1000
G1 X79.301 Y7.803 Z0.213 F1000
G1 X79.301 Y7.836 Z0.241 F1000
G1 X79.301 Y7.877 Z0.256 F1000
G1 X79.301 Y7.921 Z0.256 F1000
G1 X79.301 Y7.962 Z0.241 F1000
G1 X79.301 Y7.996 Z0.213 F1000
G1 X79.301 Y8.018 Z0.175 F1000
G1 X79.301 Y8.025 Z0.132 F1000
G1 X79.295 Y8.025 Z0.087 F1000
G1 X79.276 Y8.025 Z0.046 F1000
G1 X79.247 Y8.025 Z0.012 F1000
G1 X79.209 Y8.025 Z-0.012 F1000
G1 X79.166 Y8.025 Z-0.025 F1000
G1 X78.978 Y8.025 Z-0.053 F1000
G1 X78.646 Y8.025 Z-0.148 F1000
G1 X78.500 Y8.025 Z-0.201 F1000
G1 X78.458 Y8.025 Z-0.210 F1000
G1 X78.416 Y8.025 Z-0.208 F1000
G1 X78.376 Y8.025 Z-0.195 F1000
G1 X78.342 Y8.025 Z-0.182 F1000
G1 X78.306 Y8.025 Z-0.178 F1000
G1 X78.263 Y8.033 Z-0.178 F1000
G1 X78.225 Y8.055 Z-0.178 F1000
G1 X78.197 Y8.088 Z-0.178 F1000
G1 X78.182 Y8.129 Z-0.178 F1000
G1 X78.182 Y8.173 Z-0.178 F1000
G1 X78.197 Y8.214 Z-0.178 F1000
G1 X78.225 Y8.248 Z-0.178 F1000
G1 X78.263 Y8.270 Z-0.178 F1000
G1 X78.306 Y8.277 Z-0.178 F1000
G1 X78.342 Y8.277 Z-0.182 F1000
G1 X78.376 Y8.277 Z-0.195 F1000
G1 X78.416 Y8.277 Z-0.208 F1000
G1 X78.458 Y8.277 Z-0.210 F1000
G1 X78.500 Y8.277 Z-0.201 F1000
G1 X78.646 Y8.277 Z-0.148 F1000
G1 X78.978 Y8.277 Z-0.053 F1000
G1 X79.166 Y8.277 Z-0.025 F1000
G1 X79.209 Y8.277 Z-0.012 F1000
G1 X79.247 Y8.277 Z0.012 F1000
G1 X79.276 Y8.277 Z0.046 F1000
G1 X79.295 Y8.277 Z0.087 F1000
G1 X79.301 Y8.277 Z0.132 F1000
G1 X79.301 Y8.285 Z0.175 F1000
G1 X79.301 Y8.307 Z0.213 F1000
G1 X79.301 Y8.340 Z0.241 F1000
G1 X79.301 Y8.381 Z0.256 F1000
G1 X79.301 Y8.425 Z0.256 F1000
G1 X79.301 Y8.466 Z0.241 F1000
G1 X79.301 Y8.500 Z0.213 F1000
G1 X79.301 Y8.522 Z0.175 F1000
G1 X79.301 Y8.529 Z0.132 F1000
G1 X79.295 Y8.529 Z0.087 F1000
G1 X79.276 Y8.529 Z0.046 F1000
G1 X79.247 Y8.529 Z0.012 F1000
G1 X79.209 Y8.529 Z-0.012 F1000
G1 X79.166 Y8.529 Z-0.025 F1000
G1 X78.978 Y8.529 Z-0.053 F1000
G1 X78.646 Y8.529 Z-0.148 F1000
G1 X78.500 Y8.529 Z-0.201 F1000
G1 X78.458 Y8.529 Z-0.210 F1000
G1 X78.416 Y8.529 Z-0.208 F1000
G1 X78.376 Y8.529 Z-0.195 F1000
G1 X78.342 Y8.529 Z-0.182 F1000
G1 X78.306 Y8.529 Z-0.178 F1000
G1 X78.263 Y8.537 Z-0.178 F1000
G1 X78.225 Y8.559 Z-0.178 F1000
G1 X78.197 Y8.592 Z-0.178 F1000
G1 X78.182 Y8.633 Z-0.178 F1000
G1 X78.182 Y8.677 Z-0.178 F1000
G1 X78.197 Y8.718 Z-0.178 F1000
G1 X78.225 Y8.752 Z-0.178 F1000
G1 X78.263 Y8.774 Z-0.178 F1000
G1 X78.306 Y8.781 Z-0.178 F1000
G1 X78.342 Y8.781 Z-0.182 F1000
G1 X78.376 Y8.781 Z-0.195 F1000
G1 X78.416 Y8.781 Z-0.208 F1000
G1 X78.458 Y8.781 Z-0.210 F1000
G1 X78.500 Y8.781 Z-0.201 F1000
G1 X78.646 Y8.781 Z-0.148 F1000
G1 X78.978 Y8.781 Z-0.053 F1000
G1 X79.166 Y8.781 Z-0.025 F1000
G1 X79.209 Y8.781 Z-0.012 F1000
G1 X79.247 Y8.781 Z0.012 F1000
G1 X79.276 Y8.781 Z0.046 F1000
G1 X79.295 Y8.781 Z0.087 F1000
G1 X79.301 Y8.781 Z0.132 F1000
G1 X79.301 Y8.789 Z0.175 F1000
G1 X79.301 Y8.811 Z0.213 F1000
G1 X79.301 Y8.844 Z0.241 F1000
G1 X79.301 Y8.885 Z0.256 F1000
G1 X79.301 Y8.929 Z0.256 F1000
G1 X79.301 Y8.970 Z0.241 F1000
G1 X79.301 Y9.004 Z0.213 F1000
G1 X79.301 Y9.026 Z0.175 F1000
G1 X79.301 Y9.033 Z0.132 F1000
G1 X79.295 Y9.033 Z0.087 F1000
G1 X79.276 Y9.033 Z0.046 F1000
G1 X79.247 Y9.033 Z0.012 F1000
G1 X79.209 Y9.033 Z-0.012 F1000
G1 X79.166 Y9.033 Z-0.025 F1000
G1 X78.978 Y9.033 Z-0.053 F1000
G1 X78.646 Y9.033 Z-0.148 F1000
G1 X78.500 Y9.033 Z-0.201 F1000
G1 X78.458 Y9.033 Z-0.210 F1000
G1 X78.416 Y9.033 Z-0.208 F1000
G1 X78.376 Y9.033 Z-0.195 F1000
G1 X78.342 Y9.033 Z-0.182 F1000
G1 X78.306 Y9.033 Z-0.178 F1000
G1 X78.263 Y9.041 Z-0.178 F1000
G1 X78.225 Y9.063 Z-0.178 F1000
G1 X78.197 Y9.096 Z-0.178 F1000
G1 X78.182 Y9.137 Z-0.178 F1000
G1 X78.182 Y9.181 Z-0.178 F1000
G1 X78.197 Y9.222 Z-0.178 F1000
G1 X78.225 Y9.256 Z-0.178 F1000
G1 X78.263 Y9.277 Z-0.178 F1000
G1 X78.306 Y9.285 Z-0.178 F1000
G1 X78.342 Y9.285 Z-0.182 F1000
G1 X78.376 Y9.285 Z-0.195 F1000
G1 X78.416 Y9.285 Z-0.208 F1000
G1 X78.458 Y9.285 Z-0.210 F1000
G1 X78.500 Y9.285 Z-0.201 F1000
G1 X78.646 Y9.285 Z-0.148 F1000
G1 X78.978 Y9.285 Z-0.053 F1000
G1 X79.166 Y9.285 Z-0.025 F1000
G1 X79.209 Y9.285 Z-0.012 F1000
G1 X79.247 Y9.285 Z0.012 F1000
G1 X79.276 Y9.285 Z0.046 F1000
G1 X79.295 Y9.285 Z0.087 F1000
G1 X79.301 Y9.285 Z0.132 F1000
G1 X79.301 Y9.293 Z0.175 F1000
G1 X79.301 Y9.315 Z0.213 F1000
G1 X79.301 Y9.348 Z0.241 F1000
G1 X79.301 Y9.389 Z0.256 F1000
G1 X79.301 Y9.433 Z0.256 F1000
G1 X79.301 Y9.474 Z0.241 F1000
G1 X79.301 Y9.508 Z0.213 F1000
G1 X79.301 Y9.529 Z0.175 F1000
G1 X79.301 Y9.537 Z0.132 F1000
G1 X79.295 Y9.537 Z0.087 F1000
G1 X79.276 Y9.537 Z0.046 F1000
G1 X79.247 Y9.537 Z0.012 F1000
G1 X79.209 Y9.537 Z-0.012 F1000
G1 X79.166 Y9.537 Z-0.025 F1000
G1 X78.978 Y9.537 Z-0.053 F1000
G1 X78.646 Y9.537 Z-0.148 F1000
G1 X78.500 Y9.537 Z-0.201 F1000
G1 X78.458 Y9.537 Z-0.210 F1000
G1 X78.416 Y9.537 Z-0.208 F1000
G1 X78.376 Y9.537 Z-0.195 F1000
G1 X78.342 Y9.537 Z-0.182 F1000
G1 X78.306 Y9.537 Z-0.178 F1000
G1 X78.263 Y9.545 Z-0.178 F1000
G1 X78.225 Y9.567 Z-0.178 F1000
G1 X78.197 Y9.600 Z-0.178 F1000
G1 X78.182 Y9.641 Z-0.178 F1000
G1 X78.182 Y9.685 Z-0.178 F1000
G1 X78.197 Y9.726 Z-0.178 F1000
G1 X78.225 Y9.760 Z-0.178 F1000
G1 X78.263 Y9.781 Z-0.178 F1000
G1 X78.306 Y9.789 Z-0.178 F1000
G1 X78.342 Y9.789 Z-0.182 F1000
G1 X78.376 Y9.789 Z-0.195 F1000
G1 X78.416 Y9.789 Z-0.208 F1000
G1 X78.458 Y9.789 Z-0.210 F1000
G1 X78.500 Y9.789 Z-0.201 F1000
G1 X78.646 Y9.789 Z-0.148 F1000
G1 X78.978 Y9.789 Z-0.053 F1000
G1 X79.166 Y9.789 Z-0.025 F1000
G1 X79.209 Y9.789 Z-0.012 F1000
G1 X79.247 Y9.789 Z0.012 F1000
G1 X79.276 Y9.789 Z0.046 F1000
G1 X79.295 Y9.789 Z0.087 F1000
G1 X79.301 Y9.789 Z0.132 F1000
G1 X79.301 Y9.797 Z0.175 F1000
G1 X79.301 Y9.819 Z0.213 F1000
G1 X79.301 Y9.852 Z0.241 F1000
G1 X79.301 Y9.893 Z0.256 F1000
G1 X79.301 Y9.937 Z0.256 F1000
G1 X79.301 Y9.978 Z0.241 F1000
G1 X79.301 Y10.012 Z0.213 F1000
G1 X79.301 Y10.033 Z0.175 F1000
G1 X79.301 Y10.041 Z0.132 F1000
G1 X79.295 Y10.041 Z0.087 F1000
G1 X79.276 Y10.041 Z0.046 F1000
G1 X79.247 Y10.041 Z0.012 F1000
G1 X79.209 Y10.041 Z-0.012 F1000
G1 X79.166 Y10.041 Z-0.025 F1000
G1 X78.978 Y10.041 Z-0.053 F1000
G1 X78.646 Y10.041 Z-0.148 F1000
G1 X78.500 Y10.041 Z-0.201 F1000
G1 X78.458 Y10.041 Z-0.210 F1000
G1 X78.416 Y10.041 Z-0.208 F1000
G1 X78.376 Y10.041 Z-0.195 F1000
G1 X78.342 Y10.041 Z-0.182 F1000
G1 X78.306 Y10.041 Z-0.178 F1000
G1 X78.263 Y10.049 Z-0.178 F1000
G1 X78.225 Y10.071 Z-0.178 F1000
G1 X78.197 Y10.104 Z-0.178 F1000
G1 X78.182 Y10.145 Z-0.178 F1000
G1 X78.182 Y10.189 Z-0.178 F1000
G1 X78.197 Y10.230 Z-0.178 F1000
G1 X78.225 Y10.264 Z-0.178 F1000
G1 X78.263 Y10.285 Z-0.178 F1000
G1 X78.306 Y10.293 Z-0.178 F1000
G1 X78.342 Y10.293 Z-0.182 F1000
G1 X78.376 Y10.293 Z-0.195 F1000
G1 X78.416 Y10.293 Z-0.208 F1000
G1 X78.458 Y10.293 Z-0.210 F1000
G1 X78.500 Y10.293 Z-0.201 F1000
G1 X78.646 Y10.293 Z-0.148 F1000
G1 X78.978 Y10.293 Z-0.053 F1000
G1 X79.166 Y10.293 Z-0.025 F1000
G1 X79.209 Y10.293 Z-0.012 F1000
G1 X79.247 Y10.293 Z0.012 F1000
G1 X79.276 Y10.293 Z0.046 F1000
G1 X79.295 Y10.293 Z0.087 F1000
G1 X79.301 Y10.293 Z0.132 F1000
G1 X79.301 Y10.301 Z0.175 F1000
G1 X79.301 Y10.323 Z0.213 F1000
G1 X79.301 Y10.356 Z0.241 F1000
G1 X79.301 Y10.397 Z0.256 F1000
G1 X79.301 Y10.441 Z0.256 F1000
G1 X79.301 Y10.482 Z0.241 F1000
G1 X79.301 Y10.516 Z0.213 F1000
G1 X79.301 Y10.537 Z0.175 F1000
G1 X79.301 Y10.545 Z0.132 F1000
G1 X79.295 Y10.545 Z0.087 F1000
G1 X79.276 Y10.545 Z0.046 F1000
G1 X79.247 Y10.545 Z0.012 F1000
G1 X79.209 Y10.545 Z-0.012 F1000
G1 X79.166 Y10.545 Z-0.025 F1000
G1 X78.978 Y10.545 Z-0.053 F1000
G1 X78.646 Y10.545 Z-0.148 F1000
G1 X78.500 Y10.545 Z-0.201 F1000
G1 X78.458 Y10.545 Z-0.210 F1000
G1 X78.416 Y10.545 Z-0.208 F1000
G1 X78.376 Y10.545 Z-0.195 F1000
G1 X78.342 Y10.545 Z-0.182 F1000
G1 X78.306 Y10.545 Z-0.178 F1000
G1 X78.263 Y10.553 Z-0.178 F1000
G1 X78.225 Y10.575 Z-0.178 F1000
G1 X78.197 Y10.608 Z-0.178 F1000
G1 X78.182 Y10.649 Z-0.178 F1000
G1 X78.182 Y10.693 Z-0.178 F1000
G1 X78.197 Y10.734 Z-0.178 F1000
G1 X78.225 Y10.768 Z-0.178 F1000
G1 X78.263 Y10.789 Z-0.178 F1000
G1 X78.306 Y10.797 Z-0.178 F1000
G1 X78.342 Y10.797 Z-0.182 F1000
G1 X78.376 Y10.797 Z-0.195 F1000
G1 X78.416 Y10.797 Z-0.208 F1000
G1 X78.458 Y10.797 Z-0.210 F1000
G1 X78.500 Y10.797 Z-0.201 F1000
G1 X78.646 Y10.797 Z-0.148 F1000
G1 X78.978 Y10.797 Z-0.053 F1000
G1 X79.166 Y10.797 Z-0.025 F1000
G1 X79.209 Y10.797 Z-0.012 F1000
G1 X79.247 Y10.797 Z0.012 F1000
G1 X79.276 Y10.797 Z0.046 F1000
G1 X79.295 Y10.797 Z0.087 F1000
G1 X79.301 Y10.797 Z0.132 F1000
G1 X79.301 Y10.805 Z0.175 F1000
G1 X79.301 Y10.827 Z0.213 F1000
G1 X79.301 Y10.860 Z0.241 F1000
G1 X79.301 Y10.901 Z0.256 F1000
G1 X79.301 Y10.945 Z0.256 F1000
G1 X79.301 Y10.986 Z0.241 F1000
G1 X79.301 Y11.020 Z0.213 F1000
G1 X79.301 Y11.041 Z0.175 F1000
G1 X79.301 Y11.049 Z0.132 F1000
G1 X79.295 Y11.049 Z0.087 F1000
G1 X79.276 Y11.049 Z0.046 F1000
G1 X79.247 Y11.049 Z0.012 F1000
G1 X79.209 Y11.049 Z-0.012 F1000
G1 X79.166 Y11.049 Z-0.025 F1000
G1 X78.978 Y11.049 Z-0.053 F1000
G1 X78.646 Y11.049 Z-0.148 F1000
G1 X78.500 Y11.049 Z-0.201 F1000
G1 X78.458 Y11.049 Z-0.210 F1000
G1 X78.416 Y11.049 Z-0.208 F1000
G1 X78.376 Y11.049 Z-0.195 F1000
G1 X78.342 Y11.049 Z-0.182 F1000
G1 X78.306 Y11.049 Z-0.178 F1000
G1 X78.263 Y11.057 Z-0.178 F1000
G1 X78.225 Y11.078 Z-0.178 F1000
G1 X78.197 Y11.112 Z-0.178 F1000
G1 X78.182 Y11.153 Z-0.178 F1000
G1 X78.182 Y11.197 Z-0.178 F1000
G1 X78.197 Y11.238 Z-0.178 F1000
G1 X78.225 Y11.272 Z-0.178 F1000
G1 X78.263 Y11.293 Z-0.178 F1000
G1 X78.306 Y11.301 Z-0.178 F1000
G1 X78.342 Y11.301 Z-0.182 F1000
G1 X78.376 Y11.301 Z-0.195 F1000
G1 X78.416 Y11.301 Z-0.208 F1000
G1 X78.458 Y11.301 Z-0.210 F1000
G1 X78.500 Y11.301 Z-0.201 F1000
G1 X78.646 Y11.301 Z-0.148 F1000
G1 X78.978 Y11.301 Z-0.053 F1000
G1 X79.166 Y11.301 Z-0.025 F1000
G1 X79.209 Y11.301 Z-0.012 F1000
G1 X79.247 Y11.301 Z0.012 F1000
G1 X79.276 Y11.301 Z0.046 F1000
G1 X79.295 Y11.301 Z0.087 F1000
G1 X79.301 Y11.301 Z0.132 F1000
G1 X79.301 Y11.309 Z0.175 F1000
G1 X79.301 Y11.330 Z0.213 F1000
G1 X79.301 Y11.364 Z0.241 F1000
G1 X79.301 Y11.405 Z0.256 F1000
G1 X79.301 Y11.449 Z0.256 F1000
G1 X79.301 Y11.490 Z0.241 F1000
G1 X79.301 Y11.524 Z0.213 F1000
G1 X79.301 Y11.545 Z0.175 F1000
G1 X79.301 Y11.553 Z0.132 F1000
G1 X79.295 Y11.553 Z0.087 F1000
G1 X79.276 Y11.553 Z0.046 F1000
G1 X79.247 Y11.553 Z0.012 F1000
G1 X79.209 Y11.553 Z-0.012 F1000
G1 X79.166 Y11.553 Z-0.025 F1000
G1 X78.978 Y11.553 Z-0.053 F1000
G1 X78.646 Y11.553 Z-0.148 F1000
G1 X78.500 Y11.553 Z-0.201 F1000
G1 X78.458 Y11.553 Z-0.210 F1000
G1 X78.416 Y11.553 Z-0.208 F1000
G1 X78.376 Y11.553 Z-0.195 F1000
G1 X78.342 Y11.553 Z-0.182 F1000
G1 X78.306 Y11.553 Z-0.178 F1000
G1 X78.263 Y11.561 Z-0.178 F1000
G1 X78.225 Y11.582 Z-0.178 F1000
G1 X78.197 Y11.616 Z-0.178 F1000
G1 X78.182 Y11.657 Z-0.178 F1000
G1 X78.182 Y11.701 Z-0.178 F1000
G1 X78.197 Y11.742 Z-0.178 F1000
G1 X78.225 Y11.776 Z-0.178 F1000
G1 X78.263 Y11.797 Z-0.178 F1000
G1 X78.306 Y11.805 Z-0.178 F1000
G1 X78.342 Y11.805 Z-0.182 F1000
G1 X78.376 Y11.805 Z-0.195 F1000
G1 X78.416 Y11.805 Z-0.208 F1000
G1 X78.458 Y11.805 Z-0.210 F1000
G1 X78.500 Y11.805 Z-0.201 F1000
G1 X78.646 Y11.805 Z-0.148 F1000
G1 X78.978 Y11.805 Z-0.053 F1000
G1 X79.166 Y11.805 Z-0.025 F1000
G1 X79.209 Y11.805 Z-0.012 F1000
G1 X79.247 Y11.805 Z0.012 F1000
G1 X79.276 Y11.805 Z0.046 F1000
G1 X79.295 Y11.805 Z0.087 F1000
G1 X79.301 Y11.805 Z0.132 F1000
G1 X79.301 Y11.813 Z0.175 F1000
G1 X79.301 Y11.834 Z0.213 F1000
G1 X79.301 Y11.868 Z0.241 F1000
G1 X79.301 Y11.909 Z0.256 F1000
G1 X79.301 Y11.953 Z0.256 F1000
G1 X79.301 Y11.994 Z0.241 F1000
G1 X79.301 Y12.028 Z0.213 F1000
G1 X79.301 Y12.049 Z0.175 F1000
G1 X79.301 Y12.057 Z0.132 F1000
G1 X79.295 Y12.057 Z0.087 F1000
G1 X79.276 Y12.057 Z0.046 F1000
G1 X79.247 Y12.057 Z0.012 F1000
G1 X79.209 Y12.057 Z-0.012 F1000
G1 X79.166 Y12.057 Z-0.025 F1000
G1 X78.978 Y12.057 Z-0.053 F1000
G1 X78.646 Y12.057 Z-0.148 F1000
G1 X78.500 Y12.057 Z-0.201 F1000
G1 X78.458 Y12.057 Z-0.210 F1000
G1 X78.416 Y12.057 Z-0.208 F1000
G1 X78.376 Y12.057 Z-0.195 F1000
G1 X78.342 Y12.057 Z-0.182 F1000
G1 X78.306 Y12.057 Z-0.178 F1000
G1 X78.263 Y12.065 Z-0.178 F1000
G1 X78.225 Y12.086 Z-0.178 F1000
G1 X78.197 Y12.120 Z-0.178 F1000
G1 X78.182 Y12.161 Z-0.178 F1000
G1 X78.182 Y12.205 Z-0.178 F1000
G1 X78.197 Y12.246 Z-0.178 F1000
G1 X78.225 Y12.279 Z-0.178 F1000
G1 X78.263 Y12.301 Z-0.178 F1000
G1 X78.306 Y12.309 Z-0.178 F1000
G1 X78.342 Y12.309 Z-0.182 F1000
G1 X78.376 Y12.309 Z-0.195 F1000
G1 X78.416 Y12.309 Z-0.208 F1000
G1 X78.458 Y12.309 Z-0.210 F1000
G1 X78.500 Y12.309 Z-0.201 F1000
G1 X78.646 Y12.309 Z-0.148 F1000
G1 X78.978 Y12.309 Z-0.053 F1000
G1 X79.166 Y12.309 Z-0.025 F1000
G1 X79.209 Y12.309 Z-0.012 F1000
G1 X79.247 Y12.309 Z0.012 F1000
G1 X79.276 Y12.309 Z0.046 F1000
G1 X79.295 Y12.309 Z0.087 F1000
G1 X79.301 Y12.309 Z0.132 F1000
G1 X79.301 Y12.317 Z0.175 F1000
G1 X79.301 Y12.338 Z0.213 F1000
G1 X79.301 Y12.372 Z0.241 F1000
G1 X79.301 Y12.413 Z0.256 F1000
G1 X79.301 Y12.457 Z0.256 F1000
G1 X79.301 Y12.498 Z0.241 F1000
G1 X79.301 Y12.531 Z0.213 F1000
G1 X79.301 Y12.553 Z0.175 F1000
G1 X79.301 Y12.561 Z0.132 F1000
G1 X79.295 Y12.561 Z0.087 F1000
G1 X79.276 Y12.561 Z0.046 F1000
G1 X79.247 Y12.561 Z0.012 F1000
G1 X79.209 Y12.561 Z-0.012 F1000
G1 X79.166 Y12.561 Z-0.025 F1000
G1 X78.978 Y12.561 Z-0.053 F1000
G1 X78.646 Y12.561 Z-0.148 F1000
G1 X78.500 Y12.561 Z-0.201 F1000
G1 X78.458 Y12.561 Z-0.210 F1000
G1 X78.416 Y12.561 Z-0.208 F1000
G1 X78.376 Y12.561 Z-0.195 F1000
G1 X78.342 Y12.561 Z-0.182 F1000
G1 X78.306 Y12.561 Z-0.178 F1000
G1 X78.263 Y12.569 Z-0.178 F1000
G1 X78.225 Y12.590 Z-0.178 F1000
G1 X78.197 Y12.624 Z-0.178 F1000
G1 X78.182 Y12.665 Z-0.178 F1000
G1 X78.182 Y12.709 Z-0.178 F1000
G1 X78.197 Y12.750 Z-0.178 F1000
G1 X78.225 Y12.783 Z-0.178 F1000
G1 X78.263 Y12.805 Z-0.178 F1000
G1 X78.306 Y12.813 Z-0.178 F1000
G1 X78.342 Y12.813 Z-0.182 F1000
G1 X78.376 Y12.813 Z-0.195 F1000
G1 X78.416 Y12.813 Z-0.208 F1000
G1 X78.458 Y12.813 Z-0.210 F1000
G1 X78.500 Y12.813 Z-0.201 F1000
G1 X78.646 Y12.813 Z-0.148 F1000
G1 X78.978 Y12.813 Z-0.053 F1000
G1 X79.166 Y12.813 Z-0.025 F1000
G1 X79.209 Y12.813 Z-0.012 F1000
G1 X79.247 Y12.813 Z0.012 F1000
G1 X79.276 Y12.813 Z0.046 F1000
G1 X79.295 Y12.813 Z0.087 F1000
G1 X79.301 Y12.813 Z0.132 F1000
G1 X79.301 Y12.821 Z0.175 F1000
G1 X79.301 Y12.842 Z0.213 F1000
G1 X79.301 Y12.876 Z0.241 F1000
G1 X79.301 Y12.917 Z0.256 F1000
G1 X79.301 Y12.961 Z0.256 F1000
G1 X79.301 Y13.002 Z0.241 F1000
G1 X79.301 Y13.035 Z0.213 F1000
G1 X79.301 Y13.057 Z0.175 F1000
G1 X79.301 Y13.065 Z0.132 F1000
G1 X79.295 Y13.065 Z0.087 F1000
G1 X79.276 Y13.065 Z0.046 F1000
G1 X79.247 Y13.065 Z0.012 F1000
G1 X79.209 Y13.065 Z-0.012 F1000
G1 X79.166 Y13.065 Z-0.025 F1000
G1 X78.978 Y13.065 Z-0.053 F1000
G1 X78.646 Y13.065 Z-0.148 F1000
G1 X78.500 Y13.065 Z-0.201 F1000
G1 X78.458 Y13.065 Z-0.210 F1000
G1 X78.416 Y13.065 Z-0.208 F1000
G1 X78.376 Y13.065 Z-0.195 F1000
G1 X78.342 Y13.065 Z-0.182 F1000
G1 X78.306 Y13.065 Z-0.178 F1000
G1 X78.263 Y13.073 Z-0.178 F1000
G1 X78.225 Y13.094 Z-0.178 F1000
G1 X78.197 Y13.128 Z-0.178 F1000
G1 X78.182 Y13.169 Z-0.178 F1000
G1 X78.182 Y13.213 Z-0.178 F1000
G1 X78.197 Y13.254 Z-0.178 F1000
G1 X78.225 Y13.287 Z-0.178 F1000
G1 X78.263 Y13.309 Z-0.178 F1000
G1 X78.306 Y13.317 Z-0.178 F1000
G1 X78.342 Y13.317 Z-0.182 F1000
G1 X78.376 Y13.317 Z-0.195 F1000
G1 X78.416 Y13.317 Z-0.208 F1000
G1 X78.458 Y13.317 Z-0.210 F1000
G1 X78.500 Y13.317 Z-0.201 F1000
G1 X78.646 Y13.317 Z-0.148 F1000
G1 X78.978 Y13.317 Z-0.053 F1000
G1 X79.166 Y13.317 Z-0.025 F1000
G1 X79.209 Y13.317 Z-0.012 F1000
G1 X79.247 Y13.317 Z0.012 F1000
G1 X79.276 Y13.317 Z0.046 F1000
G1 X79.295 Y13.317 Z0.087 F1000
G1 X79.301 Y13.317 Z0.132 F1000
G1 X79.301 Y13.325 Z0.175 F1000
G1 X79.301 Y13.346 Z0.213 F1000
G1 X79.301 Y13.380 Z0.241 F1000
G1 X79.301 Y13.421 Z0.256 F1000
G1 X79.301 Y13.465 Z0.256 F1000
G1 X79.301 Y13.506 Z0.241 F1000
G1 X79.301 Y13.539 Z0.213 F1000
G1 X79.301 Y13.561 Z0.175 F1000
G1 X79.301 Y13.569 Z0.132 F1000
G1 X79.295 Y13.569 Z0.087 F1000
G1 X79.276 Y13.569 Z0.046 F1000
G1 X79.247 Y13.569 Z0.012 F1000
G1 X79.209 Y13.569 Z-0.012 F1000
G1 X79.166 Y13.569 Z-0.025 F1000
G1 X78.978 Y13.569 Z-0.053 F1000
G1 X78.646 Y13.569 Z-0.148 F1000
G1 X78.500 Y13.569 Z-0.201 F1000
G1 X78.458 Y13.569 Z-0.210 F1000
G1 X78.416 Y13.569 Z-0.208 F1000
G1 X78.376 Y13.569 Z-0.195 F1000
G1 X78.342 Y13.569 Z-0.182 F1000
G1 X78.306 Y13.569 Z-0.178 F1000
G1 X78.263 Y13.577 Z-0.178 F1000
G1 X78.225 Y13.598 Z-0.178 F1000
G1 X78.197 Y13.632 Z-0.178 F1000
G1 X78.182 Y13.673 Z-0.178 F1000
G1 X78.182 Y13.717 Z-0.178 F1000
G1 X78.197 Y13.758 Z-0.178 F1000
G1 X78.225 Y13.791 Z-0.178 F1000
G1 X78.263 Y13.813 Z-0.178 F1000
G1 X78.306 Y13.821 Z-0.178 F1000
G1 X78.342 Y13.821 Z-0.182 F1000
G1 X78.376 Y13.821 Z-0.195 F1000
G1 X78.416 Y13.821 Z-0.208 F1000
G1 X78.458 Y13.821 Z-0.210 F1000
G1 X78.500 Y13.821 Z-0.201 F1000
G1 X78.646 Y13.821 Z-0.148 F1000
G1 X78.978 Y13.821 Z-0.053 F1000
G1 X79.166 Y13.821 Z-0.025 F1000
G1 X79.209 Y13.821 Z-0.012 F1000
G1 X79.247 Y13.821 Z0.012 F1000
G1 X79.276 Y13.821 Z0.046 F1000
G1 X79.295 Y13.821 Z0.087 F1000
G1 X79.301 Y13.821 Z0.132 F1000
G1 X79.301 Y13.829 Z0.175 F1000
G1 X79.301 Y13.850 Z0.213 F1000
G1 X79.301 Y13.884 Z0.241 F1000
G1 X79.301 Y13.925 Z0.256 F1000
G1 X79.301 Y13.969 Z0.256 F1000
G1 X79.301 Y14.010 Z0.241 F1000
G1 X79.301 Y14.043 Z0.213 F1000
G1 X79.301 Y14.065 Z0.175 F1000
G1 X79.301 Y14.073 Z0.132 F1000
G1 X79.295 Y14.073 Z0.087 F1000
G1 X79.276 Y14.073 Z0.046 F1000
G1 X79.247 Y14.073 Z0.012 F1000
G1 X79.209 Y14.073 Z-0.012 F1000
G1 X79.166 Y14.073 Z-0.025 F1000
G1 X78.978 Y14.073 Z-0.053 F1000
G1 X78.646 Y14.073 Z-0.148 F1000
G1 X78.500 Y14.073 Z-0.201 F1000
G1 X78.458 Y14.073 Z-0.210 F1000
G1 X78.416 Y14.073 Z-0.208 F1000
G1 X78.376 Y14.073 Z-0.195 F1000
G1 X78.342 Y14.073 Z-0.182 F1000
G1 X78.306 Y14.073 Z-0.178 F1000
G1 X78.263 Y14.080 Z-0.178 F1000
G1 X78.225 Y14.102 Z-0.178 F1000
G1 X78.197 Y14.136 Z-0.178 F1000
G1 X78.182 Y14.177 Z-0.178 F1000
G1 X78.182 Y14.221 Z-0.178 F1000
G1 X78.197 Y14.262 Z-0.178 F1000
G1 X78.225 Y14.295 Z-0.178 F1000
G1 X78.263 Y14.317 Z-0.178 F1000
G1 X78.306 Y14.325 Z-0.178 F1000
G1 X78.342 Y14.325 Z-0.182 F1000
G1 X78.376 Y14.325 Z-0.195 F1000
G1 X78.416 Y14.325 Z-0.208 F1000
G1 X78.458 Y14.325 Z-0.210 F1000
G1 X78.500 Y14.325 Z-0.201 F1000
G1 X78.646 Y14.325 Z-0.148 F1000
G1 X78.978 Y14.325 Z-0.053 F1000
G1 X79.166 Y14.325 Z-0.025 F1000
G1 X79.209 Y14.325 Z-0.012 F1000
G1 X79.247 Y14.325 Z0.012 F1000
G1 X79.276 Y14.325 Z0.046 F1000
G1 X79.295 Y14.325 Z0.087 F1000
G1 X79.301 Y14.325 Z0.132 F1000
G1 X79.301 Y14.332 Z0.175 F1000
G1 X79.301 Y14.354 Z0.213 F1000
G1 X79.301 Y14.388 Z0.241 F1000
G1 X79.301 Y14.429 Z0.256 F1000
G1 X79.301 Y14.473 Z0.256 F1000
G1 X79.301 Y14.514 Z0.241 F1000
G1 X79.301 Y14.547 Z0.213 F1000
G1 X79.301 Y14.569 Z0.175 F1000
G1 X79.301 Y14.577 Z0.132 F1000
G1 X79.295 Y14.577 Z0.087 F1000
G1 X79.276 Y14.577 Z0.046 F1000
G1 X79.247 Y14.577 Z0.012 F1000
G1 X79.209 Y14.577 Z-0.012 F1000
G1 X79.166 Y14.577 Z-0.025 F1000
G1 X78.978 Y14.577 Z-0.053 F1000
G1 X78.646 Y14.577 Z-0.148 F1000
G1 X78.500 Y14.577 Z-0.201 F1000
G1 X78.458 Y14.577 Z-0.210 F1000
G1 X78.416 Y14.577 Z-0.208 F1000
G1 X78.376 Y14.577 Z-0.195 F1000
G1 X78.342 Y14.577 Z-0.182 F1000
G1 X78.306 Y14.577 Z-0.178 F1000
G1 X78.263 Y14.584 Z-0.178 F1000
G1 X78.225 Y14.606 Z-0.178 F1000
G1 X78.197 Y14.640 Z-0.178 F1000
G1 X78.182 Y14.681 Z-0.178 F1000
G1 X78.182 Y14.725 Z-0.178 F1000
G1 X78.197 Y14.766 Z-0.178 F1000
G1 X78.225 Y14.799 Z-0.178 F1000
G1 X78.263 Y14.821 Z-0.178 F1000
G1 X78.306 Y14.829 Z-0.178 F1000
G1 X78.342 Y14.829 Z-0.182 F1000
G1 X78.376 Y14.829 Z-0.195 F1000
G1 X78.416 Y14.829 Z-0.208 F1000
G1 X78.458 Y14.829 Z-0.210 F1000
G1 X78.500 Y14.829 Z-0.201 F1000
G1 X78.646 Y14.829 Z-0.148 F1000
G1 X78.978 Y14.829 Z-0.053 F1000
G1 X79.166 Y14.829 Z-0.025 F1000
G1 X79.209 Y14.829 Z-0.012 F1000
G1 X79.247 Y14.829 Z0.012 F1000
G1 X79.276 Y14.829 Z0.046 F1000
G1 X79.295 Y14.829 Z0.087 F1000
G1 X79.301 Y14.829 Z0.132 F1000
G1 X79.301 Y14.836 Z0.175 F1000
G1 X79.301 Y14.858 Z0.213 F1000
G1 X79.301 Y14.892 Z0.241 F1000
G1 X79.301 Y14.933 Z0.256 F1000
G1 X79.301 Y14.977 Z0.256 F1000
G1 X79.301 Y15.018 Z0.241 F1000
G1 X79.301 Y15.051 Z0.213 F1000
G1 X79.301 Y15.073 Z0.175 F1000
G1 X79.301 Y15.081 Z0.132 F1000
G1 X79.295 Y15.081 Z0.087 F1000
G1 X79.276 Y15.081 Z0.046 F1000
G1 X79.247 Y15.081 Z0.012 F1000
G1 X79.209 Y15.081 Z-0.012 F1000
G1 X79.166 Y15.081 Z-0.025 F1000
G1 X78.978 Y15.081 Z-0.053 F1000
G1 X78.646 Y15.081 Z-0.148 F1000
G1 X78.500 Y15.081 Z-0.201 F1000
G1 X78.458 Y15.081 Z-0.210 F1000
G1 X78.416 Y15.081 Z-0.208 F1000
G1 X78.376 Y15.081 Z-0.195 F1000
G1 X78.342 Y15.081 Z-0.182 F1000
G1 X78.306 Y15.081 Z-0.178 F1000
G1 X78.263 Y15.088 Z-0.178 F1000
G1 X78.225 Y15.110 Z-0.178 F1000
G1 X78.197 Y15.144 Z-0.178 F1000
G1 X78.182 Y15.185 Z-0.178 F1000
G1 X78.182 Y15.229 Z-0.178 F1000
G1 X78.197 Y15.270 Z-0.178 F1000
G1 X78.225 Y15.303 Z-0.178 F1000
G1 X78.263 Y15.325 Z-0.178 F1000
G1 X78.306 Y15.333 Z-0.178 F1000
G1 X78.342 Y15.333 Z-0.182 F1000
G1 X78.376 Y15.333 Z-0.195 F1000
G1 X78.416 Y15.333 Z-0.208 F1000
G1 X78.458 Y15.333 Z-0.210 F1000
G1 X78.500 Y15.333 Z-0.201 F1000
G1 X78.646 Y15.333 Z-0.148 F1000
G1 X78.978 Y15.333 Z-0.053 F1000
G1 X79.166 Y15.333 Z-0.025 F1000
G1 X79.209 Y15.333 Z-0.012 F1000
G1 X79.247 Y15.333 Z0.012 F1000
G1 X79.276 Y15.333 Z0.046 F1000
G1 X79.295 Y15.333 Z0.087 F1000
G1 X79.301 Y15.333 Z0.132 F1000
G1 X79.301 Y15.340 Z0.175 F1000
G1 X79.301 Y15.362 Z0.213 F1000
G1 X79.301 Y15.396 Z0.241 F1000
G1 X79.301 Y15.437 Z0.256 F1000
G1 X79.301 Y15.481 Z0.256 F1000
G1 X79.301 Y15.522 Z0.241 F1000
G1 X79.301 Y15.555 Z0.213 F1000
G1 X79.301 Y15.577 Z0.175 F1000
G1 X79.301 Y15.585 Z0.132 F1000
G1 X79.295 Y15.585 Z0.087 F1000
G1 X79.276 Y15.585 Z0.046 F1000
G1 X79.247 Y15.585 Z0.012 F1000
G1 X79.209 Y15.585 Z-0.012 F1000
G1 X79.166 Y15.585 Z-0.025 F1000
G1 X78.978 Y15.585 Z-0.053 F1000
G1 X78.646 Y15.585 Z-0.148 F1000
G1 X78.500 Y15.585 Z-0.201 F1000
G1 X78.458 Y15.585 Z-0.210 F1000
G1 X78.416 Y15.585 Z-0.208 F1000
G1 X78.376 Y15.585 Z-0.195 F1000
G1 X78.342 Y15.585 Z-0.182 F1000
G1 X78.306 Y15.585 Z-0.178 F1000
G1 X78.263 Y15.592 Z-0.178 F1000
G1 X78.225 Y15.614 Z-0.178 F1000
G1 X78.197 Y15.648 Z-0.178 F1000
G1 X78.182 Y15.689 Z-0.178 F1000
G1 X78.182 Y15.733 Z-0.178 F1000
G1 X78.197 Y15.774 Z-0.178 F1000
G1 X78.225 Y15.807 Z-0.178 F1000
G1 X78.263 Y15.829 Z-0.178 F1000
G1 X78.306 Y15.837 Z-0.178 F1000
G1 X78.342 Y15.837 Z-0.182 F1000
G1 X78.376 Y15.837 Z-0.195 F1000
G1 X78.416 Y15.837 Z-0.208 F1000
G1 X78.458 Y15.837 Z-0.210 F1000
G1 X78.500 Y15.837 Z-0.201 F1000
G1 X78.646 Y15.837 Z-0.148 F1000
G1 X78.978 Y15.837 Z-0.053 F1000
G1 X79.166 Y15.837 Z-0.025 F1000
G1 X79.209 Y15.837 Z-0.012 F1000
G1 X79.247 Y15.837 Z0.012 F1000
G1 X79.276 Y15.837 Z0.046 F1000
G1 X79.295 Y15.837 Z0.087 F1000
G1 X79.301 Y15.837 Z0.132 F1000
G1 X79.301 Y15.844 Z0.175 F1000
G1 X79.301 Y15.866 Z0.213 F1000
G1 X79.301 Y15.900 Z0.241 F1000
G1 X79.301 Y15.941 Z0.256 F1000
G1 X79.301 Y15.985 Z0.256 F1000
G1 X79.301 Y16.026 Z0.241 F1000
G1 X79.301 Y16.059 Z0.213 F1000
G1 X79.301 Y16.081 Z0.175 F1000
G1 X79.301 Y16.089 Z0.132 F1000
G1 X79.295 Y16.089 Z0.087 F1000
G1 X79.276 Y16.089 Z0.046 F1000
G1 X79.247 Y16.089 Z0.012 F1000
G1 X79.209 Y16.089 Z-0.012 F1000
G1 X79.166 Y16.089 Z-0.025 F1000
G1 X78.978 Y16.089 Z-0.053 F1000
G1 X78.646 Y16.089 Z-0.148 F1000
G1 X78.500 Y16.089 Z-0.201 F1000
G1 X78.458 Y16.089 Z-0.210 F1000
G1 X78.416 Y16.089 Z-0.208 F1000
G1 X78.376 Y16.089 Z-0.195 F1000
G1 X78.342 Y16.089 Z-0.182 F1000
G1 X78.306 Y16.089 Z-0.178 F1000
G1 X78.263 Y16.096 Z-0.178 F1000
G1 X78.225 Y16.118 Z-0.178 F1000
G1 X78.197 Y16.152 Z-0.178 F1000
G1 X78.182 Y16.193 Z-0.178 F1000
G1 X78.182 Y16.237 Z-0.178 F1000
G1 X78.197 Y16.278 Z-0.178 F1000
G1 X78.225 Y16.311 Z-0.178 F1000
G1 X78.263 Y16.333 Z-0.178 F1000
G1 X78.306 Y16.341 Z-0.178 F1000
G1 X78.342 Y16.341 Z-0.182 F1000
G1 X78.376 Y16.341 Z-0.195 F1000
G1 X78.416 Y16.341 Z-0.208 F1000
G1 X78.458 Y16.341 Z-0.210 F1000
G1 X78.500 Y16.341 Z-0.201 F1000
G1 X78.646 Y16.341 Z-0.148 F1000
G1 X78.978 Y16.341 Z-0.053 F1000
G1 X79.166 Y16.341 Z-0.025 F1000
G1 X79.209 Y16.341 Z-0.012 F1000
G1 X79.247 Y16.341 Z0.012 F1000
G1 X79.276 Y16.341 Z0.046 F1000
G1 X79.295 Y16.341 Z0.087 F1000
G1 X79.301 Y16.341 Z0.132 F1000
G1 X79.301 Y16.348 Z0.175 F1000
G1 X79.301 Y16.370 Z0.213 F1000
G1 X79.301 Y16.404 Z0.241 F1000
G1 X79.301 Y16.445 Z0.256 F1000
G1 X79.301 Y16.489 Z0.256 F1000
G1 X79.301 Y16.530 Z0.241 F1000
G1 X79.301 Y16.563 Z0.213 F1000
G1 X79.301 Y16.585 Z0.175 F1000
G1 X79.301 Y16.593 Z0.132 F1000
G1 X79.295 Y16.593 Z0.087 F1000
G1 X79.276 Y16.593 Z0.046 F1000
G1 X79.247 Y16.593 Z0.012 F1000
G1 X79.209 Y16.593 Z-0.012 F1000
G1 X79.166 Y16.593 Z-0.025 F1000
G1 X78.978 Y16.593 Z-0.053 F1000
G1 X78.646 Y16.593 Z-0.148 F1000
G1 X78.500 Y16.593 Z-0.201 F1000
G1 X78.458 Y16.593 Z-0.210 F1000
G1 X78.416 Y16.593 Z-0.208 F1000
G1 X78.376 Y16.593 Z-0.195 F1000
G1 X78.342 Y16.593 Z-0.182 F1000
G1 X78.306 Y16.593 Z-0.178 F1000
G1 X78.263 Y16.600 Z-0.178 F1000
G1 X78.225 Y16.622 Z-0.178 F1000
G1 X78.197 Y16.656 Z-0.178 F1000
G1 X78.182 Y16.697 Z-0.178 F1000
G1 X78.182 Y16.741 Z-0.178 F1000
G1 X78.197 Y16.782 Z-0.178 F1000
G1 X78.225 Y16.815 Z-0.178 F1000
G1 X78.263 Y16.837 Z-0.178 F1000
G1 X78.306 Y16.845 Z-0.178 F1000
G1 X78.342 Y16.845 Z-0.182 F1000
G1 X78.376 Y16.845 Z-0.195 F1000
G1 X78.416 Y16.845 Z-0.208 F1000
G1 X78.458 Y16.845 Z-0.210 F1000
G1 X78.500 Y16.845 Z-0.201 F1000
G1 X78.646 Y16.845 Z-0.148 F1000
G1 X78.978 Y16.845 Z-0.053 F1000
G1 X79.166 Y16.845 Z-0.025 F1000
G1 X79.209 Y16.845 Z-0.012 F1000
G1 X79.247 Y16.845 Z0.012 F1000
G1 X79.276 Y16.845 Z0.046 F1000
G1 X79.295 Y16.845 Z0.087 F1000
G1 X79.301 Y16.845 Z0.132 F1000
G1 X79.301 Y16.852 Z0.175 F1000
G1 X79.301 Y16.874 Z0.213 F1000
G1 X79.301 Y16.908 Z0.241 F1000
G1 X79.301 Y16.949 Z0.256 F1000
G1 X79.301 Y16.993 Z0.256 F1000
G1 X79.301 Y17.034 Z0.241 F1000
G1 X79.301 Y17.067 Z0.213 F1000
G1 X79.301 Y17.089 Z0.175 F1000
G1 X79.301 Y17.097 Z0.132 F1000
G1 X79.295 Y17.097 Z0.087 F1000
G1 X79.276 Y17.097 Z0.046 F1000
G1 X79.247 Y17.097 Z0.012 F1000
G1 X79.209 Y17.097 Z-0.012 F1000
G1 X79.166 Y17.097 Z-0.025 F1000
G1 X78.978 Y17.097 Z-0.053 F1000
G1 X78.646 Y17.097 Z-0.148 F1000
G1 X78.500 Y17.097 Z-0.201 F1000
G1 X78.458 Y17.097 Z-0.210 F1000
G1 X78.416 Y17.097 Z-0.208 F1000
G1 X78.376 Y17.097 Z-0.195 F1000
G1 X78.342 Y17.097 Z-0.182 F1000
G1 X78.306 Y17.097 Z-0.178 F1000
G1 X78.263 Y17.104 Z-0.178 F1000
G1 X78.225 Y17.126 Z-0.178 F1000
G1 X78.197 Y17.160 Z-0.178 F1000
G1 X78.182 Y17.201 Z-0.178 F1000
G1 X78.182 Y17.245 Z-0.178 F1000
G1 X78.197 Y17.286 Z-0.178 F1000
G1 X78.225 Y17.319 Z-0.178 F1000
G1 X78.263 Y17.341 Z-0.178 F1000
G1 X78.306 Y17.349 Z-0.178 F1000
G1 X78.342 Y17.349 Z-0.182 F1000
G1 X78.376 Y17.349 Z-0.195 F1000
G1 X78.416 Y17.349 Z-0.208 F1000
G1 X78.458 Y17.349 Z-0.210 F1000
G1 X78.500 Y17.349 Z-0.201 F1000
G1 X78.646 Y17.349 Z-0.148 F1000
G1 X78.978 Y17.349 Z-0.053 F1000
G1 X79.166 Y17.349 Z-0.025 F1000
G1 X79.209 Y17.349 Z-0.012 F1000
G1 X79.247 Y17.349 Z0.012 F1000
G1 X79.276 Y17.349 Z0.046 F1000
G1 X79.295 Y17.349 Z0.087 F1000
G1 X79.301 Y17.349 Z0.132 F1000
G1 X79.301 Y17.356 Z0.175 F1000
G1 X79.301 Y17.378 Z0.213 F1000
G1 X79.301 Y17.412 Z0.241 F1000
G1 X79.301 Y17.453 Z0.256 F1000
G1 X79.301 Y17.497 Z0.256 F1000
G1 X79.301 Y17.538 Z0.241 F1000
G1 X79.301 Y17.571 Z0.213 F1000
G1 X79.301 Y17.593 Z0.175 F1000
G1 X79.301 Y17.601 Z0.132 F1000
G1 X79.295 Y17.601 Z0.087 F1000
G1 X79.276 Y17.601 Z0.046 F1000
G1 X79.247 Y17.601 Z0.012 F1000
G1 X79.209 Y17.601 Z-0.012 F1000
G1 X79.166 Y17.601 Z-0.025 F1000
G1 X78.978 Y17.601 Z-0.053 F1000
G1 X78.646 Y17.601 Z-0.148 F1000
G1 X78.500 Y17.601 Z-0.201 F1000
G1 X78.458 Y17.601 Z-0.210 F1000
G1 X78.416 Y17.601 Z-0.208 F1000
G1 X78.376 Y17.601 Z-0.195 F1000
G1 X78.342 Y17.601 Z-0.182 F1000
G1 X78.306 Y17.601 Z-0.178 F1000
G1 X78.263 Y17.608 Z-0.178 F1000
G1 X78.225 Y17.630 Z-0.178 F1000
G1 X78.197 Y17.664 Z-0.178 F1000
G1 X78.182 Y17.705 Z-0.178 F1000
G1 X78.182 Y17.749 Z-0.178 F1000
G1 X78.197 Y17.790 Z-0.178 F1000
G1 X78.225 Y17.823 Z-0.178 F1000
G1 X78.263 Y17.845 Z-0.178 F1000
G1 X78.306 Y17.853 Z-0.178 F1000
G1 X78.342 Y17.853 Z-0.182 F1000
G1 X78.376 Y17.853 Z-0.195 F1000
G1 X78.416 Y17.853 Z-0.208 F1000
G1 X78.458 Y17.853 Z-0.210 F1000
G1 X78.500 Y17.853 Z-0.201 F1000
G1 X78.646 Y17.853 Z-0.148 F1000
G1 X78.978 Y17.853 Z-0.053 F1000
G1 X79.166 Y17.853 Z-0.025 F1000
G1 X79.209 Y17.853 Z-0.012 F1000
G1 X79.247 Y17.853 Z0.012 F1000
G1 X79.276 Y17.853 Z0.046 F1000
G1 X79.295 Y17.853 Z0.087 F1000
G1 X79.301 Y17.853 Z0.132 F1000
G1 X79.301 Y17.860 Z0.175 F1000
G1 X79.301 Y17.882 Z0.213 F1000
G1 X79.301 Y17.916 Z0.241 F1000
G1 X79.301 Y17.957 Z0.256 F1000
G1 X79.301 Y18.001 Z0.256 F1000
G1 X79.301 Y18.042 Z0.241 F1000
G1 X79.301 Y18.075 Z0.213 F1000
G1 X79.301 Y18.097 Z0.175 F1000
G1 X79.301 Y18.105 Z0.132 F1000
G1 X79.295 Y18.105 Z0.087 F1000
G1 X79.276 Y18.105 Z0.046 F1000
G1 X79.247 Y18.105 Z0.012 F1000
G1 X79.209 Y18.105 Z-0.012 F1000
G1 X79.166 Y18.105 Z-0.025 F1000
G1 X78.978 Y18.105 Z-0.053 F1000
G1 X78.646 Y18.105 Z-0.148 F1000
G1 X78.500 Y18.105 Z-0.201 F1000
G1 X78.458 Y18.105 Z-0.210 F1000
G1 X78.416 Y18.105 Z-0.208 F1000
G1 X78.376 Y18.105 Z-0.195 F1000
G1 X78.342 Y18.105 Z-0.182 F1000
G1 X78.306 Y18.105 Z-0.178 F1000
G1 X78.263 Y18.112 Z-0.178 F1000
G1 X78.225 Y18.134 Z-0.178 F1000
G1 X78.197 Y18.168 Z-0.178 F1000
G1 X78.182 Y18.209 Z-0.178 F1000
G1 X78.182 Y18.253 Z-0.178 F1000
G1 X78.197 Y18.294 Z-0.178 F1000
G1 X78.225 Y18.327 Z-0.178 F1000
G1 X78.263 Y18.349 Z-0.178 F1000
G1 X78.306 Y18.357 Z-0.178 F1000
G1 X78.342 Y18.357 Z-0.182 F1000
G1 X78.376 Y18.357 Z-0.195 F1000
G1 X78.416 Y18.357 Z-0.208 F1000
G1 X78.458 Y18.357 Z-0.210 F1000
G1 X78.500 Y18.357 Z-0.201 F1000
G1 X78.646 Y18.357 Z-0.148 F1000
G1 X78.978 Y18.357 Z-0.053 F1000
G1 X79.166 Y18.357 Z-0.025 F1000
G1 X79.209 Y18.357 Z-0.012 F1000
G1 X79.247 Y18.357 Z0.012 F1000
G1 X79.276 Y18.357 Z0.046 F1000
G1 X79.295 Y18.357 Z0.087 F1000
G1 X79.301 Y18.357 Z0.132 F1000
G1 X79.301 Y18.364 Z0.175 F1000
G1 X79.301 Y18.386 Z0.213 F1000
G1 X79.301 Y18.420 Z0.241 F1000
G1 X79.301 Y18.461 Z0.256 F1000
G1 X79.301 Y18.505 Z0.256 F1000
G1 X79.301 Y18.546 Z0.241 F1000
G1 X79.301 Y18.579 Z0.213 F1000
G1 X79.301 Y18.601 Z0.175 F1000
G1 X79.301 Y18.609 Z0.132 F1000
G1 X79.295 Y18.609 Z0.087 F1000
G1 X79.276 Y18.609 Z0.046 F1000
G1 X79.247 Y18.609 Z0.012 F1000
G1 X79.209 Y18.609 Z-0.012 F1000
G1 X79.166 Y18.609 Z-0.025 F1000
G1 X78.978 Y18.609 Z-0.053 F1000
G1 X78.646 Y18.609 Z-0.148 F1000
G1 X78.500 Y18.609 Z-0.201 F1000
G1 X78.458 Y18.609 Z-0.210 F1000
G1 X78.416 Y18.609 Z-0.208 F1000
G1 X78.376 Y18.609 Z-0.195 F1000
G1 X78.342 Y18.609 Z-0.182 F1000
G1 X78.306 Y18.609 Z-0.178 F1000
G1 X78.263 Y18.616 Z-0.178 F1000
G1 X78.225 Y18.638 Z-0.178 F1000
G1 X78.197 Y18.672 Z-0.178 F1000
G1 X78.182 Y18.713 Z-0.178 F1000
G1 X78.182 Y18.757 Z-0.178 F1000
G1 X78.197 Y18.798 Z-0.178 F1000
G1 X78.225 Y18.831 Z-0.178 F1000
G1 X78.263 Y18.853 Z-0.178 F1000
G1 X78.306 Y18.861 Z-0.178 F1000
G1 X78.342 Y18.861 Z-0.182 F1000
G1 X78.376 Y18.861 Z-0.195 F1000
G1 X78.416 Y18.861 Z-0.208 F1000
G1 X78.458 Y18.861 Z-0.210 F1000
G1 X78.500 Y18.861 Z-0.201 F1000
G1 X78.646 Y18.861 Z-0.148 F1000
G1 X78.978 Y18.861 Z-0.053 F1000
G1 X79.166 Y18.861 Z-0.025 F1000
G1 X79.209 Y18.861 Z-0.012 F1000
G1 X79.247 Y18.861 Z0.012 F1000
G1 X79.276 Y18.861 Z0.046 F1000
G1 X79.295 Y18.861 Z0.087 F1000
G1 X79.301 Y18.861 Z0.132 F1000
G1 X79.301 Y18.868 Z0.175 F1000
G1 X79.301 Y18.890 Z0.213 F1000
G1 X79.301 Y18.924 Z0.241 F1000
G1 X79.301 Y18.965 Z0.256 F1000
G1 X79.301 Y19.009 Z0.256 F1000
G1 X79.301 Y19.050 Z0.241 F1000
G1 X79.301 Y19.083 Z0.213 F1000
G1 X79.301 Y19.105 Z0.175 F1000
G1 X79.301 Y19.113 Z0.132 F1000
G1 X79.295 Y19.113 Z0.087 F1000
G1 X79.276 Y19.113 Z0.046 F1000
G1 X79.247 Y19.113 Z0.012 F1000
G1 X79.209 Y19.113 Z-0.012 F1000
G1 X79.166 Y19.113 Z-0.025 F1000
G1 X78.978 Y19.113 Z-0.053 F1000
G1 X78.646 Y19.113 Z-0.148 F1000
G1 X78.500 Y19.113 Z-0.201 F1000
G1 X78.458 Y19.113 Z-0.210 F1000
G1 X78.416 Y19.113 Z-0.208 F1000
G1 X78.376 Y19.113 Z-0.195 F1000
G1 X78.342 Y19.113 Z-0.182 F1000
G1 X78.306 Y19.113 Z-0.178 F1000
G1 X78.263 Y19.120 Z-0.178 F1000
G1 X78.225 Y19.142 Z-0.178 F1000
G1 X78.197 Y19.176 Z-0.178 F1000
G1 X78.182 Y19.217 Z-0.178 F1000
G1 X78.182 Y19.261 Z-0.178 F1000
G1 X78.197 Y19.302 Z-0.178 F1000
G1 X78.225 Y19.335 Z-0.178 F1000
G1 X78.263 Y19.357 Z-0.178 F1000
G1 X78.306 Y19.365 Z-0.178 F1000
G1 X78.342 Y19.365 Z-0.182 F1000
G1 X78.376 Y19.365 Z-0.195 F1000
G1 X78.416 Y19.365 Z-0.208 F1000
G1 X78.458 Y19.365 Z-0.210 F1000
G1 X78.500 Y19.365 Z-0.201 F1000
G1 X78.646 Y19.365 Z-0.148 F1000
G1 X78.978 Y19.365 Z-0.053 F1000
G1 X79.166 Y19.365 Z-0.025 F1000
G1 X79.209 Y19.365 Z-0.012 F1000
G1 X79.247 Y19.365 Z0.012 F1000
G1 X79.276 Y19.365 Z0.046 F1000
G1 X79.295 Y19.365 Z0.087 F1000
G1 X79.301 Y19.365 Z0.132 F1000
G1 X79.301 Y19.372 Z0.175 F1000
G1 X79.301 Y19.394 Z0.213 F1000
G1 X79.301 Y19.428 Z0.241 F1000
G1 X79.301 Y19.469 Z0.256 F1000
G1 X79.301 Y19.513 Z0.256 F1000
G1 X79.301 Y19.554 Z0.241 F1000
G1 X79.301 Y19.587 Z0.213 F1000
G1 X79.301 Y19.609 Z0.175 F1000
G1 X79.301 Y19.617 Z0.132 F1000
G1 X79.295 Y19.617 Z0.087 F1000
G1 X79.276 Y19.617 Z0.046 F1000
G1 X79.247 Y19.617 Z0.012 F1000
G1 X79.209 Y19.617 Z-0.012 F1000
G1 X79.166 Y19.617 Z-0.025 F1000
G1 X78.978 Y19.617 Z-0.053 F1000
G1 X78.646 Y19.617 Z-0.148 F1000
G1 X78.500 Y19.617 Z-0.201 F1000
G1 X78.458 Y19.617 Z-0.210 F1000
G1 X78.416 Y19.617 Z-0.208 F1000
G1 X78.376 Y19.617 Z-0.195 F1000
G1 X78.342 Y19.617 Z-0.182 F1000
G1 X78.306 Y19.617 Z-0.178 F1000
G1 X78.263 Y19.624 Z-0.178 F1000
G1 X78.225 Y19.646 Z-0.178 F1000
G1 X78.197 Y19.680 Z-0.178 F1000
G1 X78.182 Y19.721 Z-0.178 F1000
G1 X78.182 Y19.765 Z-0.178 F1000
G1 X78.197 Y19.806 Z-0.178 F1000
G1 X78.225 Y19.839 Z-0.178 F1000
G1 X78.263 Y19.861 Z-0.178 F1000
G1 X78.306 Y19.869 Z-0.178 F1000
G1 X78.342 Y19.869 Z-0.182 F1000
G1 X78.376 Y19.869 Z-0.195 F1000
G1 X78.416 Y19.869 Z-0.208 F1000
G1 X78.458 Y19.869 Z-0.210 F1000
G1 X78.500 Y19.869 Z-0.201 F1000
G1 X78.646 Y19.869 Z-0.148 F1000
G1 X78.978 Y19.869 Z-0.053 F1000
G1 X79.166 Y19.869 Z-0.025 F1000
G1 X79.209 Y19.869 Z-0.012 F1000
G1 X79.247 Y19.869 Z0.012 F1000
G1 X79.276 Y19.869 Z0.046 F1000
G1 X79.295 Y19.869 Z0.087 F1000
G1 X79.301 Y19.869 Z0.132 F1000
G1 X79.301 Y19.876 Z0.175 F1000
G1 X79.301 Y19.898 Z0.213 F1000
G1 X79.301 Y19.932 Z0.241 F1000
G1 X79.301 Y19.973 Z0.256 F1000
G1 X79.301 Y20.017 Z0.256 F1000
G1 X79.301 Y20.058 Z0.241 F1000
G1 X79.301 Y20.091 Z0.213 F1000
G1 X79.301 Y20.113 Z0.175 F1000
G1 X79.301 Y20.121 Z0.132 F1000
G1 X79.295 Y20.121 Z0.087 F1000
G1 X79.276 Y20.121 Z0.046 F1000
G1 X79.247 Y20.121 Z0.012 F1000
G1 X79.209 Y20.121 Z-0.012 F1000
G1 X79.166 Y20.121 Z-0.025 F1000
G1 X78.978 Y20.121 Z-0.053 F1000
G1 X78.646 Y20.121 Z-0.148 F1000
G1 X78.500 Y20.121 Z-0.201 F1000
G1 X78.458 Y20.121 Z-0.210 F1000
G1 X78.416 Y20.121 Z-0.208 F1000
G1 X78.376 Y20.121 Z-0.195 F1000
G1 X78.342 Y20.121 Z-0.182 F1000
G1 X78.306 Y20.121 Z-0.178 F1000
G1 X78.263 Y20.128 Z-0.178 F1000
G1 X78.225 Y20.150 Z-0.178 F1000
G1 X78.197 Y20.184 Z-0.178 F1000
G1 X78.182 Y20.225 Z-0.178 F1000
G1 X78.182 Y20.269 Z-0.178 F1000
G1 X78.197 Y20.310 Z-0.178 F1000
G1 X78.225 Y20.343 Z-0.178 F1000
G1 X78.263 Y20.365 Z-0.178 F1000
G1 X78.306 Y20.373 Z-0.178 F1000
G1 X78.342 Y20.373 Z-0.182 F1000
G1 X78.376 Y20.373 Z-0.195 F1000
G1 X78.416 Y20.373 Z-0.208 F1000
G1 X78.458 Y20.373 Z-0.210 F1000
G1 X78.500 Y20.373 Z-0.201 F1000
G1 X78.646 Y20.373 Z-0.148 F1000
G1 X78.978 Y20.373 Z-0.053 F1000
G1 X79.166 Y20.373 Z-0.025 F1000
G1 X79.209 Y20.373 Z-0.012 F1000
G1 X79.247 Y20.373 Z0.012 F1000
G1 X79.276 Y20.373 Z0.046 F1000
G1 X79.295 Y20.373 Z0.087 F1000
G1 X79.301 Y20.373 Z0.132 F1000
G1 X79.301 Y20.380 Z0.175 F1000
G1 X79.301 Y20.402 Z0.213 F1000
G1 X79.301 Y20.436 Z0.241 F1000
G1 X79.301 Y20.477 Z0.256 F1000
G1 X79.301 Y20.521 Z0.256 F1000
G1 X79.301 Y20.562 Z0.241 F1000
G1 X79.301 Y20.595 Z0.213 F1000
G1 X79.301 Y20.617 Z0.175 F1000
G1 X79.301 Y20.625 Z0.132 F1000
G1 X79.295 Y20.625 Z0.087 F1000
G1 X79.276 Y20.625 Z0.046 F1000
G1 X79.247 Y20.625 Z0.012 F1000
G1 X79.209 Y20.625 Z-0.012 F1000
G1 X79.166 Y20.625 Z-0.025 F1000
G1 X78.978 Y20.625 Z-0.053 F1000
G1 X78.646 Y20.625 Z-0.148 F1000
G1 X78.500 Y20.625 Z-0.201 F1000
G1 X78.458 Y20.625 Z-0.210 F1000
G1 X78.416 Y20.625 Z-0.208 F1000
G1 X78.376 Y20.625 Z-0.195 F1000
G1 X78.342 Y20.625 Z-0.182 F1000
G1 X78.306 Y20.625 Z-0.178 F1000
G1 X78.263 Y20.632 Z-0.178 F1000
G1 X78.225 Y20.654 Z-0.178 F1000
G1 X78.197 Y20.688 Z-0.178 F1000
G1 X78.182 Y20.729 Z-0.178 F1000
G1 X78.182 Y20.773 Z-0.178 F1000
G1 X78.197 Y20.814 Z-0.178 F1000
G1 X78.225 Y20.847 Z-0.178 F1000
G1 X78.263 Y20.869 Z-0.178 F1000
G1 X78.306 Y20.877 Z-0.178 F1000
G1 X78.342 Y20.877 Z-0.182 F1000
G1 X78.376 Y20.877 Z-0.195 F1000
G1 X78.416 Y20.877 Z-0.208 F1000
G1 X78.458 Y20.877 Z-0.210 F1000
G1 X78.500 Y20.877 Z-0.201 F1000
G1 X78.646 Y20.877 Z-0.148 F1000
G1 X78.978 Y20.877 Z-0.053 F1000
G1 X79.166 Y20.877 Z-0.025 F1000
G1 X79.209 Y20.877 Z-0.012 F1000
G1 X79.247 Y20.877 Z0.012 F1000
G1 X79.276 Y20.877 Z0.046 F1000
G1 X79.295 Y20.877 Z0.087 F1000
G1 X79.301 Y20.877 Z0.132 F1000
G1 X79.301 Y20.884 Z0.175 F1000
G1 X79.301 Y20.906 Z0.213 F1000
G1 X79.301 Y20.940 Z0.241 F1000
G1 X79.301 Y20.981 Z0.256 F1000
G1 X79.301 Y21.025 Z0.256 F1000
G1 X79.301 Y21.066 Z0.241 F1000
G1 X79.301 Y21.099 Z0.213 F1000
G1 X79.301 Y21.121 Z0.175 F1000
G1 X79.301 Y21.129 Z0.132 F1000
G1 X79.295 Y21.129 Z0.087 F1000
G1 X79.276 Y21.129 Z0.046 F1000
G1 X79.247 Y21.129 Z0.012 F1000
G1 X79.209 Y21.129 Z-0.012 F1000
G1 X79.166 Y21.129 Z-0.025 F1000
G1 X78.978 Y21.129 Z-0.053 F1000
G1 X78.646 Y21.129 Z-0.148 F1000
G1 X78.500 Y21.129 Z-0.201 F1000
G1 X78.458 Y21.129 Z-0.210 F1000
G1 X78.416 Y21.129 Z-0.208 F1000
G1 X78.376 Y21.129 Z-0.195 F1000
G1 X78.342 Y21.129 Z-0.182 F1000
G1 X78.306 Y21.129 Z-0.178 F1000
G1 X78.263 Y21.136 Z-0.178 F1000
G1 X78.225 Y21.158 Z-0.178 F1000
G1 X78.197 Y21.192 Z-0.178 F1000
G1 X78.182 Y21.233 Z-0.178 F1000
G1 X78.182 Y21.276 Z-0.178 F1000
G1 X78.197 Y21.318 Z-0.178 F1000
G1 X78.225 Y21.351 Z-0.178 F1000
G1 X78.263 Y21.373 Z-0.178 F1000
G1 X78.306 Y21.381 Z-0.178 F1000
G1 X78.342 Y21.381 Z-0.182 F1000
G1 X78.376 Y21.381 Z-0.195 F1000
G1 X78.416 Y21.381 Z-0.208 F1000
G1 X78.458 Y21.381 Z-0.210 F1000
G1 X78.500 Y21.381 Z-0.201 F1000
G1 X78.646 Y21.381 Z-0.148 F1000
G1 X78.978 Y21.381 Z-0.053 F1000
G1 X79.166 Y21.381 Z-0.025 F1000
G1 X79.209 Y21.381 Z-0.012 F1000
G1 X79.247 Y21.381 Z0.012 F1000
G1 X79.276 Y21.381 Z0.046 F1000
G1 X79.295 Y21.381 Z0.087 F1000
G1 X79.301 Y21.381 Z0.132 F1000
G1 X79.301 Y21.388 Z0.175 F1000
G1 X79.301 Y21.410 Z0.213 F1000
G1 X79.301 Y21.444 Z0.241 F1000
G1 X79.301 Y21.485 Z0.256 F1000
G1 X79.301 Y21.528 Z0.256 F1000
G1 X79.301 Y21.570 Z0.241 F1000
G1 X79.301 Y21.603 Z0.213 F1000
G1 X79.301 Y21.625 Z0.175 F1000
G1 X79.301 Y21.633 Z0.132 F1000
G1 X79.295 Y21.633 Z0.087 F1000
G1 X79.276 Y21.633 Z0.046 F1000
G1 X79.247 Y21.633 Z0.012 F1000
G1 X79.209 Y21.633 Z-0.012 F1000
G1 X79.166 Y21.633 Z-0.025 F1000
G1 X78.978 Y21.633 Z-0.053 F1000
G1 X78.646 Y21.633 Z-0.148 F1000
G1 X78.500 Y21.633 Z-0.201 F1000
G1 X78.458 Y21.633 Z-0.210 F1000
G1 X78.416 Y21.633 Z-0.208 F1000
G1 X78.376 Y21.633 Z-0.195 F1000
G1 X78.342 Y21.633 Z-0.182 F1000
G1 X78.306 Y21.633 Z-0.178 F1000
G1 X78.263 Y21.640 Z-0.178 F1000
G1 X78.225 Y21.662 Z-0.178 F1000
G1 X78.197 Y21.696 Z-0.178 F1000
G1 X78.182 Y21.737 Z-0.178 F1000
G1 X78.182 Y21.780 Z-0.178 F1000
G1 X78.197 Y21.822 Z-0.178 F1000
G1 X78.225 Y21.855 Z-0.178 F1000
G1 X78.263 Y21.877 Z-0.178 F1000
G1 X78.306 Y21.885 Z-0.178 F1000
G1 X78.342 Y21.885 Z-0.182 F1000
G1 X78.376 Y21.885 Z-0.195 F1000
G1 X78.416 Y21.885 Z-0.208 F1000
G1 X78.458 Y21.885 Z-0.210 F1000
G1 X78.500 Y21.885 Z-0.201 F1000
G1 X78.646 Y21.885 Z-0.148 F1000
G1 X78.978 Y21.885 Z-0.053 F1000
G1 X79.166 Y21.885 Z-0.025 F1000
G1 X79.209 Y21.885 Z-0.012 F1000
G1 X79.247 Y21.885 Z0.012 F1000
G1 X79.276 Y21.885 Z0.046 F1000
G1 X79.295 Y21.885 Z0.087 F1000
G1 X79.301 Y21.885 Z0.132 F1000
G1 X79.301 Y21.892 Z0.175 F1000
G1 X79.301 Y21.914 Z0.213 F1000
G1 X79.301 Y21.948 Z0.241 F1000
G1 X79.301 Y21.989 Z0.256 F1000
G1 X79.301 Y22.032 Z0.256 F1000
G1 X79.301 Y22.074 Z0.241 F1000
G1 X79.301 Y22.107 Z0.213 F1000
G1 X79.301 Y22.129 Z0.175 F1000
G1 X79.301 Y22.137 Z0.132 F1000
G1 X79.295 Y22.137 Z0.087 F1000
G1 X79.276 Y22.137 Z0.046 F1000
G1 X79.247 Y22.137 Z0.012 F1000
G1 X79.209 Y22.137 Z-0.012 F1000
G1 X79.166 Y22.137 Z-0.025 F1000
G1 X78.978 Y22.137 Z-0.053 F1000
G1 X78.646 Y22.137 Z-0.148 F1000
G1 X78.500 Y22.137 Z-0.201 F1000
G1 X78.458 Y22.137 Z-0.210 F1000
G1 X78.416 Y22.137 Z-0.208 F1000
G1 X78.376 Y22.137 Z-0.195 F1000
G1 X78.342 Y22.137 Z-0.182 F1000
G1 X78.306 Y22.137 Z-0.178 F1000
G1 X78.263 Y22.144 Z-0.178 F1000
G1 X78.225 Y22.166 Z-0.178 F1000
G1 X78.197 Y22.200 Z-0.178 F1000
G1 X78.182 Y22.241 Z-0.178 F1000
G1 X78.182 Y22.284 Z-0.178 F1000
G1 X78.197 Y22.326 Z-0.178 F1000
G1 X78.225 Y22.359 Z-0.178 F1000
G1 X78.263 Y22.381 Z-0.178 F1000
G1 X78.306 Y22.389 Z-0.178 F1000
G1 X78.342 Y22.389 Z-0.182 F1000
G1 X78.376 Y22.389 Z-0.195 F1000
G1 X78.416 Y22.389 Z-0.208 F1000
G1 X78.458 Y22.389 Z-0.210 F1000
G1 X78.500 Y22.389 Z-0.201 F1000
G1 X78.646 Y22.389 Z-0.148 F1000
G1 X78.978 Y22.389 Z-0.053 F1000
G1 X79.166 Y22.389 Z-0.025 F1000
G1 X79.209 Y22.389 Z-0.012 F1000
G1 X79.247 Y22.389 Z0.012 F1000
G1 X79.276 Y22.389 Z0.046 F1000
G1 X79.295 Y22.389 Z0.087 F1000
G1 X79.301 Y22.389 Z0.132 F1000
G1 X79.301 Y22.396 Z0.175 F1000
G1 X79.301 Y22.418 Z0.213 F1000
G1 X79.301 Y22.452 Z0.241 F1000
G1 X79.301 Y22.493 Z0.256 F1000
G1 X79.301 Y22.536 Z0.256 F1000
G1 X79.301 Y22.578 Z0.241 F1000
G1 X79.301 Y22.611 Z0.213 F1000
G1 X79.301 Y22.633 Z0.175 F1000
G1 X79.301 Y22.641 Z0.132 F1000
G1 X79.295 Y22.641 Z0.087 F1000
G1 X79.276 Y22.641 Z0.046 F1000
G1 X79.247 Y22.641 Z0.012 F1000
G1 X79.209 Y22.641 Z-0.012 F1000
G1 X79.166 Y22.641 Z-0.025 F1000
G1 X78.978 Y22.641 Z-0.053 F1000
G1 X78.646 Y22.641 Z-0.148 F1000
G1 X78.500 Y22.641 Z-0.201 F1000
G1 X78.458 Y22.641 Z-0.210 F1000
G1 X78.416 Y22.641 Z-0.208 F1000
G1 X78.376 Y22.641 Z-0.195 F1000
G1 X78.342 Y22.641 Z-0.182 F1000
G1 X78.306 Y22.641 Z-0.178 F1000
G1 X78.263 Y22.648 Z-0.178 F1000
G1 X78.225 Y22.670 Z-0.178 F1000
G1 X78.197 Y22.704 Z-0.178 F1000
G1 X78.182 Y22.745 Z-0.178 F1000
G1 X78.182 Y22.788 Z-0.178 F1000
G1 X78.197 Y22.830 Z-0.178 F1000
G1 X78.225 Y22.863 Z-0.178 F1000
G1 X78.263 Y22.885 Z-0.178 F1000
G1 X78.306 Y22.893 Z-0.178 F1000
G1 X78.342 Y22.893 Z-0.182 F1000
G1 X78.376 Y22.893 Z-0.195 F1000
G1 X78.416 Y22.893 Z-0.208 F1000
G1 X78.458 Y22.893 Z-0.210 F1000
G1 X78.500 Y22.893 Z-0.201 F1000
G1 X78.646 Y22.893 Z-0.148 F1000
G1 X78.978 Y22.893 Z-0.053 F1000
G1 X79.166 Y22.893 Z-0.025 F1000
G1 X79.209 Y22.893 Z-0.012 F1000
G1 X79.247 Y22.893 Z0.012 F1000
G1 X79.276 Y22.893 Z0.046 F1000
G1 X79.295 Y22.893 Z0.087 F1000
G1 X79.301 Y22.893 Z0.132 F1000
G1 X79.301 Y22.900 Z0.175 F1000
G1 X79.301 Y22.922 Z0.213 F1000
G1 X79.301 Y22.956 Z0.241 F1000
G1 X79.301 Y22.997 Z0.256 F1000
G1 X79.301 Y23.040 Z0.256 F1000
G1 X79.301 Y23.082 Z0.241 F1000
G1 X79.301 Y23.115 Z0.213 F1000
G1 X79.301 Y23.137 Z0.175 F1000
G1 X79.301 Y23.145 Z0.132 F1000
G1 X79.295 Y23.145 Z0.087 F1000
G1 X79.276 Y23.145 Z0.046 F1000
G1 X79.247 Y23.145 Z0.012 F1000
G1 X79.209 Y23.145 Z-0.012 F1000
G1 X79.166 Y23.145 Z-0.025 F1000
G1 X78.978 Y23.145 Z-0.053 F1000
G1 X78.646 Y23.145 Z-0.148 F1000
G1 X78.500 Y23.145 Z-0.201 F1000
G1 X78.458 Y23.145 Z-0.210 F1000
G1 X78.416 Y23.145 Z-0.208 F1000
G1 X78.376 Y23.145 Z-0.195 F1000
G1 X78.342 Y23.145 Z-0.182 F1000
G1 X78.306 Y23.145 Z-0.178 F1000
G1 X78.263 Y23.152 Z-0.178 F1000
G1 X78.225 Y23.174 Z-0.178 F1000
G1 X78.197 Y23.208 Z-0.178 F1000
G1 X78.182 Y23.249 Z-0.178 F1000
G1 X78.182 Y23.292 Z-0.178 F1000
G1 X78.197 Y23.334 Z-0.178 F1000
G1 X78.225 Y23.367 Z-0.178 F1000
G1 X78.263 Y23.389 Z-0.178 F1000
G1 X78.306 Y23.397 Z-0.178 F1000
G1 X78.342 Y23.397 Z-0.182 F1000
G1 X78.376 Y23.397 Z-0.195 F1000
G1 X78.416 Y23.397 Z-0.208 F1000
G1 X78.458 Y23.397 Z-0.210 F1000
G1 X78.500 Y23.397 Z-0.201 F1000
G1 X78.646 Y23.397 Z-0.148 F1000
G1 X78.978 Y23.397 Z-0.053 F1000
G1 X79.166 Y23.397 Z-0.025 F1000
G1 X79.209 Y23.397 Z-0.012 F1000
G1 X79.247 Y23.397 Z0.012 F1000
G1 X79.276 Y23.397 Z0.046 F1000
G1 X79.295 Y23.397 Z0.087 F1000
G1 X79.301 Y23.397 Z0.132 F1000
G1 X79.301 Y23.404 Z0.175 F1000
G1 X79.301 Y23.426 Z0.213 F1000
G1 X79.301 Y23.460 Z0.241 F1000
G1 X79.301 Y23.501 Z0.256 F1000
G1 X79.301 Y23.544 Z0.256 F1000
G1 X79.301 Y23.586 Z0.241 F1000
G1 X79.301 Y23.619 Z0.213 F1000
G1 X79.301 Y23.641 Z0.175 F1000
G1 X79.301 Y23.649 Z0.132 F1000
G1 X79.295 Y23.649 Z0.087 F1000
G1 X79.276 Y23.649 Z0.046 F1000
G1 X79.247 Y23.649 Z0.012 F1000
G1 X79.209 Y23.649 Z-0.012 F1000
G1 X79.166 Y23.649 Z-0.025 F1000
G1 X78.978 Y23.649 Z-0.053 F1000
G1 X78.646 Y23.649 Z-0.148 F1000
G1 X78.500 Y23.649 Z-0.201 F1000
G1 X78.458 Y23.649 Z-0.210 F1000
G1 X78.416 Y23.649 Z-0.208 F1000
G1 X78.376 Y23.649 Z-0.195 F1000
G1 X78.342 Y23.649 Z-0.182 F1000
G1 X78.306 Y23.649 Z-0.178 F1000
G1 X78.263 Y23.656 Z-0.178 F1000
G1 X78.225 Y23.678 Z-0.178 F1000
G1 X78.197 Y23.712 Z-0.178 F1000
G1 X78.182 Y23.753 Z-0.178 F1000
G1 X78.182 Y23.796 Z-0.178 F1000
G1 X78.197 Y23.838 Z-0.178 F1000
G1 X78.225 Y23.871 Z-0.178 F1000
G1 X78.263 Y23.893 Z-0.178 F1000
G1 X78.306 Y23.901 Z-0.178 F1000
G1 X78.342 Y23.901 Z-0.182 F1000
G1 X78.376 Y23.901 Z-0.195 F1000
G1 X78.416 Y23.901 Z-0.208 F1000
G1 X78.458 Y23.901 Z-0.210 F1000
G1 X78.500 Y23.901 Z-0.201 F1000
G1 X78.646 Y23.901 Z-0.148 F1000
G1 X78.978 Y23.901 Z-0.053 F1000
G1 X79.166 Y23.901 Z-0.025 F1000
G1 X79.209 Y23.901 Z-0.012 F1000
G1 X79.247 Y23.901 Z0.012 F1000
G1 X79.276 Y23.901 Z0.046 F1000
G1 X79.295 Y23.901 Z0.087 F1000
G1 X79.301 Y23.901 Z0.132 F1000
G1 X79.301 Y23.908 Z0.175 F1000
G1 X79.301 Y23.930 Z0.213 F1000
G1 X79.301 Y23.964 Z0.241 F1000
G1 X79.301 Y24.005 Z0.256 F1000
G1 X79.301 Y24.048 Z0.256 F1000
G1 X79.301 Y24.090 Z0.241 F1000
G1 X79.301 Y24.123 Z0.213 F1000
G1 X79.301 Y24.145 Z0.175 F1000
G1 X79.301 Y24.153 Z0.132 F1000
G1 X79.295 Y24.153 Z0.087 F1000
G1 X79.276 Y24.153 Z0.046 F1000
G1 X79.247 Y24.153 Z0.012 F1000
G1 X79.209 Y24.153 Z-0.012 F1000
G1 X79.166 Y24.153 Z-0.025 F1000
G1 X78.978 Y24.153 Z-0.053 F1000
G1 X78.646 Y24.153 Z-0.148 F1000
G1 X78.500 Y24.153 Z-0.201 F1000
G1 X78.458 Y24.153 Z-0.210 F1000
G1 X78.416 Y24.153 Z-0.208 F1000
G1 X78.376 Y24.153 Z-0.195 F1000
G1 X78.342 Y24.153 Z-0.182 F1000
G1 X78.306 Y24.153 Z-0.178 F1000
G1 X78.263 Y24.160 Z-0.178 F1000
G1 X78.225 Y24.182 Z-0.178 F1000
G1 X78.197 Y24.215 Z-0.178 F1000
G1 X78.182 Y24.257 Z-0.178 F1000
G1 X78.182 Y24.300 Z-0.178 F1000
G1 X78.197 Y24.341 Z-0.178 F1000
G1 X78.225 Y24.375 Z-0.178 F1000
G1 X78.263 Y24.397 Z-0.178 F1000
G1 X78.306 Y24.404 Z-0.178 F1000
G1 X78.342 Y24.404 Z-0.182 F1000
G1 X78.376 Y24.404 Z-0.195 F1000
G1 X78.416 Y24.404 Z-0.208 F1000
G1 X78.458 Y24.404 Z-0.210 F1000
G1 X78.500 Y24.404 Z-0.201 F1000
G1 X78.646 Y24.404 Z-0.148 F1000
G1 X78.978 Y24.404 Z-0.053 F1000
G1 X79.166 Y24.404 Z-0.025 F1000
G1 X79.209 Y24.404 Z-0.012 F1000
G1 X79.247 Y24.404 Z0.012 F1000
G1 X79.276 Y24.404 Z0.046 F1000
G1 X79.295 Y24.404 Z0.087 F1000
G1 X79.301 Y24.404 Z0.132 F1000
G1 X79.301 Y24.412 Z0.175 F1000
G1 X79.301 Y24.434 Z0.213 F1000
G1 X79.301 Y24.467 Z0.241 F1000
G1 X79.301 Y24.509 Z0.256 F1000
G1 X79.301 Y24.552 Z0.256 F1000
G1 X79.301 Y24.593 Z0.241 F1000
G1 X79.301 Y24.627 Z0.213 F1000
G1 X79.301 Y24.649 Z0.175 F1000
G1 X79.301 Y24.656 Z0.132 F1000
G1 X79.295 Y24.656 Z0.087 F1000
G1 X79.276 Y24.656 Z0.046 F1000
G1 X79.247 Y24.656 Z0.012 F1000
G1 X79.209 Y24.656 Z-0.012 F1000
G1 X79.166 Y24.656 Z-0.025 F1000
G1 X78.978 Y24.656 Z-0.053 F1000
G1 X78.646 Y24.656 Z-0.148 F1000
G1 X78.500 Y24.656 Z-0.201 F1000
G1 X78.458 Y24.656 Z-0.210 F1000
G1 X78.416 Y24.656 Z-0.208 F1000
G1 X78.376 Y24.656 Z-0.195 F1000
G1 X78.342 Y24.656 Z-0.182 F1000
G1 X78.306 Y24.656 Z-0.178 F1000
G1 X78.263 Y24.664 Z-0.178 F1000
G1 X78.225 Y24.686 Z-0.178 F1000
G1 X78.197 Y24.719 Z-0.178 F1000
G1 X78.182 Y24.761 Z-0.178 F1000
G1 X78.182 Y24.804 Z-0.178 F1000
G1 X78.197 Y24.845 Z-0.178 F1000
G1 X78.225 Y24.879 Z-0.178 F1000
G1 X78.263 Y24.901 Z-0.178 F1000
G1 X78.306 Y24.908 Z-0.178 F1000
G1 X78.342 Y24.908 Z-0.182 F1000
G1 X78.376 Y24.908 Z-0.195 F1000
G1 X78.416 Y24.908 Z-0.208 F1000
G1 X78.458 Y24.908 Z-0.210 F1000
G1 X78.500 Y24.908 Z-0.201 F1000
G1 X78.646 Y24.908 Z-0.148 F1000
G1 X78.978 Y24.908 Z-0.053 F1000
G1 X79.166 Y24.908 Z-0.025 F1000
G1 X79.209 Y24.908 Z-0.012 F1000
G1 X79.247 Y24.908 Z0.012 F1000
G1 X79.276 Y24.908 Z0.046 F1000
G1 X79.295 Y24.908 Z0.087 F1000
G1 X79.301 Y24.908 Z0.132 F1000
G1 X79.301 Y24.916 Z0.175 F1000
G1 X79.301 Y24.938 Z0.213 F1000
G1 X79.301 Y24.971 Z0.241 F1000
G1 X79.301 Y25.013 Z0.256 F1000
G1 X79.301 Y25.056 Z0.256 F1000
G1 X79.301 Y25.097 Z0.241 F1000
G1 X79.301 Y25.131 Z0.213 F1000
G1 X79.301 Y25.153 Z0.175 F1000
G1 X79.301 Y25.160 Z0.132 F1000
G1 X79.295 Y25.160 Z0.087 F1000
G1 X79.276 Y25.160 Z0.046 F1000
G1 X79.247 Y25.160 Z0.012 F1000
G1 X79.209 Y25.160 Z-0.012 F1000
G1 X79.166 Y25.160 Z-0.025 F1000
G1 X78.978 Y25.160 Z-0.053 F1000
G1 X78.646 Y25.160 Z-0.148 F1000
G1 X78.500 Y25.160 Z-0.201 F1000
G1 X78.458 Y25.160 Z-0.210 F1000
G1 X78.416 Y25.160 Z-0.208 F1000
G1 X78.376 Y25.160 Z-0.195 F1000
G1 X78.342 Y25.160 Z-0.182 F1000
G1 X78.306 Y25.160 Z-0.178 F1000
G1 X78.263 Y25.168 Z-0.178 F1000
G1 X78.225 Y25.190 Z-0.178 F1000
G1 X78.197 Y25.223 Z-0.178 F1000
G1 X78.182 Y25.265 Z-0.178 F1000
G1 X78.182 Y25.308 Z-0.178 F1000
G1 X78.197 Y25.349 Z-0.178 F1000
G1 X78.225 Y25.383 Z-0.178 F1000
G1 X78.263 Y25.405 Z-0.178 F1000
G1 X78.306 Y25.412 Z-0.178 F1000
G1 X78.342 Y25.412 Z-0.182 F1000
G1 X78.376 Y25.412 Z-0.195 F1000
G1 X78.416 Y25.412 Z-0.208 F1000
G1 X78.458 Y25.412 Z-0.210 F1000
G1 X78.500 Y25.412 Z-0.201 F1000
G1 X78.646 Y25.412 Z-0.148 F1000
G1 X78.978 Y25.412 Z-0.053 F1000
G1 X79.166 Y25.412 Z-0.025 F1000
G1 X79.209 Y25.412 Z-0.012 F1000
G1 X79.247 Y25.412 Z0.012 F1000
G1 X79.276 Y25.412 Z0.046 F1000
G1 X79.295 Y25.412 Z0.087 F1000
G1 X79.301 Y25.412 Z0.132 F1000
G1 X79.301 Y25.420 Z0.175 F1000
G1 X79.301 Y25.442 Z0.213 F1000
G1 X79.301 Y25.475 Z0.241 F1000
G1 X79.301 Y25.517 Z0.256 F1000
G1 X79.301 Y25.560 Z0.256 F1000
G1 X79.301 Y25.601 Z0.241 F1000
G1 X79.301 Y25.635 Z0.213 F1000
G1 X79.301 Y25.657 Z0.175 F1000
G1 X79.301 Y25.664 Z0.132 F1000
G1 X79.295 Y25.664 Z0.087 F1000
G1 X79.276 Y25.664 Z0.046 F1000
G1 X79.247 Y25.664 Z0.012 F1000
G1 X79.209 Y25.664 Z-0.012 F1000
G1 X79.166 Y25.664 Z-0.025 F1000
G1 X78.978 Y25.664 Z-0.053 F1000
G1 X78.646 Y25.664 Z-0.148 F1000
G1 X78.500 Y25.664 Z-0.201 F1000
G1 X78.458 Y25.664 Z-0.210 F1000
G1 X78.416 Y25.664 Z-0.208 F1000
G1 X78.376 Y25.664 Z-0.195 F1000
G1 X78.342 Y25.664 Z-0.182 F1000
G1 X78.306 Y25.664 Z-0.178 F1000
G1 X78.263 Y25.672 Z-0.178 F1000
G1 X78.225 Y25.694 Z-0.178 F1000
G1 X78.197 Y25.727 Z-0.178 F1000
G1 X78.182 Y25.769 Z-0.178 F1000
G1 X78.182 Y25.812 Z-0.178 F1000
G1 X78.197 Y25.853 Z-0.178 F1000
G1 X78.225 Y25.887 Z-0.178 F1000
G1 X78.263 Y25.909 Z-0.178 F1000
G1 X78.306 Y25.916 Z-0.178 F1000
G1 X78.342 Y25.916 Z-0.182 F1000
G1 X78.376 Y25.916 Z-0.195 F1000
G1 X78.416 Y25.916 Z-0.208 F1000
G1 X78.458 Y25.916 Z-0.210 F1000
G1 X78.500 Y25.916 Z-0.201 F1000
G1 X78.646 Y25.916 Z-0.148 F1000
G1 X78.978 Y25.916 Z-0.053 F1000
G1 X79.166 Y25.916 Z-0.025 F1000
G1 X79.209 Y25.916 Z-0.012 F1000
G1 X79.247 Y25.916 Z0.012 F1000
G1 X79.276 Y25.916 Z0.046 F1000
G1 X79.295 Y25.916 Z0.087 F1000
G1 X79.301 Y25.916 Z0.132 F1000
G1 X79.301 Y25.924 Z0.175 F1000
G1 X79.301 Y25.946 Z0.213 F1000
G1 X79.301 Y25.979 Z0.241 F1000
G1 X79.301 Y26.021 Z0.256 F1000
G1 X79.301 Y26.064 Z0.256 F1000
G1 X79.301 Y26.105 Z0.241 F1000
G1 X79.301 Y26.139 Z0.213 F1000
G1 X79.301 Y26.161 Z0.175 F1000
G1 X79.301 Y26.168 Z0.132 F1000
G1 X79.295 Y26.168 Z0.087 F1000
G1 X79.276 Y26.168 Z0.046 F1000
G1 X79.247 Y26.168 Z0.012 F1000
G1 X79.209 Y26.168 Z-0.012 F1000
G1 X79.166 Y26.168 Z-0.025 F1000
G1 X78.978 Y26.168 Z-0.053 F1000
G1 X78.646 Y26.168 Z-0.148 F1000
G1 X78.500 Y26.168 Z-0.201 F1000
G1 X78.458 Y26.168 Z-0.210 F1000
G1 X78.416 Y26.168 Z-0.208 F1000
G1 X78.376 Y26.168 Z-0.195 F1000
G1 X78.342 Y26.168 Z-0.182 F1000
G1 X78.306 Y26.168 Z-0.178 F1000
G1 X78.263 Y26.176 Z-0.178 F1000
G1 X78.225 Y26.198 Z-0.178 F1000
G1 X78.197 Y26.231 Z-0.178 F1000
G1 X78.182 Y26.273 Z-0.178 F1000
G1 X78.182 Y26.316 Z-0.178 F1000
G1 X78.197 Y26.357 Z-0.178 F1000
G1 X78.225 Y26.391 Z-0.178 F1000
G1 X78.263 Y26.413 Z-0.178 F1000
G1 X78.306 Y26.420 Z-0.178 F1000
G1 X78.342 Y26.420 Z-0.182 F1000
G1 X78.376 Y26.420 Z-0.195 F1000
G1 X78.416 Y26.420 Z-0.208 F1000
G1 X78.458 Y26.420 Z-0.210 F1000
G1 X78.500 Y26.420 Z-0.201 F1000
G1 X78.646 Y26.420 Z-0.148 F1000
G1 X78.978 Y26.420 Z-0.053 F1000
G1 X79.166 Y26.420 Z-0.025 F1000
G1 X79.209 Y26.420 Z-0.012 F1000
G1 X79.247 Y26.420 Z0.012 F1000
G1 X79.276 Y26.420 Z0.046 F1000
G1 X79.295 Y26.420 Z0.087 F1000
G1 X79.301 Y26.420 Z0.132 F1000
G1 X79.301 Y26.428 Z0.175 F1000
G1 X79.301 Y26.450 Z0.213 F1000
G1 X79.301 Y26.483 Z0.241 F1000
G1 X79.301 Y26.525 Z0.256 F1000
G1 X79.301 Y26.568 Z0.256 F1000
G1 X79.301 Y26.609 Z0.241 F1000
G1 X79.301 Y26.643 Z0.213 F1000
G1 X79.301 Y26.665 Z0.175 F1000
G1 X79.301 Y26.672 Z0.132 F1000
G1 X79.295 Y26.672 Z0.087 F1000
G1 X79.276 Y26.672 Z0.046 F1000
G1 X79.247 Y26.672 Z0.012 F1000
G1 X79.209 Y26.672 Z-0.012 F1000
G1 X79.166 Y26.672 Z-0.025 F1000
G1 X78.978 Y26.672 Z-0.053 F1000
G1 X78.646 Y26.672 Z-0.148 F1000
G1 X78.500 Y26.672 Z-0.201 F1000
G1 X78.458 Y26.672 Z-0.210 F1000
G1 X78.416 Y26.672 Z-0.208 F1000
G1 X78.376 Y26.672 Z-0.195 F1000
G1 X78.342 Y26.672 Z-0.182 F1000
G1 X78.306 Y26.672 Z-0.178 F1000
G1 X78.263 Y26.680 Z-0.178 F1000
G1 X78.225 Y26.702 Z-0.178 F1000
G1 X78.197 Y26.735 Z-0.178 F1000
G1 X78.182 Y26.777 Z-0.178 F1000
G1 X78.182 Y26.820 Z-0.178 F1000
G1 X78.197 Y26.861 Z-0.178 F1000
G1 X78.225 Y26.895 Z-0.178 F1000
G1 X78.263 Y26.917 Z-0.178 F1000
G1 X78.306 Y26.924 Z-0.178 F1000
G1 X78.342 Y26.924 Z-0.182 F1000
G1 X78.376 Y26.924 Z-0.195 F1000
G1 X78.416 Y26.924 Z-0.208 F1000
G1 X78.458 Y26.924 Z-0.210 F1000
G1 X78.500 Y26.924 Z-0.201 F1000
G1 X78.646 Y26.924 Z-0.148 F1000
G1 X78.978 Y26.924 Z-0.053 F1000
G1 X79.166 Y26.924 Z-0.025 F1000
G1 X79.209 Y26.924 Z-0.012 F1000
G1 X79.247 Y26.924 Z0.012 F1000
G1 X79.276 Y26.924 Z0.046 F1000
G1 X79.295 Y26.924 Z0.087 F1000
G1 X79.301 Y26.924 Z0.132 F1000
G1 X79.301 Y26.932 Z0.175 F1000
G1 X79.301 Y26.954 Z0.213 F1000
G1 X79.301 Y26.987 Z0.241 F1000
G1 X79.301 Y27.029 Z0.256 F1000
G1 X79.301 Y27.072 Z0.256 F1000
G1 X79.301 Y27.113 Z0.241 F1000
G1 X79.301 Y27.147 Z0.213 F1000
G1 X79.301 Y27.169 Z0.175 F1000
G1 X79.301 Y27.176 Z0.132 F1000
G1 X79.295 Y27.176 Z0.087 F1000
G1 X79.276 Y27.176 Z0.046 F1000
G1 X79.247 Y27.176 Z0.012 F1000
G1 X79.209 Y27.176 Z-0.012 F1000
G1 X79.166 Y27.176 Z-0.025 F1000
G1 X78.978 Y27.176 Z-0.053 F1000
G1 X78.646 Y27.176 Z-0.148 F1000
G1 X78.500 Y27.176 Z-0.201 F1000
G1 X78.458 Y27.176 Z-0.210 F1000
G1 X78.416 Y27.176 Z-0.208 F1000
G1 X78.376 Y27.176 Z-0.195 F1000
G1 X78.342 Y27.176 Z-0.182 F1000
G1 X78.306 Y27.176 Z-0.178 F1000
G1 X78.263 Y27.184 Z-0.178 F1000
G1 X78.225 Y27.206 Z-0.178 F1000
G1 X78.197 Y27.239 Z-0.178 F1000
G1 X78.182 Y27.280 Z-0.178 F1000
G1 X78.182 Y27.324 Z-0.178 F1000
G1 X78.197 Y27.365 Z-0.178 F1000
G1 X78.225 Y27.399 Z-0.178 F1000
G1 X78.263 Y27.421 Z-0.178 F1000
G1 X78.306 Y27.428 Z-0.178 F1000
G1 X78.342 Y27.428 Z-0.182 F1000
G1 X78.376 Y27.428 Z-0.195 F1000
G1 X78.416 Y27.428 Z-0.208 F1000
G1 X78.458 Y27.428 Z-0.210 F1000
G1 X78.500 Y27.428 Z-0.201 F1000
G1 X78.646 Y27.428 Z-0.148 F1000
G1 X78.978 Y27.428 Z-0.053 F1000
G1 X79.166 Y27.428 Z-0.025 F1000
G1 X79.209 Y27.428 Z-0.012 F1000
G1 X79.247 Y27.428 Z0.012 F1000
G1 X79.276 Y27.428 Z0.046 F1000
G1 X79.295 Y27.428 Z0.087 F1000
G1 X79.301 Y27.428 Z0.132 F1000
G1 X79.301 Y27.436 Z0.175 F1000
G1 X79.301 Y27.458 Z0.213 F1000
G1 X79.301 Y27.491 Z0.241 F1000
G1 X79.301 Y27.532 Z0.256 F1000
G1 X79.301 Y27.576 Z0.256 F1000
G1 X79.301 Y27.617 Z0.241 F1000
G1 X79.301 Y27.651 Z0.213 F1000
G1 X79.301 Y27.673 Z0.175 F1000
G1 X79.301 Y27.680 Z0.132 F1000
G1 X79.295 Y27.680 Z0.087 F1000
G1 X79.276 Y27.680 Z0.046 F1000
G1 X79.247 Y27.680 Z0.012 F1000
G1 X79.209 Y27.680 Z-0.012 F1000
G1 X79.166 Y27.680 Z-0.025 F1000
G1 X78.978 Y27.680 Z-0.053 F1000
G1 X78.646 Y27.680 Z-0.148 F1000
G1 X78.500 Y27.680 Z-0.201 F1000
G1 X78.458 Y27.680 Z-0.210 F1000
G1 X78.416 Y27.680 Z-0.208 F1000
G1 X78.376 Y27.680 Z-0.195 F1000
G1 X78.342 Y27.680 Z-0.182 F1000
G1 X78.306 Y27.680 Z-0.178 F1000
G1 X78.263 Y27.688 Z-0.178 F1000
G1 X78.225 Y27.710 Z-0.178 F1000
G1 X78.197 Y27.743 Z-0.178 F1000
G1 X78.182 Y27.784 Z-0.178 F1000
G1 X78.182 Y27.828 Z-0.178 F1000
G1 X78.197 Y27.869 Z-0.178 F1000
G1 X78.225 Y27.903 Z-0.178 F1000
G1 X78.263 Y27.925 Z-0.178 F1000
G1 X78.306 Y27.932 Z-0.178 F1000
G1 X78.342 Y27.932 Z-0.182 F1000
G1 X78.376 Y27.932 Z-0.195 F1000
G1 X78.416 Y27.932 Z-0.208 F1000
G1 X78.458 Y27.932 Z-0.210 F1000
G1 X78.500 Y27.932 Z-0.201 F1000
G1 X78.646 Y27.932 Z-0.148 F1000
G1 X78.978 Y27.932 Z-0.053 F1000
G1 X79.166 Y27.932 Z-0.025 F1000
G1 X79.209 Y27.932 Z-0.012 F1000
G1 X79.247 Y27.932 Z0.012 F1000
G1 X79.276 Y27.932 Z0.046 F1000
G1 X79.295 Y27.932 Z0.087 F1000
G1 X79.301 Y27.932 Z0.132 F1000
G1 X79.301 Y27.940 Z0.175 F1000
G1 X79.301 Y27.962 Z0.213 F1000
G1 X79.301 Y27.995 Z0.241 F1000
G1 X79.301 Y28.036 Z0.256 F1000
G1 X79.301 Y28.080 Z0.256 F1000
G1 X79.301 Y28.121 Z0.241 F1000
G1 X79.301 Y28.155 Z0.213 F1000
G1 X79.301 Y28.177 Z0.175 F1000
G1 X79.301 Y28.184 Z0.132 F1000
G1 X79.295 Y28.184 Z0.087 F1000
G1 X79.276 Y28.184 Z0.046 F1000
G1 X79.247 Y28.184 Z0.012 F1000
G1 X79.209 Y28.184 Z-0.012 F1000
G1 X79.166 Y28.184 Z-0.025 F1000
G1 X78.978 Y28.184 Z-0.053 F1000
G1 X78.646 Y28.184 Z-0.148 F1000
G1 X78.500 Y28.184 Z-0.201 F1000
G1 X78.458 Y28.184 Z-0.210 F1000
G1 X78.416 Y28.184 Z-0.208 F1000
G1 X78.376 Y28.184 Z-0.195 F1000
G1 X78.342 Y28.184 Z-0.182 F1000
G1 X78.306 Y28.184 Z-0.178 F1000
G1 X78.263 Y28.192 Z-0.178 F1000
G1 X78.225 Y28.214 Z-0.178 F1000
G1 X78.197 Y28.247 Z-0.178 F1000
G1 X78.182 Y28.288 Z-0.178 F1000
G1 X78.182 Y28.332 Z-0.178 F1000
G1 X78.197 Y28.373 Z-0.178 F1000
G1 X78.225 Y28.407 Z-0.178 F1000
G1 X78.263 Y28.429 Z-0.178 F1000
G1 X78.306 Y28.436 Z-0.178 F1000
G1 X78.342 Y28.436 Z-0.182 F1000
G1 X78.376 Y28.436 Z-0.195 F1000
G1 X78.416 Y28.436 Z-0.208 F1000
G1 X78.458 Y28.436 Z-0.210 F1000
G1 X78.500 Y28.436 Z-0.201 F1000
G1 X78.646 Y28.436 Z-0.148 F1000
G1 X78.978 Y28.436 Z-0.053 F1000
G1 X79.166 Y28.436 Z-0.025 F1000
G1 X79.209 Y28.436 Z-0.012 F1000
G1 X79.247 Y28.436 Z0.012 F1000
G1 X79.276 Y28.436 Z0.046 F1000
G1 X79.295 Y28.436 Z0.087 F1000
G1 X79.301 Y28.436 Z0.132 F1000
G1 X79.301 Y28.444 Z0.175 F1000
G1 X79.301 Y28.466 Z0.213 F1000
G1 X79.301 Y28.499 Z0.241 F1000
G1 X79.301 Y28.540 Z0.256 F1000
G1 X79.301 Y28.584 Z0.256 F1000
G1 X79.301 Y28.625 Z0.241 F1000
G1 X79.301 Y28.659 Z0.213 F1000
G1 X79.301 Y28.681 Z0.175 F1000
G1 X79.301 Y28.688 Z0.132 F1000
G1 X79.295 Y28.688 Z0.087 F1000
G1 X79.276 Y28.688 Z0.046 F1000
G1 X79.247 Y28.688 Z0.012 F1000
G1 X79.209 Y28.688 Z-0.012 F1000
G1 X79.166 Y28.688 Z-0.025 F1000
G1 X78.978 Y28.688 Z-0.053 F1000
G1 X78.646 Y28.688 Z-0.148 F1000
G1 X78.500 Y28.688 Z-0.201 F1000
G1 X78.458 Y28.688 Z-0.210 F1000
G1 X78.416 Y28.688 Z-0.208 F1000
G1 X78.376 Y28.688 Z-0.195 F1000
G1 X78.342 Y28.688 Z-0.182 F1000
G1 X78.306 Y28.688 Z-0.178 F1000
G1 X78.263 Y28.696 Z-0.178 F1000
G1 X78.225 Y28.718 Z-0.178 F1000
G1 X78.197 Y28.751 Z-0.178 F1000
G1 X78.182 Y28.792 Z-0.178 F1000
G1 X78.182 Y28.836 Z-0.178 F1000
G1 X78.197 Y28.877 Z-0.178 F1000
G1 X78.225 Y28.911 Z-0.178 F1000
G1 X78.263 Y28.933 Z-0.178 F1000
G1 X78.306 Y28.940 Z-0.178 F1000
G1 X78.342 Y28.940 Z-0.182 F1000
G1 X78.376 Y28.940 Z-0.195 F1000
G1 X78.416 Y28.940 Z-0.208 F1000
G1 X78.458 Y28.940 Z-0.210 F1000
G1 X78.500 Y28.940 Z-0.201 F1000
G1 X78.646 Y28.940 Z-0.148 F1000
G1 X78.978 Y28.940 Z-0.053 F1000
G1 X79.166 Y28.940 Z-0.025 F1000
G1 X79.209 Y28.940 Z-0.012 F1000
G1 X79.247 Y28.940 Z0.012 F1000
G1 X79.276 Y28.940 Z0.046 F1000
G1 X79.295 Y28.940 Z0.087 F1000
G1 X79.301 Y28.940 Z0.132 F1000
G1 X79.301 Y28.948 Z0.175 F1000
G1 X79.301 Y28.970 Z0.213 F1000
G1 X79.301 Y29.003 Z0.241 F1000
G1 X79.301 Y29.044 Z0.256 F1000
G1 X79.301 Y29.088 Z0.256 F1000
G1 X79.301 Y29.129 Z0.241 F1000
G1 X79.301 Y29.163 Z0.213 F1000
G1 X79.301 Y29.185 Z0.175 F1000
G1 X79.301 Y29.192 Z0.132 F1000
G1 X79.295 Y29.192 Z0.087 F1000
G1 X79.276 Y29.192 Z0.046 F1000
G1 X79.247 Y29.192 Z0.012 F1000
G1 X79.209 Y29.192 Z-0.012 F1000
G1 X79.166 Y29.192 Z-0.025 F1000
G1 X78.978 Y29.192 Z-0.053 F1000
G1 X78.646 Y29.192 Z-0.148 F1000
G1 X78.500 Y29.192 Z-0.201 F1000
G1 X78.458 Y29.192 Z-0.210 F1000
G1 X78.416 Y29.192 Z-0.208 F1000
G1 X78.376 Y29.192 Z-0.195 F1000
G1 X78.342 Y29.192 Z-0.182 F1000
G1 X78.306 Y29.192 Z-0.178 F1000
G1 X78.263 Y29.200 Z-0.178 F1000
G1 X78.225 Y29.222 Z-0.178 F1000
G1 X78.197 Y29.255 Z-0.178 F1000
G1 X78.182 Y29.296 Z-0.178 F1000
G1 X78.182 Y29.340 Z-0.178 F1000
G1 X78.197 Y29.381 Z-0.178 F1000
G1 X78.225 Y29.415 Z-0.178 F1000
G1 X78.263 Y29.437 Z-0.178 F1000
G1 X78.306 Y29.444 Z-0.178 F1000
G1 X78.342 Y29.444 Z-0.182 F1000
G1 X78.376 Y29.444 Z-0.195 F1000
G1 X78.416 Y29.444 Z-0.208 F1000
G1 X78.458 Y29.444 Z-0.210 F1000
G1 X78.500 Y29.444 Z-0.201 F1000
G1 X78.646 Y29.444 Z-0.148 F1000
G1 X78.978 Y29.444 Z-0.053 F1000
G1 X79.166 Y29.444 Z-0.025 F1000
G1 X79.209 Y29.444 Z-0.012 F1000
G1 X79.247 Y29.444 Z0.012 F1000
G1 X79.276 Y29.444 Z0.046 F1000
G1 X79.295 Y29.444 Z0.087 F1000
G1 X79.301 Y29.444 Z0.132 F1000
G1 X79.301 Y29.452 Z0.175 F1000
G1 X79.301 Y29.474 Z0.213 F1000
G1 X79.301 Y29.507 Z0.241 F1000
G1 X79.301 Y29.548 Z0.256 F1000
G1 X79.301 Y29.592 Z0.256 F1000
G1 X79.301 Y29.633 Z0.241 F1000
G1 X79.301 Y29.667 Z0.213 F1000
G1 X79.301 Y29.689 Z0.175 F1000
G1 X79.301 Y29.696 Z0.132 F1000
G1 X79.295 Y29.696 Z0.087 F1000
G1 X79.276 Y29.696 Z0.046 F1000
G1 X79.247 Y29.696 Z0.012 F1000
G1 X79.209 Y29.696 Z-0.012 F1000
G1 X79.166 Y29.696 Z-0.025 F1000
G1 X78.978 Y29.696 Z-0.053 F1000
G1 X78.646 Y29.696 Z-0.148 F1000
G1 X78.500 Y29.696 Z-0.201 F1000
G1 X78.458 Y29.696 Z-0.210 F1000
G1 X78.416 Y29.696 Z-0.208 F1000
G1 X78.376 Y29.696 Z-0.195 F1000
G1 X78.342 Y29.696 Z-0.182 F1000
G1 X78.306 Y29.696 Z-0.178 F1000
G1 X78.263 Y29.704 Z-0.178 F1000
G1 X78.225 Y29.726 Z-0.178 F1000
G1 X78.197 Y29.759 Z-0.178 F1000
G1 X78.182 Y29.800 Z-0.178 F1000
G1 X78.182 Y29.844 Z-0.178 F1000
G1 X78.197 Y29.885 Z-0.178 F1000
G1 X78.225 Y29.919 Z-0.178 F1000
G1 X78.263 Y29.941 Z-0.178 F1000
G1 X78.306 Y29.948 Z-0.178 F1000
G1 X78.342 Y29.948 Z-0.182 F1000
G1 X78.376 Y29.948 Z-0.195 F1000
G1 X78.416 Y29.948 Z-0.208 F1000
G1 X78.458 Y29.948 Z-0.210 F1000
G1 X78.500 Y29.948 Z-0.201 F1000
G1 X78.646 Y29.948 Z-0.148 F1000
G1 X78.978 Y29.948 Z-0.053 F1000
G1 X79.166 Y29.948 Z-0.025 F1000
G1 X79.209 Y29.948 Z-0.012 F1000
G1 X79.247 Y29.948 Z0.012 F1000
G1 X79.276 Y29.948 Z0.046 F1000
G1 X79.295 Y29.948 Z0.087 F1000
G1 X79.301 Y29.948 Z0.132 F1000
G1 X79.301 Y29.956 Z0.175 F1000
G1 X79.301 Y29.978 Z0.213 F1000
G1 X79.301 Y30.011 Z0.241 F1000
G1 X79.301 Y30.052 Z0.256 F1000
G1 X79.301 Y30.096 Z0.256 F1000
G1 X79.301 Y30.137 Z0.241 F1000
G1 X79.301 Y30.171 Z0.213 F1000
G1 X79.301 Y30.193 Z0.175 F1000
G1 X79.301 Y30.200 Z0.132 F1000
G1 X79.295 Y30.200 Z0.087 F1000
G1 X79.276 Y30.200 Z0.046 F1000
G1 X79.247 Y30.200 Z0.012 F1000
G1 X79.209 Y30.200 Z-0.012 F1000
G1 X79.166 Y30.200 Z-0.025 F1000
G1 X78.978 Y30.200 Z-0.053 F1000
G1 X78.646 Y30.200 Z-0.148 F1000
G1 X78.500 Y30.200 Z-0.201 F1000
G1 X78.458 Y30.200 Z-0.210 F1000
G1 X78.416 Y30.200 Z-0.208 F1000
G1 X78.376 Y30.200 Z-0.195 F1000
G1 X78.342 Y30.200 Z-0.182 F1000
G1 X78.306 Y30.200 Z-0.178 F1000
G1 X78.263 Y30.208 Z-0.178 F1000
G1 X78.225 Y30.230 Z-0.178 F1000
G1 X78.197 Y30.263 Z-0.178 F1000
G1 X78.182 Y30.304 Z-0.178 F1000
G1 X78.182 Y30.348 Z-0.178 F1000
G1 X78.197 Y30.389 Z-0.178 F1000
G1 X78.225 Y30.423 Z-0.178 F1000
G1 X78.263 Y30.445 Z-0.178 F1000
G1 X78.306 Y30.452 Z-0.178 F1000
G1 X78.342 Y30.452 Z-0.182 F1000
G1 X78.376 Y30.452 Z-0.195 F1000
G1 X78.416 Y30.452 Z-0.208 F1000
G1 X78.458 Y30.452 Z-0.210 F1000
G1 X78.500 Y30.452 Z-0.201 F1000
G1 X78.646 Y30.452 Z-0.148 F1000
G1 X78.978 Y30.452 Z-0.053 F1000
G1 X79.166 Y30.452 Z-0.025 F1000
G1 X79.209 Y30.452 Z-0.012 F1000
G1 X79.247 Y30.452 Z0.012 F1000
G1 X79.276 Y30.452 Z0.046 F1000
G1 X79.295 Y30.452 Z0.087 F1000
G1 X79.301 Y30.452 Z0.132 F1000
G1 X79.301 Y30.460 Z0.175 F1000
G1 X79.301 Y30.482 Z0.213 F1000
G1 X79.301 Y30.515 Z0.241 F1000
G1 X79.301 Y30.556 Z0.256 F1000
G1 X79.301 Y30.600 Z0.256 F1000
G1 X79.301 Y30.641 Z0.241 F1000
G1 X79.301 Y30.675 Z0.213 F1000
G1 X79.301 Y30.697 Z0.175 F1000
G1 X79.301 Y30.704 Z0.132 F1000
G1 X79.295 Y30.704 Z0.087 F1000
G1 X79.276 Y30.704 Z0.046 F1000
G1 X79.247 Y30.704 Z0.012 F1000
G1 X79.209 Y30.704 Z-0.012 F1000
G1 X79.166 Y30.704 Z-0.025 F1000
G1 X78.978 Y30.704 Z-0.053 F1000
G1 X78.646 Y30.704 Z-0.148 F1000
G1 X78.500 Y30.704 Z-0.201 F1000
G1 X78.458 Y30.704 Z-0.210 F1000
G1 X78.416 Y30.704 Z-0.208 F1000
G1 X78.376 Y30.704 Z-0.195 F1000
G1 X78.342 Y30.704 Z-0.182 F1000
G1 X78.306 Y30.704 Z-0.178 F1000
G1 X78.263 Y30.712 Z-0.178 F1000
G1 X78.225 Y30.734 Z-0.178 F1000
G1 X78.197 Y30.767 Z-0.178 F1000
G1 X78.182 Y30.808 Z-0.178 F1000
G1 X78.182 Y30.852 Z-0.178 F1000
G1 X78.197 Y30.893 Z-0.178 F1000
G1 X78.225 Y30.927 Z-0.178 F1000
G1 X78.263 Y30.949 Z-0.178 F1000
G1 X78.306 Y30.956 Z-0.178 F1000
G1 X78.342 Y30.956 Z-0.182 F1000
G1 X78.376 Y30.956 Z-0.195 F1000
G1 X78.416 Y30.956 Z-0.208 F1000
G1 X78.458 Y30.956 Z-0.210 F1000
G1 X78.500 Y30.956 Z-0.201 F1000
G1 X78.646 Y30.956 Z-0.148 F1000
G1 X78.978 Y30.956 Z-0.053 F1000
G1 X79.166 Y30.956 Z-0.025 F1000
G1 X79.209 Y30.956 Z-0.012 F1000
G1 X79.247 Y30.956 Z0.012 F1000
G1 X79.276 Y30.956 Z0.046 F1000
G1 X79.295 Y30.956 Z0.087 F1000
G1 X79.301 Y30.956 Z0.132 F1000
G1 X79.301 Y30.964 Z0.175 F1000
G1 X79.301 Y30.986 Z0.213 F1000
G1 X79.301 Y31.019 Z0.241 F1000
G1 X79.301 Y31.060 Z0.256 F1000
G1 X79.301 Y31.104 Z0.256 F1000
G1 X79.301 Y31.145 Z0.241 F1000
G1 X79.301 Y31.179 Z0.213 F1000
G1 X79.301 Y31.201 Z0.175 F1000
G1 X79.301 Y31.208 Z0.132 F1000
G1 X79.295 Y31.208 Z0.087 F1000
G1 X79.276 Y31.208 Z0.046 F1000
G1 X79.247 Y31.208 Z0.012 F1000
G1 X79.209 Y31.208 Z-0.012 F1000
G1 X79.166 Y31.208 Z-0.025 F1000
G1 X78.978 Y31.208 Z-0.053 F1000
G1 X78.646 Y31.208 Z-0.148 F1000
G1 X78.500 Y31.208 Z-0.201 F1000
G1 X78.458 Y31.208 Z-0.210 F1000
G1 X78.416 Y31.208 Z-0.208 F1000
G1 X78.376 Y31.208 Z-0.195 F1000
G1 X78.342 Y31.208 Z-0.182 F1000
G1 X78.306 Y31.208 Z-0.178 F1000
G1 X78.263 Y31.216 Z-0.178 F1000
G1 X78.225 Y31.238 Z-0.178 F1000
G1 X78.197 Y31.271 Z-0.178 F1000
G1 X78.182 Y31.312 Z-0.178 F1000
G1 X78.182 Y31.356 Z-0.178 F1000
G1 X78.197 Y31.397 Z-0.178 F1000
G1 X78.225 Y31.431 Z-0.178 F1000
G1 X78.263 Y31.453 Z-0.178 F1000
G1 X78.306 Y31.460 Z-0.178 F1000
G1 X78.342 Y31.460 Z-0.182 F1000
G1 X78.376 Y31.460 Z-0.195 F1000
G1 X78.416 Y31.460 Z-0.208 F1000
G1 X78.458 Y31.460 Z-0.210 F1000
G1 X78.500 Y31.460 Z-0.201 F1000
G1 X78.646 Y31.460 Z-0.148 F1000
G1 X78.978 Y31.460 Z-0.053 F1000
G1 X79.166 Y31.460 Z-0.025 F1000
G1 X79.209 Y31.460 Z-0.012 F1000
G1 X79.247 Y31.460 Z0.012 F1000
G1 X79.276 Y31.460 Z0.046 F1000
G1 X79.295 Y31.460 Z0.087 F1000
G1 X79.301 Y31.460 Z0.132 F1000
G1 X79.301 Y31.468 Z0.175 F1000
G1 X79.301 Y31.490 Z0.213 F1000
G1 X79.301 Y31.523 Z0.241 F1000
G1 X79.301 Y31.564 Z0.256 F1000
G1 X79.301 Y31.608 Z0.256 F1000
G1 X79.301 Y31.649 Z0.241 F1000
G1 X79.301 Y31.683 Z0.213 F1000
G1 X79.301 Y31.705 Z0.175 F1000
G1 X79.301 Y31.712 Z0.132 F1000
G1 X79.295 Y31.712 Z0.087 F1000
G1 X79.276 Y31.712 Z0.046 F1000
G1 X79.247 Y31.712 Z0.012 F1000
G1 X79.209 Y31.712 Z-0.012 F1000
G1 X79.166 Y31.712 Z-0.025 F1000
G1 X78.978 Y31.712 Z-0.053 F1000
G1 X78.646 Y31.712 Z-0.148 F1000
G1 X78.500 Y31.712 Z-0.201 F1000
G1 X78.458 Y31.712 Z-0.210 F1000
G1 X78.416 Y31.712 Z-0.208 F1000
G1 X78.376 Y31.712 Z-0.195 F1000
G1 X78.342 Y31.712 Z-0.182 F1000
G1 X78.306 Y31.712 Z-0.178 F1000
G1 X78.263 Y31.720 Z-0.178 F1000
G1 X78.225 Y31.742 Z-0.178 F1000
G1 X78.197 Y31.775 Z-0.178 F1000
G1 X78.182 Y31.816 Z-0.178 F1000
G1 X78.182 Y31.860 Z-0.178 F1000
G1 X78.197 Y31.901 Z-0.178 F1000
G1 X78.225 Y31.935 Z-0.178 F1000
G1 X78.263 Y31.957 Z-0.178 F1000
G1 X78.306 Y31.964 Z-0.178 F1000
G1 X78.342 Y31.964 Z-0.182 F1000
G1 X78.376 Y31.964 Z-0.195 F1000
G1 X78.416 Y31.964 Z-0.208 F1000
G1 X78.458 Y31.964 Z-0.210 F1000
G1 X78.500 Y31.964 Z-0.201 F1000
G1 X78.646 Y31.964 Z-0.148 F1000
G1 X78.978 Y31.964 Z-0.053 F1000
G1 X79.166 Y31.964 Z-0.025 F1000
G1 X79.209 Y31.964 Z-0.012 F1000
G1 X79.247 Y31.964 Z0.012 F1000
G1 X79.276 Y31.964 Z0.046 F1000
G1 X79.295 Y31.964 Z0.087 F1000
G1 X79.301 Y31.964 Z0.132 F1000
G1 X79.301 Y31.972 Z0.175 F1000
G1 X79.301 Y31.994 Z0.213 F1000
G1 X79.301 Y32.027 Z0.241 F1000
G1 X79.301 Y32.068 Z0.256 F1000
G1 X79.301 Y32.112 Z0.256 F1000
G1 X79.301 Y32.153 Z0.241 F1000
G1 X79.301 Y32.187 Z0.213 F1000
G1 X79.301 Y32.209 Z0.175 F1000
G1 X79.301 Y32.216 Z0.132 F1000
G1 X79.295 Y32.216 Z0.087 F1000
G1 X79.276 Y32.216 Z0.046 F1000
G1 X79.247 Y32.216 Z0.012 F1000
G1 X79.209 Y32.216 Z-0.012 F1000
G1 X79.166 Y32.216 Z-0.025 F1000
G1 X78.978 Y32.216 Z-0.053 F1000
G1 X78.646 Y32.216 Z-0.148 F1000
G1 X78.500 Y32.216 Z-0.201 F1000
G1 X78.458 Y32.216 Z-0.210 F1000
G1 X78.416 Y32.216 Z-0.208 F1000
G1 X78.376 Y32.216 Z-0.195 F1000
G1 X78.342 Y32.216 Z-0.182 F1000
G1 X78.306 Y32.216 Z-0.178 F1000
G1 X78.263 Y32.224 Z-0.178 F1000
G1 X78.225 Y32.246 Z-0.178 F1000
G1 X78.197 Y32.279 Z-0.178 F1000
G1 X78.182 Y32.320 Z-0.178 F1000
G1 X78.182 Y32.364 Z-0.178 F1000
G1 X78.197 Y32.405 Z-0.178 F1000
G1 X78.225 Y32.439 Z-0.178 F1000
G1 X78.263 Y32.461 Z-0.178 F1000
G1 X78.306 Y32.468 Z-0.178 F1000
G1 X78.342 Y32.468 Z-0.182 F1000
G1 X78.376 Y32.468 Z-0.195 F1000
G1 X78.416 Y32.468 Z-0.208 F1000
G1 X78.458 Y32.468 Z-0.210 F1000
G1 X78.500 Y32.468 Z-0.201 F1000
G1 X78.646 Y32.468 Z-0.148 F1000
G1 X78.978 Y32.468 Z-0.053 F1000
G1 X79.166 Y32.468 Z-0.025 F1000
G1 X79.209 Y32.468 Z-0.012 F1000
G1 X79.247 Y32.468 Z0.012 F1000
G1 X79.276 Y32.468 Z0.046 F1000
G1 X79.295 Y32.468 Z0.087 F1000
G1 X79.301 Y32.468 Z0.132 F1000
G1 X79.301 Y32.476 Z0.175 F1000
G1 X79.301 Y32.498 Z0.213 F1000
G1 X79.301 Y32.531 Z0.241 F1000
G1 X79.301 Y32.572 Z0.256 F1000
G1 X79.301 Y32.616 Z0.256 F1000
G1 X79.301 Y32.657 Z0.241 F1000
G1 X79.301 Y32.691 Z0.213 F1000
G1 X79.301 Y32.713 Z0.175 F1000
G1 X79.301 Y32.720 Z0.132 F1000
G1 X79.295 Y32.720 Z0.087 F1000
G1 X79.276 Y32.720 Z0.046 F1000
G1 X79.247 Y32.720 Z0.012 F1000
G1 X79.209 Y32.720 Z-0.012 F1000
G1 X79.166 Y32.720 Z-0.025 F1000
G1 X78.978 Y32.720 Z-0.053 F1000
G1 X78.646 Y32.720 Z-0.148 F1000
G1 X78.500 Y32.720 Z-0.201 F1000
G1 X78.458 Y32.720 Z-0.210 F1000
G1 X78.416 Y32.720 Z-0.208 F1000
G1 X78.376 Y32.720 Z-0.195 F1000
G1 X78.342 Y32.720 Z-0.182 F1000
G1 X78.306 Y32.720 Z-0.178 F1000
G1 X78.263 Y32.728 Z-0.178 F1000
G1 X78.225 Y32.750 Z-0.178 F1000
G1 X78.197 Y32.783 Z-0.178 F1000
G1 X78.182 Y32.824 Z-0.178 F1000
G1 X78.182 Y32.868 Z-0.178 F1000
G1 X78.197 Y32.909 Z-0.178 F1000
G1 X78.225 Y32.943 Z-0.178 F1000
G1 X78.263 Y32.965 Z-0.178 F1000
G1 X78.306 Y32.972 Z-0.178 F1000
G1 X78.342 Y32.972 Z-0.182 F1000
G1 X78.376 Y32.972 Z-0.195 F1000
G1 X78.416 Y32.972 Z-0.208 F1000
G1 X78.458 Y32.972 Z-0.210 F1000
G1 X78.500 Y32.972 Z-0.201 F1000
G1 X78.646 Y32.972 Z-0.148 F1000
G1 X78.978 Y32.972 Z-0.053 F1000
G1 X79.166 Y32.972 Z-0.025 F1000
G1 X79.209 Y32.972 Z-0.012 F1000
G1 X79.247 Y32.972 Z0.012 F1000
G1 X79.276 Y32.972 Z0.046 F1000
G1 X79.295 Y32.972 Z0.087 F1000
G1 X79.301 Y32.972 Z0.132 F1000
G1 X79.301 Y32.980 Z0.175 F1000
G1 X79.301 Y33.002 Z0.213 F1000
G1 X79.301 Y33.035 Z0.241 F1000
G1 X79.301 Y33.076 Z0.256 F1000
G1 X79.301 Y33.120 Z0.256 F1000
G1 X79.301 Y33.161 Z0.241 F1000
G1 X79.301 Y33.195 Z0.213 F1000
G1 X79.301 Y33.217 Z0.175 F1000
G1 X79.301 Y33.224 Z0.132 F1000
G1 X79.295 Y33.224 Z0.087 F1000
G1 X79.276 Y33.224 Z0.046 F1000
G1 X79.247 Y33.224 Z0.012 F1000
G1 X79.209 Y33.224 Z-0.012 F1000
G1 X79.166 Y33.224 Z-0.025 F1000
G1 X78.978 Y33.224 Z-0.053 F1000
G1 X78.646 Y33.224 Z-0.148 F1000
G1 X78.500 Y33.224 Z-0.201 F1000
G1 X78.458 Y33.224 Z-0.210 F1000
G1 X78.416 Y33.224 Z-0.208 F1000
G1 X78.376 Y33.224 Z-0.195 F1000
G1 X78.342 Y33.224 Z-0.182 F1000
G1 X78.306 Y33.224 Z-0.178 F1000
G1 X78.263 Y33.232 Z-0.178 F1000
G1 X78.225 Y33.254 Z-0.178 F1000
G1 X78.197 Y33.287 Z-0.178 F1000
G1 X78.182 Y33.328 Z-0.178 F1000
G1 X78.182 Y33.372 Z-0.178 F1000
G1 X78.197 Y33.413 Z-0.178 F1000
G1 X78.225 Y33.447 Z-0.178 F1000
G1 X78.263 Y33.469 Z-0.178 F1000
G1 X78.306 Y33.476 Z-0.178 F1000
G1 X78.342 Y33.476 Z-0.182 F1000
G1 X78.376 Y33.476 Z-0.195 F1000
G1 X78.416 Y33.476 Z-0.208 F1000
G1 X78.458 Y33.476 Z-0.210 F1000
G1 X78.500 Y33.476 Z-0.201 F1000
G1 X78.646 Y33.476 Z-0.148 F1000
G1 X78.978 Y33.476 Z-0.053 F1000
G1 X79.166 Y33.476 Z-0.025 F1000
G1 X79.209 Y33.476 Z-0.012 F1000
G1 X79.247 Y33.476 Z0.012 F1000
G1 X79.276 Y33.476 Z0.046 F1000
G1 X79.295 Y33.476 Z0.087 F1000
G1 X79.301 Y33.476 Z0.132 F1000
G1 X79.301 Y33.484 Z0.175 F1000
G1 X79.301 Y33.506 Z0.213 F1000
G1 X79.301 Y33.539 Z0.241 F1000
G1 X79.301 Y33.580 Z0.256 F1000
G1 X79.301 Y33.624 Z0.256 F1000
G1 X79.301 Y33.665 Z0.241 F1000
G1 X79.301 Y33.699 Z0.213 F1000
G1 X79.301 Y33.721 Z0.175 F1000
G1 X79.301 Y33.728 Z0.132 F1000
G1 X79.295 Y33.728 Z0.087 F1000
G1 X79.276 Y33.728 Z0.046 F1000
G1 X79.247 Y33.728 Z0.012 F1000
G1 X79.209 Y33.728 Z-0.012 F1000
G1 X79.166 Y33.728 Z-0.025 F1000
G1 X78.978 Y33.728 Z-0.053 F1000
G1 X78.646 Y33.728 Z-0.148 F1000
G1 X78.500 Y33.728 Z-0.201 F1000
G1 X78.458 Y33.728 Z-0.210 F1000
G1 X78.416 Y33.728 Z-0.208 F1000
G1 X78.376 Y33.728 Z-0.195 F1000
G1 X78.342 Y33.728 Z-0.182 F1000
G1 X78.306 Y33.728 Z-0.178 F1000
G1 X78.263 Y33.736 Z-0.178 F1000
G1 X78.225 Y33.758 Z-0.178 F1000
G1 X78.197 Y33.791 Z-0.178 F1000
G1 X78.182 Y33.832 Z-0.178 F1000
G1 X78.182 Y33.876 Z-0.178 F1000
G1 X78.197 Y33.917 Z-0.178 F1000
G1 X78.225 Y33.951 Z-0.178 F1000
G1 X78.263 Y33.973 Z-0.178 F1000
G1 X78.306 Y33.980 Z-0.178 F1000
G1 X78.342 Y33.980 Z-0.182 F1000
G1 X78.376 Y33.980 Z-0.195 F1000
G1 X78.416 Y33.980 Z-0.208 F1000
G1 X78.458 Y33.980 Z-0.210 F1000
G1 X78.500 Y33.980 Z-0.201 F1000
G1 X78.646 Y33.980 Z-0.148 F1000
G1 X78.978 Y33.980 Z-0.053 F1000
G1 X79.166 Y33.980 Z-0.025 F1000
G1 X79.209 Y33.980 Z-0.012 F1000
G1 X79.247 Y33.980 Z0.012 F1000
G1 X79.276 Y33.980 Z0.046 F1000
G1 X79.295 Y33.980 Z0.087 F1000
G1 X79.301 Y33.980 Z0.132 F1000
G1 X79.301 Y33.988 Z0.175 F1000
G1 X79.301 Y34.010 Z0.213 F1000
G1 X79.301 Y34.043 Z0.241 F1000
G1 X79.301 Y34.084 Z0.256 F1000
G1 X79.301 Y34.128 Z0.256 F1000
G1 X79.301 Y34.169 Z0.241 F1000
G1 X79.301 Y34.203 Z0.213 F1000
G1 X79.301 Y34.225 Z0.175 F1000
G1 X79.301 Y34.232 Z0.132 F1000
G1 X79.295 Y34.232 Z0.087 F1000
G1 X79.276 Y34.232 Z0.046 F1000
G1 X79.247 Y34.232 Z0.012 F1000
G1 X79.209 Y34.232 Z-0.012 F1000
G1 X79.166 Y34.232 Z-0.025 F1000
G1 X78.978 Y34.232 Z-0.053 F1000
G1 X78.646 Y34.232 Z-0.148 F1000
G1 X78.500 Y34.232 Z-0.201 F1000
G1 X78.458 Y34.232 Z-0.210 F1000
G1 X78.416 Y34.232 Z-0.208 F1000
G1 X78.376 Y34.232 Z-0.195 F1000
G1 X78.342 Y34.232 Z-0.182 F1000
G1 X78.306 Y34.232 Z-0.178 F1000
G1 X78.263 Y34.240 Z-0.178 F1000
G1 X78.225 Y34.262 Z-0.178 F1000
G1 X78.197 Y34.295 Z-0.178 F1000
G1 X78.182 Y34.336 Z-0.178 F1000
G1 X78.182 Y34.380 Z-0.178 F1000
G1 X78.197 Y34.421 Z-0.178 F1000
G1 X78.225 Y34.455 Z-0.178 F1000
G1 X78.263 Y34.476 Z-0.178 F1000
G1 X78.306 Y34.484 Z-0.178 F1000
G1 X78.342 Y34.484 Z-0.182 F1000
G1 X78.376 Y34.484 Z-0.195 F1000
G1 X78.416 Y34.484 Z-0.208 F1000
G1 X78.458 Y34.484 Z-0.210 F1000
G1 X78.500 Y34.484 Z-0.201 F1000
G1 X78.646 Y34.484 Z-0.148 F1000
G1 X78.978 Y34.484 Z-0.053 F1000
G1 X79.166 Y34.484 Z-0.025 F1000
G1 X79.209 Y34.484 Z-0.012 F1000
G1 X79.247 Y34.484 Z0.012 F1000
G1 X79.276 Y34.484 Z0.046 F1000
G1 X79.295 Y34.484 Z0.087 F1000
G1 X79.301 Y34.484 Z0.132 F1000
G1 X79.301 Y34.492 Z0.175 F1000
G1 X79.301 Y34.514 Z0.213 F1000
G1 X79.301 Y34.547 Z0.241 F1000
G1 X79.301 Y34.588 Z0.256 F1000
G1 X79.301 Y34.632 Z0.256 F1000
G1 X79.301 Y34.673 Z0.241 F1000
G1 X79.301 Y34.707 Z0.213 F1000
G1 X79.301 Y34.728 Z0.175 F1000
G1 X79.301 Y34.736 Z0.132 F1000
G1 X79.295 Y34.736 Z0.087 F1000
G1 X79.276 Y34.736 Z0.046 F1000
G1 X79.247 Y34.736 Z0.012 F1000
G1 X79.209 Y34.736 Z-0.012 F1000
G1 X79.166 Y34.736 Z-0.025 F1000
G1 X78.978 Y34.736 Z-0.053 F1000
G1 X78.646 Y34.736 Z-0.148 F1000
G1 X78.500 Y34.736 Z-0.201 F1000
G1 X78.458 Y34.736 Z-0.210 F1000
G1 X78.416 Y34.736 Z-0.208 F1000
G1 X78.376 Y34.736 Z-0.195 F1000
G1 X78.342 Y34.736 Z-0.182 F1000
G1 X78.306 Y34.736 Z-0.178 F1000
G1 X78.263 Y34.744 Z-0.178 F1000
G1 X78.225 Y34.766 Z-0.178 F1000
G1 X78.197 Y34.799 Z-0.178 F1000
G1 X78.182 Y34.840 Z-0.178 F1000
G1 X78.182 Y34.884 Z-0.178 F1000
G1 X78.197 Y34.925 Z-0.178 F1000
G1 X78.225 Y34.959 Z-0.178 F1000
G1 X78.263 Y34.980 Z-0.178 F1000
G1 X78.306 Y34.988 Z-0.178 F1000
G1 X78.342 Y34.988 Z-0.182 F1000
G1 X78.376 Y34.988 Z-0.195 F1000
G1 X78.416 Y34.988 Z-0.208 F1000
G1 X78.458 Y34.988 Z-0.210 F1000
G1 X78.500 Y34.988 Z-0.201 F1000
G1 X78.646 Y34.988 Z-0.148 F1000
G1 X78.978 Y34.988 Z-0.053 F1000
G1 X79.166 Y34.988 Z-0.025 F1000
G1 X79.209 Y34.988 Z-0.012 F1000
G1 X79.247 Y34.988 Z0.012 F1000
G1 X79.276 Y34.988 Z0.046 F1000
G1 X79.295 Y34.988 Z0.087 F1000
G1 X79.301 Y34.988 Z0.132 F1000
G1 X79.301 Y34.996 Z0.175 F1000
G1 X79.301 Y35.018 Z0.213 F1000
G1 X79.301 Y35.051 Z0.241 F1000
G1 X79.301 Y35.092 Z0.256 F1000
G1 X79.301 Y35.136 Z0.256 F1000
G1 X79.301 Y35.177 Z0.241 F1000
G1 X79.301 Y35.211 Z0.213 F1000
G1 X79.301 Y35.232 Z0.175 F1000
G1 X79.301 Y35.240 Z0.132 F1000
G1 X79.295 Y35.240 Z0.087 F1000
G1 X79.276 Y35.240 Z0.046 F1000
G1 X79.247 Y35.240 Z0.012 F1000
G1 X79.209 Y35.240 Z-0.012 F1000
G1 X79.166 Y35.240 Z-0.025 F1000
G1 X78.978 Y35.240 Z-0.053 F1000
G1 X78.646 Y35.240 Z-0.148 F1000
G1 X78.500 Y35.240 Z-0.201 F1000
G1 X78.458 Y35.240 Z-0.210 F1000
G1 X78.416 Y35.240 Z-0.208 F1000
G1 X78.376 Y35.240 Z-0.195 F1000
G1 X78.342 Y35.240 Z-0.182 F1000
G1 X78.306 Y35.240 Z-0.178 F1000
G1 X78.263 Y35.248 Z-0.178 F1000
G1 X78.225 Y35.270 Z-0.178 F1000
G1 X78.197 Y35.303 Z-0.178 F1000
G1 X78.182 Y35.344 Z-0.178 F1000
G1 X78.182 Y35.388 Z-0.178 F1000
G1 X78.197 Y35.429 Z-0.178 F1000
G1 X78.225 Y35.463 Z-0.178 F1000
G1 X78.263 Y35.484 Z-0.178 F1000
G1 X78.306 Y35.492 Z-0.178 F1000
G1 X78.342 Y35.492 Z-0.182 F1000
G1 X78.376 Y35.492 Z-0.195 F1000
G1 X78.416 Y35.492 Z-0.208 F1000
G1 X78.458 Y35.492 Z-0.210 F1000
G1 X78.500 Y35.492 Z-0.201 F1000
G1 X78.646 Y35.492 Z-0.148 F1000
G1 X78.978 Y35.492 Z-0.053 F1000
G1 X79.166 Y35.492 Z-0.025 F1000
G1 X79.209 Y35.492 Z-0.012 F1000
G1 X79.247 Y35.492 Z0.012 F1000
G1 X79.276 Y35.492 Z0.046 F1000
G1 X79.295 Y35.492 Z0.087 F1000
G1 X79.301 Y35.492 Z0.132 F1000
G1 X79.301 Y35.500 Z0.175 F1000
G1 X79.301 Y35.522 Z0.213 F1000
G1 X79.301 Y35.555 Z0.241 F1000
G1 X79.301 Y35.596 Z0.256 F1000
G1 X79.301 Y35.640 Z0.256 F1000
G1 X79.301 Y35.681 Z0.241 F1000
G1 X79.301 Y35.715 Z0.213 F1000
G1 X79.301 Y35.736 Z0.175 F1000
G1 X79.301 Y35.744 Z0.132 F1000
G1 X79.295 Y35.744 Z0.087 F1000
G1 X79.276 Y35.744 Z0.046 F1000
G1 X79.247 Y35.744 Z0.012 F1000
G1 X79.209 Y35.744 Z-0.012 F1000
G1 X79.166 Y35.744 Z-0.025 F1000
G1 X78.978 Y35.744 Z-0.053 F1000
G1 X78.646 Y35.744 Z-0.148 F1000
G1 X78.500 Y35.744 Z-0.201 F1000
G1 X78.458 Y35.744 Z-0.210 F1000
G1 X78.416 Y35.744 Z-0.208 F1000
G1 X78.376 Y35.744 Z-0.195 F1000
G1 X78.342 Y35.744 Z-0.182 F1000
G1 X78.306 Y35.744 Z-0.178 F1000
G1 X78.263 Y35.752 Z-0.178 F1000
G1 X78.225 Y35.774 Z-0.178 F1000
G1 X78.197 Y35.807 Z-0.178 F1000
G1 X78.182 Y35.848 Z-0.178 F1000
G1 X78.182 Y35.892 Z-0.178 F1000
G1 X78.197 Y35.933 Z-0.178 F1000
G1 X78.225 Y35.967 Z-0.178 F1000
G1 X78.263 Y35.988 Z-0.178 F1000
G1 X78.306 Y35.996 Z-0.178 F1000
G1 X78.342 Y35.996 Z-0.182 F1000
G1 X78.376 Y35.996 Z-0.195 F1000
G1 X78.416 Y35.996 Z-0.208 F1000
G1 X78.458 Y35.996 Z-0.210 F1000
G1 X78.500 Y35.996 Z-0.201 F1000
G1 X78.646 Y35.996 Z-0.148 F1000
G1 X78.978 Y35.996 Z-0.053 F1000
G1 X79.166 Y35.996 Z-0.025 F1000
G1 X79.209 Y35.996 Z-0.012 F1000
G1 X79.247 Y35.996 Z0.012 F1000
G1 X79.276 Y35.996 Z0.046 F1000
G1 X79.295 Y35.996 Z0.087 F1000
G1 X79.301 Y35.996 Z0.132 F1000
G1 X79.301 Y36.004 Z0.175 F1000
G1 X79.301 Y36.026 Z0.213 F1000
G1 X79.301 Y36.059 Z0.241 F1000
G1 X79.301 Y36.100 Z0.256 F1000
G1 X79.301 Y36.144 Z0.256 F1000
G1 X79.301 Y36.185 Z0.241 F1000
G1 X79.301 Y36.219 Z0.213 F1000
G1 X79.301 Y36.240 Z0.175 F1000
G1 X79.301 Y36.248 Z0.132 F1000
G1 X79.295 Y36.248 Z0.087 F1000
G1 X79.276 Y36.248 Z0.046 F1000
G1 X79.247 Y36.248 Z0.012 F1000
G1 X79.209 Y36.248 Z-0.012 F1000
G1 X79.166 Y36.248 Z-0.025 F1000
G1 X78.978 Y36.248 Z-0.053 F1000
G1 X78.646 Y36.248 Z-0.148 F1000
G1 X78.500 Y36.248 Z-0.201 F1000
G1 X78.458 Y36.248 Z-0.210 F1000
G1 X78.416 Y36.248 Z-0.208 F1000
G1 X78.376 Y36.248 Z-0.195 F1000
G1 X78.342 Y36.248 Z-0.182 F1000
G1 X78.306 Y36.248 Z-0.178 F1000
G1 X78.263 Y36.256 Z-0.178 F1000
G1 X78.225 Y36.277 Z-0.178 F1000
G1 X78.197 Y36.311 Z-0.178 F1000
G1 X78.182 Y36.352 Z-0.178 F1000
G1 X78.182 Y36.396 Z-0.178 F1000
G1 X78.197 Y36.437 Z-0.178 F1000
G1 X78.225 Y36.471 Z-0.178 F1000
G1 X78.263 Y36.492 Z-0.178 F1000
G1 X78.306 Y36.500 Z-0.178 F1000
G1 X78.342 Y36.500 Z-0.182 F1000
G1 X78.376 Y36.500 Z-0.195 F1000
G1 X78.416 Y36.500 Z-0.208 F1000
G1 X78.458 Y36.500 Z-0.210 F1000
G1 X78.500 Y36.500 Z-0.201 F1000
G1 X78.646 Y36.500 Z-0.148 F1000
G1 X78.978 Y36.500 Z-0.053 F1000
G1 X79.166 Y36.500 Z-0.025 F1000
G1 X79.209 Y36.500 Z-0.012 F1000
G1 X79.247 Y36.500 Z0.012 F1000
G1 X79.276 Y36.500 Z0.046 F1000
G1 X79.295 Y36.500 Z0.087 F1000
G1 X79.301 Y36.500 Z0.132 F1000
G1 X79.301 Y36.500 Z0.132 F1000
G1 X79.301 Y36.508 Z0.175 F1000
G1 X79.301 Y36.529 Z0.213 F1000
G1 X79.301 Y36.563 Z0.241 F1000
G1 X79.301 Y36.604 Z0.256 F1000
G1 X79.301 Y36.648 Z0.256 F1000
G1 X79.301 Y36.689 Z0.241 F1000
G1 X79.301 Y36.723 Z0.213 F1000
G1 X79.301 Y36.744 Z0.175 F1000
G1 X79.301 Y36.752 Z0.132 F1000
G1 X79.295 Y36.752 Z0.087 F1000
G1 X79.276 Y36.752 Z0.046 F1000
G1 X79.247 Y36.752 Z0.012 F1000
G1 X79.209 Y36.752 Z-0.012 F1000
G1 X79.166 Y36.752 Z-0.025 F1000
G1 X78.978 Y36.752 Z-0.053 F1000
G1 X78.646 Y36.752 Z-0.148 F1000
G1 X78.500 Y36.752 Z-0.201 F1000
G1 X78.458 Y36.752 Z-0.210 F1000
G1 X78.416 Y36.752 Z-0.208 F1000
G1 X78.376 Y36.752 Z-0.195 F1000
G1 X78.376 Y36.752 Z-0.194 F1000
G1 X78.342 Y36.752 Z-0.182 F1000
G1 X78.306 Y36.752 Z-0.178 F1000
G1 X78.263 Y36.760 Z-0.178 F1000
G1 X78.225 Y36.781 Z-0.178 F1000
G1 X78.197 Y36.815 Z-0.178 F1000
G1 X78.182 Y36.856 Z-0.178 F1000
G1 X78.182 Y36.900 Z-0.178 F1000
G1 X78.197 Y36.941 Z-0.178 F1000
G1 X78.225 Y36.975 Z-0.178 F1000
G1 X78.263 Y36.996 Z-0.178 F1000
G1 X78.306 Y37.004 Z-0.178 F1000
G1 X78.310 Y37.004 Z-0.178 F1000
G1 X78.346 Y37.004 Z-0.182 F1000
G1 X78.380 Y37.004 Z-0.194 F1000
G1 X78.420 Y37.004 Z-0.208 F1000
G1 X78.463 Y37.004 Z-0.210 F1000
G1 X78.504 Y37.004 Z-0.201 F1000
G1 X78.504 Y37.004 Z-0.201 F1000
G1 X78.650 Y37.004 Z-0.148 F1000
G1 X78.982 Y37.004 Z-0.053 F1000
G1 X79.171 Y37.004 Z-0.025 F1000
G1 X79.214 Y37.004 Z-0.012 F1000
G1 X79.252 Y37.004 Z0.012 F1000
G1 X79.281 Y37.004 Z0.046 F1000
G1 X79.300 Y37.004 Z0.087 F1000
G1 X79.306 Y37.004 Z0.132 F1000
G1 X79.306 Y37.004 Z0.132 F1000
G1 X79.306 Y37.012 Z0.175 F1000
G1 X79.306 Y37.033 Z0.213 F1000
G1 X79.307 Y37.067 Z0.241 F1000
G1 X79.308 Y37.108 Z0.256 F1000
G1 X79.309 Y37.152 Z0.256 F1000
G1 X79.309 Y37.193 Z0.241 F1000
G1 X79.310 Y37.227 Z0.213 F1000
G1 X79.310 Y37.248 Z0.175 F1000
G1 X79.310 Y37.256 Z0.132 F1000
G1 X79.304 Y37.256 Z0.087 F1000
G1 X79.285 Y37.256 Z0.046 F1000
G1 X79.256 Y37.256 Z0.012 F1000
G1 X79.218 Y37.256 Z-0.012 F1000
G1 X79.175 Y37.256 Z-0.025 F1000
G1 X78.987 Y37.256 Z-0.053 F1000
G1 X78.655 Y37.256 Z-0.148 F1000
G1 X78.509 Y37.256 Z-0.201 F1000
G1 X78.467 Y37.256 Z-0.210 F1000
G1 X78.425 Y37.256 Z-0.208 F1000
G1 X78.385 Y37.256 Z-0.194 F1000
G1 X78.351 Y37.256 Z-0.182 F1000
G1 X78.315 Y37.256 Z-0.178 F1000
G1 X78.272 Y37.264 Z-0.178 F1000
G1 X78.234 Y37.285 Z-0.178 F1000
G1 X78.206 Y37.319 Z-0.178 F1000
G1 X78.191 Y37.360 Z-0.178 F1000
G1 X78.191 Y37.404 Z-0.178 F1000
G1 X78.206 Y37.445 Z-0.178 F1000
G1 X78.234 Y37.478 Z-0.178 F1000
G1 X78.272 Y37.500 Z-0.178 F1000
G1 X78.315 Y37.508 Z-0.178 F1000
G1 X78.319 Y37.508 Z-0.178 F1000
G1 X78.355 Y37.508 Z-0.182 F1000
G1 X78.389 Y37.508 Z-0.194 F1000
G1 X78.429 Y37.508 Z-0.208 F1000
G1 X78.472 Y37.508 Z-0.210 F1000
G1 X78.513 Y37.508 Z-0.201 F1000
G1 X78.513 Y37.508 Z-0.201 F1000
G1 X78.659 Y37.508 Z-0.148 F1000
G1 X78.991 Y37.508 Z-0.053 F1000
G1 X79.180 Y37.508 Z-0.025 F1000
G1 X79.223 Y37.508 Z-0.012 F1000
G1 X79.261 Y37.508 Z0.012 F1000
G1 X79.290 Y37.508 Z0.046 F1000
G1 X79.309 Y37.508 Z0.087 F1000
G1 X79.315 Y37.508 Z0.132 F1000
G1 X79.315 Y37.508 Z0.132 F1000
G1 X79.315 Y37.516 Z0.175 F1000
G1 X79.315 Y37.537 Z0.213 F1000
G1 X79.316 Y37.571 Z0.241 F1000
G1 X79.317 Y37.612 Z0.256 F1000
G1 X79.318 Y37.656 Z0.256 F1000
G1 X79.318 Y37.697 Z0.241 F1000
G1 X79.319 Y37.730 Z0.213 F1000
G1 X79.319 Y37.752 Z0.175 F1000
G1 X79.319 Y37.760 Z0.132 F1000
G1 X79.313 Y37.760 Z0.087 F1000
G1 X79.294 Y37.760 Z0.046 F1000
G1 X79.265 Y37.760 Z0.012 F1000
G1 X79.227 Y37.760 Z-0.012 F1000
G1 X79.184 Y37.760 Z-0.025 F1000
G1 X78.996 Y37.760 Z-0.053 F1000
G1 X78.664 Y37.760 Z-0.148 F1000
G1 X78.518 Y37.760 Z-0.201 F1000
G1 X78.476 Y37.760 Z-0.210 F1000
G1 X78.434 Y37.760 Z-0.208 F1000
G1 X78.393 Y37.760 Z-0.194 F1000
G1 X78.393 Y37.760 Z-0.194 F1000
G1 X78.359 Y37.760 Z-0.182 F1000
G1 X78.324 Y37.760 Z-0.178 F1000
G1 X78.280 Y37.768 Z-0.178 F1000
G1 X78.243 Y37.789 Z-0.178 F1000
G1 X78.214 Y37.823 Z-0.178 F1000
G1 X78.199 Y37.864 Z-0.178 F1000
G1 X78.199 Y37.908 Z-0.178 F1000
G1 X78.214 Y37.949 Z-0.178 F1000
G1 X78.243 Y37.982 Z-0.178 F1000
G1 X78.280 Y38.004 Z-0.178 F1000
G1 X78.324 Y38.012 Z-0.178 F1000
G1 X78.333 Y38.012 Z-0.178 F1000
G1 X78.369 Y38.012 Z-0.182 F1000
G1 X78.403 Y38.012 Z-0.194 F1000
G1 X78.443 Y38.012 Z-0.208 F1000
G1 X78.486 Y38.012 Z-0.210 F1000
G1 X78.527 Y38.012 Z-0.201 F1000
G1 X78.674 Y38.012 Z-0.148 F1000
G1 X79.006 Y38.012 Z-0.053 F1000
G1 X79.194 Y38.012 Z-0.025 F1000
G1 X79.238 Y38.012 Z-0.012 F1000
G1 X79.275 Y38.012 Z0.012 F1000
G1 X79.305 Y38.012 Z0.046 F1000
G1 X79.324 Y38.012 Z0.087 F1000
G1 X79.330 Y38.012 Z0.132 F1000
G1 X79.330 Y38.012 Z0.132 F1000
G1 X79.330 Y38.020 Z0.175 F1000
G1 X79.331 Y38.041 Z0.213 F1000
G1 X79.333 Y38.075 Z0.241 F1000
G1 X79.335 Y38.116 Z0.256 F1000
G1 X79.338 Y38.160 Z0.256 F1000
G1 X79.340 Y38.201 Z0.241 F1000
G1 X79.342 Y38.234 Z0.213 F1000
G1 X79.343 Y38.256 Z0.175 F1000
G1 X79.343 Y38.264 Z0.132 F1000
G1 X79.337 Y38.264 Z0.087 F1000
G1 X79.318 Y38.264 Z0.046 F1000
G1 X79.289 Y38.264 Z0.012 F1000
G1 X79.251 Y38.264 Z-0.012 F1000
G1 X79.208 Y38.264 Z-0.025 F1000
G1 X79.020 Y38.264 Z-0.053 F1000
G1 X78.687 Y38.264 Z-0.147 F1000
G1 X78.541 Y38.264 Z-0.201 F1000
G1 X78.541 Y38.264 Z-0.201 F1000
G1 X78.499 Y38.264 Z-0.210 F1000
G1 X78.457 Y38.264 Z-0.208 F1000
G1 X78.416 Y38.264 Z-0.194 F1000
G1 X78.416 Y38.264 Z-0.194 F1000
G1 X78.382 Y38.264 Z-0.182 F1000
G1 X78.347 Y38.264 Z-0.178 F1000
G1 X78.303 Y38.272 Z-0.178 F1000
G1 X78.266 Y38.293 Z-0.178 F1000
G1 X78.237 Y38.327 Z-0.178 F1000
G1 X78.222 Y38.368 Z-0.178 F1000
G1 X78.222 Y38.412 Z-0.178 F1000
