;Header Start
;header_type: cnc
;tool_head: standardCNCToolheadForSM2
;machine: 
;estimated_time(s): 907
;max_x(mm): 142
;max_y(mm): 68.50000000000001
;max_z(mm): 334
;max_b(mm): 0
;min_x(mm): 5
;min_y(mm): 5
;min_b(mm): 0
;min_z(mm): -9
;work_speed(mm/minute): 300
;jog_speed(mm/minute): 119695
;work_size_x: 320
;work_size_x: 350
;Header End

;Program
; -> Name        : fusion360_calebedits_exported_file
;Machine
; -> Vendor      : Snapmaker
; -> Vendor URL  : http://www.snapmaker.com
; -> Description : Snapmaker 2.0 (Marlin)
;Post-Processor
; -> Author      : Nuno Vaz Oliveira
; -> Version     : v20230108.1
; -> Description : Milling post for Snapmaker 2.0v20230108.1, created by Nuno Vaz Oliveira
;Estiamted Machining Time
; -> 0h  7min  45sec     : Operation Parallel2
; -> 0h  7min  21sec     : Operation 2D Contour2
; -> 0h  15min  7sec     : Total

G21
G90
G0 Z15.000
M3 P100
G4 S2
G0 X5.670 Y5.001 Z15.000
G1 X5.670 Y5.001 Z15.000 F300
G1 X5.670 Y5.001 Z1.876 F300
G1 X5.670 Y5.001 Z0.117 F300
G1 X5.678 Y5.001 Z0.046 F300
G1 X5.701 Y5.001 Z-0.021 F300
G1 X5.739 Y5.001 Z-0.081 F300
G1 X5.789 Y5.001 Z-0.131 F300
G1 X5.849 Y5.001 Z-0.169 F300
G1 X5.917 Y5.001 Z-0.193 F300
G1 X5.987 Y5.001 Z-0.201 F300
G1 X67.513 Y5.001 Z-0.201 F300
G1 X67.562 Y5.001 Z-0.193 F300
G1 X67.606 Y5.001 Z-0.170 F300
G1 X67.641 Y5.001 Z-0.135 F300
G1 X67.664 Y5.001 Z-0.091 F300
G1 X67.672 Y5.001 Z-0.042 F300
G1 X67.679 Y5.004 Z0.033 F300
G1 X67.701 Y5.012 Z0.105 F300
G1 X67.736 Y5.025 Z0.170 F300
G1 X67.783 Y5.043 Z0.226 F300
G1 X67.841 Y5.064 Z0.271 F300
G1 X67.905 Y5.088 Z0.301 F300
G1 X67.974 Y5.114 Z0.317 F300
G1 X68.045 Y5.140 Z0.317 F300
G1 X68.114 Y5.166 Z0.301 F300
G1 X68.179 Y5.190 Z0.271 F300
G1 X68.236 Y5.212 Z0.226 F300
G1 X68.283 Y5.229 Z0.170 F300
G1 X68.318 Y5.242 Z0.105 F300
G1 X68.340 Y5.250 Z0.033 F300
G1 X68.348 Y5.253 Z-0.042 F300
G1 X68.348 Y5.253 Z-0.044 F300
G1 X68.341 Y5.253 Z-0.090 F300
G1 X68.321 Y5.253 Z-0.132 F300
G1 X68.290 Y5.253 Z-0.167 F300
G1 X68.250 Y5.253 Z-0.191 F300
G1 X68.205 Y5.253 Z-0.202 F300
G1 X68.159 Y5.253 Z-0.200 F300
G1 X67.786 Y5.253 Z-0.128 F300
G1 X67.548 Y5.253 Z-0.115 F300
G1 X5.869 Y5.253 Z-0.119 F300
G1 X5.664 Y5.253 Z-0.134 F300
G1 X5.341 Y5.253 Z-0.203 F300
G1 X5.294 Y5.253 Z-0.206 F300
G1 X5.249 Y5.253 Z-0.195 F300
G1 X5.208 Y5.253 Z-0.171 F300
G1 X5.176 Y5.253 Z-0.137 F300
G1 X5.156 Y5.253 Z-0.094 F300
G1 X5.149 Y5.253 Z-0.048 F300
G1 X5.145 Y5.258 Z-0.001 F300
G1 X5.132 Y5.273 Z0.043 F300
G1 X5.111 Y5.297 Z0.079 F300
G1 X5.085 Y5.327 Z0.105 F300
G1 X5.054 Y5.361 Z0.118 F300
G1 X5.023 Y5.397 Z0.118 F300
G1 X4.992 Y5.432 Z0.105 F300
G1 X4.966 Y5.462 Z0.079 F300
G1 X4.945 Y5.485 Z0.043 F300
G1 X4.932 Y5.500 Z-0.001 F300
G1 X4.928 Y5.505 Z-0.048 F300
G1 X4.928 Y5.505 Z-0.053 F300
G1 X4.935 Y5.505 Z-0.102 F300
G1 X4.958 Y5.505 Z-0.146 F300
G1 X4.993 Y5.505 Z-0.182 F300
G1 X5.038 Y5.505 Z-0.204 F300
G1 X5.087 Y5.505 Z-0.212 F300
G1 X5.136 Y5.505 Z-0.204 F300
G1 X5.274 Y5.505 Z-0.159 F300
G1 X5.652 Y5.505 Z-0.075 F300
G1 X5.878 Y5.505 Z-0.052 F300
G1 X67.504 Y5.505 Z-0.048 F300
G1 X67.812 Y5.505 Z-0.071 F300
G1 X68.138 Y5.505 Z-0.137 F300
G1 X68.364 Y5.505 Z-0.203 F300
G1 X68.365 Y5.505 Z-0.203 F300
G1 X68.403 Y5.505 Z-0.209 F300
G1 X68.442 Y5.505 Z-0.206 F300
G1 X68.479 Y5.505 Z-0.193 F300
G1 X68.510 Y5.505 Z-0.183 F300
G1 X68.543 Y5.505 Z-0.179 F300
G1 X68.659 Y5.505 Z-0.179 F300
G1 X68.702 Y5.513 Z-0.179 F300
G1 X68.740 Y5.535 Z-0.179 F300
G1 X68.768 Y5.568 Z-0.179 F300
G1 X68.783 Y5.609 Z-0.179 F300
G1 X68.783 Y5.653 Z-0.179 F300
G1 X68.768 Y5.694 Z-0.179 F300
G1 X68.740 Y5.728 Z-0.179 F300
G1 X68.702 Y5.750 Z-0.179 F300
G1 X68.659 Y5.757 Z-0.179 F300
G1 X68.626 Y5.757 Z-0.183 F300
G1 X68.595 Y5.757 Z-0.193 F300
G1 X68.589 Y5.757 Z-0.196 F300
G1 X68.549 Y5.757 Z-0.209 F300
G1 X68.507 Y5.757 Z-0.211 F300
G1 X68.466 Y5.757 Z-0.203 F300
G1 X68.237 Y5.757 Z-0.122 F300
G1 X67.923 Y5.757 Z-0.047 F300
G1 X67.740 Y5.757 Z-0.027 F300
G1 X67.717 Y5.757 Z-0.023 F300
G1 X67.696 Y5.759 Z-0.017 F300
G1 X67.675 Y5.765 Z-0.011 F300
G1 X67.656 Y5.774 Z-0.005 F300
G1 X67.639 Y5.787 Z0.001 F300
G1 X67.624 Y5.802 Z0.007 F300
G1 X67.613 Y5.820 Z0.012 F300
G1 X67.604 Y5.840 Z0.016 F300
G1 X67.599 Y5.861 Z0.020 F300
G1 X67.598 Y5.883 Z0.022 F300
G1 X67.600 Y5.905 Z0.024 F300
G1 X67.606 Y5.926 Z0.025 F300
G1 X67.616 Y5.946 Z0.024 F300
G1 X67.629 Y5.964 Z0.023 F300
G1 X67.644 Y5.980 Z0.020 F300
G1 X67.662 Y5.992 Z0.017 F300
G1 X67.682 Y6.002 Z0.013 F300
G1 X67.702 Y6.007 Z0.008 F300
G1 X67.724 Y6.009 Z0.003 F300
G1 X67.818 Y6.009 Z-0.022 F300
G1 X67.834 Y6.009 Z-0.025 F300
G1 X68.049 Y6.009 Z-0.059 F300
G1 X68.232 Y6.009 Z-0.111 F300
G1 X68.500 Y6.009 Z-0.201 F300
G1 X68.540 Y6.009 Z-0.209 F300
G1 X68.582 Y6.009 Z-0.206 F300
G1 X68.621 Y6.009 Z-0.193 F300
G1 X68.655 Y6.009 Z-0.181 F300
G1 X68.690 Y6.009 Z-0.177 F300
G1 X68.734 Y6.017 Z-0.177 F300
G1 X68.771 Y6.039 Z-0.177 F300
G1 X68.800 Y6.072 Z-0.177 F300
G1 X68.815 Y6.113 Z-0.177 F300
G1 X68.815 Y6.157 Z-0.177 F300
G1 X68.800 Y6.198 Z-0.177 F300
G1 X68.771 Y6.232 Z-0.177 F300
G1 X68.734 Y6.254 Z-0.177 F300
G1 X68.690 Y6.261 Z-0.177 F300
G1 X68.655 Y6.261 Z-0.181 F300
G1 X68.621 Y6.261 Z-0.193 F300
G1 X68.582 Y6.261 Z-0.206 F300
G1 X68.540 Y6.261 Z-0.209 F300
G1 X68.500 Y6.261 Z-0.201 F300
G1 X68.232 Y6.261 Z-0.111 F300
G1 X68.049 Y6.261 Z-0.059 F300
G1 X67.834 Y6.261 Z-0.025 F300
G1 X67.818 Y6.261 Z-0.022 F300
G1 X67.797 Y6.263 Z-0.016 F300
G1 X67.776 Y6.269 Z-0.011 F300
G1 X67.757 Y6.278 Z-0.006 F300
G1 X67.740 Y6.291 Z-0.001 F300
G1 X67.725 Y6.306 Z0.003 F300
G1 X67.713 Y6.324 Z0.006 F300
G1 X67.704 Y6.344 Z0.008 F300
G1 X67.698 Y6.365 Z0.010 F300
G1 X67.696 Y6.387 Z0.010 F300
G1 X67.698 Y6.409 Z0.010 F300
G1 X67.704 Y6.430 Z0.008 F300
G1 X67.713 Y6.450 Z0.006 F300
G1 X67.725 Y6.468 Z0.003 F300
G1 X67.740 Y6.484 Z-0.001 F300
G1 X67.757 Y6.496 Z-0.006 F300
G1 X67.776 Y6.506 Z-0.011 F300
G1 X67.797 Y6.511 Z-0.016 F300
G1 X67.818 Y6.513 Z-0.022 F300
G1 X67.834 Y6.513 Z-0.025 F300
G1 X68.049 Y6.513 Z-0.059 F300
G1 X68.232 Y6.513 Z-0.111 F300
G1 X68.500 Y6.513 Z-0.201 F300
G1 X68.540 Y6.513 Z-0.209 F300
G1 X68.582 Y6.513 Z-0.206 F300
G1 X68.621 Y6.513 Z-0.193 F300
G1 X68.655 Y6.513 Z-0.181 F300
G1 X68.690 Y6.513 Z-0.177 F300
G1 X68.734 Y6.521 Z-0.177 F300
G1 X68.771 Y6.543 Z-0.177 F300
G1 X68.800 Y6.576 Z-0.177 F300
G1 X68.815 Y6.617 Z-0.177 F300
G1 X68.815 Y6.661 Z-0.177 F300
G1 X68.800 Y6.702 Z-0.177 F300
G1 X68.771 Y6.736 Z-0.177 F300
G1 X68.734 Y6.758 Z-0.177 F300
G1 X68.690 Y6.765 Z-0.177 F300
G1 X68.655 Y6.765 Z-0.181 F300
G1 X68.621 Y6.765 Z-0.193 F300
G1 X68.582 Y6.765 Z-0.206 F300
G1 X68.540 Y6.765 Z-0.209 F300
G1 X68.500 Y6.765 Z-0.201 F300
G1 X68.232 Y6.765 Z-0.111 F300
G1 X68.049 Y6.765 Z-0.059 F300
G1 X67.834 Y6.765 Z-0.025 F300
G1 X67.818 Y6.765 Z-0.022 F300
G1 X67.797 Y6.767 Z-0.016 F300
G1 X67.776 Y6.773 Z-0.011 F300
G1 X67.757 Y6.782 Z-0.006 F300
G1 X67.740 Y6.795 Z-0.001 F300
G1 X67.725 Y6.810 Z0.003 F300
G1 X67.713 Y6.828 Z0.006 F300
G1 X67.704 Y6.848 Z0.008 F300
G1 X67.698 Y6.869 Z0.010 F300
G1 X67.696 Y6.891 Z0.010 F300
G1 X67.698 Y6.913 Z0.010 F300
G1 X67.704 Y6.934 Z0.008 F300
G1 X67.713 Y6.954 Z0.006 F300
G1 X67.725 Y6.972 Z0.003 F300
G1 X67.740 Y6.988 Z-0.001 F300
G1 X67.757 Y7.000 Z-0.006 F300
G1 X67.776 Y7.010 Z-0.011 F300
G1 X67.797 Y7.015 Z-0.016 F300
G1 X67.818 Y7.017 Z-0.022 F300
G1 X67.834 Y7.017 Z-0.025 F300
G1 X68.049 Y7.017 Z-0.059 F300
G1 X68.232 Y7.017 Z-0.111 F300
G1 X68.500 Y7.017 Z-0.201 F300
G1 X68.540 Y7.017 Z-0.209 F300
G1 X68.582 Y7.017 Z-0.206 F300
G1 X68.621 Y7.017 Z-0.193 F300
G1 X68.655 Y7.017 Z-0.181 F300
G1 X68.690 Y7.017 Z-0.177 F300
G1 X68.734 Y7.025 Z-0.177 F300
G1 X68.771 Y7.047 Z-0.177 F300
G1 X68.800 Y7.080 Z-0.177 F300
G1 X68.815 Y7.121 Z-0.177 F300
G1 X68.815 Y7.165 Z-0.177 F300
G1 X68.800 Y7.206 Z-0.177 F300
G1 X68.771 Y7.240 Z-0.177 F300
G1 X68.734 Y7.262 Z-0.177 F300
G1 X68.690 Y7.269 Z-0.177 F300
G1 X68.655 Y7.269 Z-0.181 F300
G1 X68.621 Y7.269 Z-0.193 F300
G1 X68.582 Y7.269 Z-0.206 F300
G1 X68.540 Y7.269 Z-0.209 F300
G1 X68.500 Y7.269 Z-0.201 F300
G1 X68.232 Y7.269 Z-0.111 F300
G1 X68.049 Y7.269 Z-0.059 F300
G1 X67.834 Y7.269 Z-0.025 F300
G1 X67.818 Y7.269 Z-0.022 F300
G1 X67.797 Y7.271 Z-0.016 F300
G1 X67.776 Y7.277 Z-0.011 F300
G1 X67.757 Y7.286 Z-0.006 F300
G1 X67.740 Y7.299 Z-0.001 F300
G1 X67.725 Y7.314 Z0.003 F300
G1 X67.713 Y7.332 Z0.006 F300
G1 X67.704 Y7.352 Z0.008 F300
G1 X67.698 Y7.373 Z0.010 F300
G1 X67.696 Y7.395 Z0.010 F300
G1 X67.698 Y7.417 Z0.010 F300
G1 X67.704 Y7.438 Z0.008 F300
G1 X67.713 Y7.458 Z0.006 F300
G1 X67.725 Y7.476 Z0.003 F300
G1 X67.740 Y7.492 Z-0.001 F300
G1 X67.757 Y7.504 Z-0.006 F300
G1 X67.776 Y7.514 Z-0.011 F300
G1 X67.797 Y7.519 Z-0.016 F300
G1 X67.818 Y7.521 Z-0.022 F300
G1 X67.834 Y7.521 Z-0.025 F300
G1 X68.049 Y7.521 Z-0.059 F300
G1 X68.232 Y7.521 Z-0.111 F300
G1 X68.500 Y7.521 Z-0.201 F300
G1 X68.540 Y7.521 Z-0.209 F300
G1 X68.582 Y7.521 Z-0.206 F300
G1 X68.621 Y7.521 Z-0.193 F300
G1 X68.655 Y7.521 Z-0.181 F300
G1 X68.690 Y7.521 Z-0.177 F300
G1 X68.734 Y7.529 Z-0.177 F300
G1 X68.771 Y7.551 Z-0.177 F300
G1 X68.800 Y7.584 Z-0.177 F300
G1 X68.815 Y7.625 Z-0.177 F300
G1 X68.815 Y7.669 Z-0.177 F300
G1 X68.800 Y7.710 Z-0.177 F300
G1 X68.771 Y7.744 Z-0.177 F300
G1 X68.734 Y7.766 Z-0.177 F300
G1 X68.690 Y7.773 Z-0.177 F300
G1 X68.655 Y7.773 Z-0.181 F300
G1 X68.621 Y7.773 Z-0.193 F300
G1 X68.582 Y7.773 Z-0.206 F300
G1 X68.540 Y7.773 Z-0.209 F300
G1 X68.500 Y7.773 Z-0.201 F300
G1 X68.232 Y7.773 Z-0.111 F300
G1 X68.049 Y7.773 Z-0.059 F300
G1 X67.834 Y7.773 Z-0.025 F300
G1 X67.818 Y7.773 Z-0.022 F300
G1 X67.797 Y7.775 Z-0.016 F300
G1 X67.776 Y7.781 Z-0.011 F300
G1 X67.757 Y7.790 Z-0.006 F300
G1 X67.740 Y7.803 Z-0.001 F300
G1 X67.725 Y7.818 Z0.003 F300
G1 X67.713 Y7.836 Z0.006 F300
G1 X67.704 Y7.856 Z0.008 F300
G1 X67.698 Y7.877 Z0.010 F300
G1 X67.696 Y7.899 Z0.010 F300
G1 X67.698 Y7.921 Z0.010 F300
G1 X67.704 Y7.942 Z0.008 F300
G1 X67.713 Y7.962 Z0.006 F300
G1 X67.725 Y7.980 Z0.003 F300
G1 X67.740 Y7.996 Z-0.001 F300
G1 X67.757 Y8.008 Z-0.006 F300
G1 X67.776 Y8.018 Z-0.011 F300
G1 X67.797 Y8.023 Z-0.016 F300
G1 X67.818 Y8.025 Z-0.022 F300
G1 X67.834 Y8.025 Z-0.025 F300
G1 X68.049 Y8.025 Z-0.059 F300
G1 X68.232 Y8.025 Z-0.111 F300
G1 X68.500 Y8.025 Z-0.201 F300
G1 X68.540 Y8.025 Z-0.209 F300
G1 X68.582 Y8.025 Z-0.206 F300
G1 X68.621 Y8.025 Z-0.193 F300
G1 X68.655 Y8.025 Z-0.181 F300
G1 X68.690 Y8.025 Z-0.177 F300
G1 X68.734 Y8.033 Z-0.177 F300
G1 X68.771 Y8.055 Z-0.177 F300
G1 X68.800 Y8.088 Z-0.177 F300
G1 X68.815 Y8.129 Z-0.177 F300
G1 X68.815 Y8.173 Z-0.177 F300
G1 X68.800 Y8.214 Z-0.177 F300
G1 X68.771 Y8.248 Z-0.177 F300
G1 X68.734 Y8.270 Z-0.177 F300
G1 X68.690 Y8.277 Z-0.177 F300
G1 X68.655 Y8.277 Z-0.181 F300
G1 X68.621 Y8.277 Z-0.193 F300
G1 X68.582 Y8.277 Z-0.206 F300
G1 X68.540 Y8.277 Z-0.209 F300
G1 X68.500 Y8.277 Z-0.201 F300
G1 X68.232 Y8.277 Z-0.111 F300
G1 X68.049 Y8.277 Z-0.059 F300
G1 X67.834 Y8.277 Z-0.025 F300
G1 X67.818 Y8.277 Z-0.022 F300
G1 X67.797 Y8.279 Z-0.016 F300
G1 X67.776 Y8.285 Z-0.011 F300
G1 X67.757 Y8.294 Z-0.006 F300
G1 X67.740 Y8.307 Z-0.001 F300
G1 X67.725 Y8.322 Z0.003 F300
G1 X67.713 Y8.340 Z0.006 F300
G1 X67.704 Y8.360 Z0.008 F300
G1 X67.698 Y8.381 Z0.010 F300
G1 X67.696 Y8.403 Z0.010 F300
G1 X67.698 Y8.425 Z0.010 F300
G1 X67.704 Y8.446 Z0.008 F300
G1 X67.713 Y8.466 Z0.006 F300
G1 X67.725 Y8.484 Z0.003 F300
G1 X67.740 Y8.500 Z-0.001 F300
G1 X67.757 Y8.512 Z-0.006 F300
G1 X67.776 Y8.522 Z-0.011 F300
G1 X67.797 Y8.527 Z-0.016 F300
G1 X67.818 Y8.529 Z-0.022 F300
G1 X67.834 Y8.529 Z-0.025 F300
G1 X68.049 Y8.529 Z-0.059 F300
G1 X68.232 Y8.529 Z-0.111 F300
G1 X68.500 Y8.529 Z-0.201 F300
G1 X68.540 Y8.529 Z-0.209 F300
G1 X68.582 Y8.529 Z-0.206 F300
G1 X68.621 Y8.529 Z-0.193 F300
G1 X68.655 Y8.529 Z-0.181 F300
G1 X68.690 Y8.529 Z-0.177 F300
G1 X68.734 Y8.537 Z-0.177 F300
G1 X68.771 Y8.559 Z-0.177 F300
G1 X68.800 Y8.592 Z-0.177 F300
G1 X68.815 Y8.633 Z-0.177 F300
G1 X68.815 Y8.677 Z-0.177 F300
G1 X68.800 Y8.718 Z-0.177 F300
G1 X68.771 Y8.752 Z-0.177 F300
G1 X68.734 Y8.774 Z-0.177 F300
G1 X68.690 Y8.781 Z-0.177 F300
G1 X68.655 Y8.781 Z-0.181 F300
G1 X68.621 Y8.781 Z-0.193 F300
G1 X68.582 Y8.781 Z-0.206 F300
G1 X68.540 Y8.781 Z-0.209 F300
G1 X68.500 Y8.781 Z-0.201 F300
G1 X68.232 Y8.781 Z-0.111 F300
G1 X68.049 Y8.781 Z-0.059 F300
G1 X67.834 Y8.781 Z-0.025 F300
G1 X67.818 Y8.781 Z-0.022 F300
G1 X67.797 Y8.783 Z-0.016 F300
G1 X67.776 Y8.789 Z-0.011 F300
G1 X67.757 Y8.798 Z-0.006 F300
G1 X67.740 Y8.811 Z-0.001 F300
G1 X67.725 Y8.826 Z0.003 F300
G1 X67.713 Y8.844 Z0.006 F300
G1 X67.704 Y8.864 Z0.008 F300
G1 X67.698 Y8.885 Z0.010 F300
G1 X67.696 Y8.907 Z0.010 F300
G1 X67.698 Y8.929 Z0.010 F300
G1 X67.704 Y8.950 Z0.008 F300
G1 X67.713 Y8.970 Z0.006 F300
G1 X67.725 Y8.988 Z0.003 F300
G1 X67.740 Y9.004 Z-0.001 F300
G1 X67.757 Y9.016 Z-0.006 F300
G1 X67.776 Y9.026 Z-0.011 F300
G1 X67.797 Y9.031 Z-0.016 F300
G1 X67.818 Y9.033 Z-0.022 F300
G1 X67.834 Y9.033 Z-0.025 F300
G1 X68.049 Y9.033 Z-0.059 F300
G1 X68.232 Y9.033 Z-0.111 F300
G1 X68.500 Y9.033 Z-0.201 F300
G1 X68.540 Y9.033 Z-0.209 F300
G1 X68.582 Y9.033 Z-0.206 F300
G1 X68.621 Y9.033 Z-0.193 F300
G1 X68.655 Y9.033 Z-0.181 F300
G1 X68.690 Y9.033 Z-0.177 F300
G1 X68.734 Y9.041 Z-0.177 F300
G1 X68.771 Y9.063 Z-0.177 F300
G1 X68.800 Y9.096 Z-0.177 F300
G1 X68.815 Y9.137 Z-0.177 F300
G1 X68.815 Y9.181 Z-0.177 F300
G1 X68.800 Y9.222 Z-0.177 F300
G1 X68.771 Y9.256 Z-0.177 F300
G1 X68.734 Y9.277 Z-0.177 F300
G1 X68.690 Y9.285 Z-0.177 F300
G1 X68.655 Y9.285 Z-0.181 F300
G1 X68.621 Y9.285 Z-0.193 F300
G1 X68.582 Y9.285 Z-0.206 F300
G1 X68.540 Y9.285 Z-0.209 F300
G1 X68.500 Y9.285 Z-0.201 F300
G1 X68.232 Y9.285 Z-0.111 F300
G1 X68.049 Y9.285 Z-0.059 F300
G1 X67.834 Y9.285 Z-0.025 F300
G1 X67.818 Y9.285 Z-0.022 F300
G1 X67.797 Y9.287 Z-0.016 F300
G1 X67.776 Y9.293 Z-0.011 F300
G1 X67.757 Y9.302 Z-0.006 F300
G1 X67.740 Y9.315 Z-0.001 F300
G1 X67.725 Y9.330 Z0.003 F300
G1 X67.713 Y9.348 Z0.006 F300
G1 X67.704 Y9.368 Z0.008 F300
G1 X67.698 Y9.389 Z0.010 F300
G1 X67.696 Y9.411 Z0.010 F300
G1 X67.698 Y9.433 Z0.010 F300
G1 X67.704 Y9.454 Z0.008 F300
G1 X67.713 Y9.474 Z0.006 F300
G1 X67.725 Y9.492 Z0.003 F300
G1 X67.740 Y9.508 Z-0.001 F300
G1 X67.757 Y9.520 Z-0.006 F300
G1 X67.776 Y9.529 Z-0.011 F300
G1 X67.797 Y9.535 Z-0.016 F300
G1 X67.818 Y9.537 Z-0.022 F300
G1 X67.834 Y9.537 Z-0.025 F300
G1 X68.049 Y9.537 Z-0.059 F300
G1 X68.232 Y9.537 Z-0.111 F300
G1 X68.500 Y9.537 Z-0.201 F300
G1 X68.540 Y9.537 Z-0.209 F300
G1 X68.582 Y9.537 Z-0.206 F300
G1 X68.621 Y9.537 Z-0.193 F300
G1 X68.655 Y9.537 Z-0.181 F300
G1 X68.690 Y9.537 Z-0.177 F300
G1 X68.734 Y9.545 Z-0.177 F300
G1 X68.771 Y9.567 Z-0.177 F300
G1 X68.800 Y9.600 Z-0.177 F300
G1 X68.815 Y9.641 Z-0.177 F300
G1 X68.815 Y9.685 Z-0.177 F300
G1 X68.800 Y9.726 Z-0.177 F300
G1 X68.771 Y9.760 Z-0.177 F300
G1 X68.734 Y9.781 Z-0.177 F300
G1 X68.690 Y9.789 Z-0.177 F300
G1 X68.655 Y9.789 Z-0.181 F300
G1 X68.621 Y9.789 Z-0.193 F300
G1 X68.582 Y9.789 Z-0.206 F300
G1 X68.540 Y9.789 Z-0.209 F300
G1 X68.500 Y9.789 Z-0.201 F300
G1 X68.232 Y9.789 Z-0.111 F300
G1 X68.049 Y9.789 Z-0.059 F300
G1 X67.834 Y9.789 Z-0.025 F300
G1 X67.818 Y9.789 Z-0.022 F300
G1 X67.797 Y9.791 Z-0.016 F300
G1 X67.776 Y9.797 Z-0.011 F300
G1 X67.757 Y9.806 Z-0.006 F300
G1 X67.740 Y9.819 Z-0.001 F300
G1 X67.725 Y9.834 Z0.003 F300
G1 X67.713 Y9.852 Z0.006 F300
G1 X67.704 Y9.872 Z0.008 F300
G1 X67.698 Y9.893 Z0.010 F300
G1 X67.696 Y9.915 Z0.010 F300
G1 X67.698 Y9.937 Z0.010 F300
G1 X67.704 Y9.958 Z0.008 F300
G1 X67.713 Y9.978 Z0.006 F300
G1 X67.725 Y9.996 Z0.003 F300
G1 X67.740 Y10.012 Z-0.001 F300
G1 X67.757 Y10.024 Z-0.006 F300
G1 X67.776 Y10.033 Z-0.011 F300
G1 X67.797 Y10.039 Z-0.016 F300
G1 X67.818 Y10.041 Z-0.022 F300
G1 X67.834 Y10.041 Z-0.025 F300
G1 X68.049 Y10.041 Z-0.059 F300
G1 X68.232 Y10.041 Z-0.111 F300
G1 X68.500 Y10.041 Z-0.201 F300
G1 X68.540 Y10.041 Z-0.209 F300
G1 X68.582 Y10.041 Z-0.206 F300
G1 X68.621 Y10.041 Z-0.193 F300
G1 X68.655 Y10.041 Z-0.181 F300
G1 X68.690 Y10.041 Z-0.177 F300
G1 X68.734 Y10.049 Z-0.177 F300
G1 X68.771 Y10.071 Z-0.177 F300
G1 X68.800 Y10.104 Z-0.177 F300
G1 X68.815 Y10.145 Z-0.177 F300
G1 X68.815 Y10.189 Z-0.177 F300
G1 X68.800 Y10.230 Z-0.177 F300
G1 X68.771 Y10.264 Z-0.177 F300
G1 X68.734 Y10.285 Z-0.177 F300
G1 X68.690 Y10.293 Z-0.177 F300
G1 X68.655 Y10.293 Z-0.181 F300
G1 X68.621 Y10.293 Z-0.193 F300
G1 X68.582 Y10.293 Z-0.206 F300
G1 X68.540 Y10.293 Z-0.209 F300
G1 X68.500 Y10.293 Z-0.201 F300
G1 X68.232 Y10.293 Z-0.111 F300
G1 X68.049 Y10.293 Z-0.059 F300
G1 X67.834 Y10.293 Z-0.025 F300
G1 X67.818 Y10.293 Z-0.022 F300
G1 X67.797 Y10.295 Z-0.016 F300
G1 X67.776 Y10.301 Z-0.011 F300
G1 X67.757 Y10.310 Z-0.006 F300
G1 X67.740 Y10.323 Z-0.001 F300
G1 X67.725 Y10.338 Z0.003 F300
G1 X67.713 Y10.356 Z0.006 F300
G1 X67.704 Y10.376 Z0.008 F300
G1 X67.698 Y10.397 Z0.010 F300
G1 X67.696 Y10.419 Z0.010 F300
G1 X67.698 Y10.441 Z0.010 F300
G1 X67.704 Y10.462 Z0.008 F300
G1 X67.713 Y10.482 Z0.006 F300
G1 X67.725 Y10.500 Z0.003 F300
G1 X67.740 Y10.516 Z-0.001 F300
G1 X67.757 Y10.528 Z-0.006 F300
G1 X67.776 Y10.537 Z-0.011 F300
G1 X67.797 Y10.543 Z-0.016 F300
G1 X67.818 Y10.545 Z-0.022 F300
G1 X67.834 Y10.545 Z-0.025 F300
G1 X68.049 Y10.545 Z-0.059 F300
G1 X68.232 Y10.545 Z-0.111 F300
G1 X68.500 Y10.545 Z-0.201 F300
G1 X68.540 Y10.545 Z-0.209 F300
G1 X68.582 Y10.545 Z-0.206 F300
G1 X68.621 Y10.545 Z-0.193 F300
G1 X68.655 Y10.545 Z-0.181 F300
G1 X68.690 Y10.545 Z-0.177 F300
G1 X68.734 Y10.553 Z-0.177 F300
G1 X68.771 Y10.575 Z-0.177 F300
G1 X68.800 Y10.608 Z-0.177 F300
G1 X68.815 Y10.649 Z-0.177 F300
G1 X68.815 Y10.693 Z-0.177 F300
G1 X68.800 Y10.734 Z-0.177 F300
G1 X68.771 Y10.768 Z-0.177 F300
G1 X68.734 Y10.789 Z-0.177 F300
G1 X68.690 Y10.797 Z-0.177 F300
G1 X68.655 Y10.797 Z-0.181 F300
G1 X68.621 Y10.797 Z-0.193 F300
G1 X68.582 Y10.797 Z-0.206 F300
G1 X68.540 Y10.797 Z-0.209 F300
G1 X68.500 Y10.797 Z-0.201 F300
G1 X68.232 Y10.797 Z-0.111 F300
G1 X68.049 Y10.797 Z-0.059 F300
G1 X67.834 Y10.797 Z-0.025 F300
G1 X67.818 Y10.797 Z-0.022 F300
G1 X67.797 Y10.799 Z-0.016 F300
G1 X67.776 Y10.805 Z-0.011 F300
G1 X67.757 Y10.814 Z-0.006 F300
G1 X67.740 Y10.827 Z-0.001 F300
G1 X67.725 Y10.842 Z0.003 F300
G1 X67.713 Y10.860 Z0.006 F300
G1 X67.704 Y10.880 Z0.008 F300
G1 X67.698 Y10.901 Z0.010 F300
G1 X67.696 Y10.923 Z0.010 F300
G1 X67.698 Y10.945 Z0.010 F300
G1 X67.704 Y10.966 Z0.008 F300
G1 X67.713 Y10.986 Z0.006 F300
G1 X67.725 Y11.004 Z0.003 F300
G1 X67.740 Y11.020 Z-0.001 F300
G1 X67.757 Y11.032 Z-0.006 F300
G1 X67.776 Y11.041 Z-0.011 F300
G1 X67.797 Y11.047 Z-0.016 F300
G1 X67.818 Y11.049 Z-0.022 F300
G1 X67.834 Y11.049 Z-0.025 F300
G1 X68.049 Y11.049 Z-0.059 F300
G1 X68.232 Y11.049 Z-0.111 F300
G1 X68.500 Y11.049 Z-0.201 F300
G1 X68.540 Y11.049 Z-0.209 F300
G1 X68.582 Y11.049 Z-0.206 F300
G1 X68.621 Y11.049 Z-0.193 F300
G1 X68.655 Y11.049 Z-0.181 F300
G1 X68.690 Y11.049 Z-0.177 F300
G1 X68.734 Y11.057 Z-0.177 F300
G1 X68.771 Y11.078 Z-0.177 F300
G1 X68.800 Y11.112 Z-0.177 F300
G1 X68.815 Y11.153 Z-0.177 F300
G1 X68.815 Y11.197 Z-0.177 F300
G1 X68.800 Y11.238 Z-0.177 F300
G1 X68.771 Y11.272 Z-0.177 F300
G1 X68.734 Y11.293 Z-0.177 F300
G1 X68.690 Y11.301 Z-0.177 F300
G1 X68.655 Y11.301 Z-0.181 F300
G1 X68.621 Y11.301 Z-0.193 F300
G1 X68.582 Y11.301 Z-0.206 F300
G1 X68.540 Y11.301 Z-0.209 F300
G1 X68.500 Y11.301 Z-0.201 F300
G1 X68.232 Y11.301 Z-0.111 F300
G1 X68.049 Y11.301 Z-0.059 F300
G1 X67.834 Y11.301 Z-0.025 F300
G1 X67.818 Y11.301 Z-0.022 F300
G1 X67.797 Y11.303 Z-0.016 F300
G1 X67.776 Y11.309 Z-0.011 F300
G1 X67.757 Y11.318 Z-0.006 F300
G1 X67.740 Y11.330 Z-0.001 F300
G1 X67.725 Y11.346 Z0.003 F300
G1 X67.713 Y11.364 Z0.006 F300
G1 X67.704 Y11.384 Z0.008 F300
G1 X67.698 Y11.405 Z0.010 F300
G1 X67.696 Y11.427 Z0.010 F300
G1 X67.698 Y11.449 Z0.010 F300
G1 X67.704 Y11.470 Z0.008 F300
G1 X67.713 Y11.490 Z0.006 F300
G1 X67.725 Y11.508 Z0.003 F300
G1 X67.740 Y11.524 Z-0.001 F300
G1 X67.757 Y11.536 Z-0.006 F300
G1 X67.776 Y11.545 Z-0.011 F300
G1 X67.797 Y11.551 Z-0.016 F300
G1 X67.818 Y11.553 Z-0.022 F300
G1 X67.834 Y11.553 Z-0.025 F300
G1 X68.049 Y11.553 Z-0.059 F300
G1 X68.232 Y11.553 Z-0.111 F300
G1 X68.500 Y11.553 Z-0.201 F300
G1 X68.540 Y11.553 Z-0.209 F300
G1 X68.582 Y11.553 Z-0.206 F300
G1 X68.621 Y11.553 Z-0.193 F300
G1 X68.655 Y11.553 Z-0.181 F300
G1 X68.690 Y11.553 Z-0.177 F300
G1 X68.734 Y11.561 Z-0.177 F300
G1 X68.771 Y11.582 Z-0.177 F300
G1 X68.800 Y11.616 Z-0.177 F300
G1 X68.815 Y11.657 Z-0.177 F300
G1 X68.815 Y11.701 Z-0.177 F300
G1 X68.800 Y11.742 Z-0.177 F300
G1 X68.771 Y11.776 Z-0.177 F300
G1 X68.734 Y11.797 Z-0.177 F300
G1 X68.690 Y11.805 Z-0.177 F300
G1 X68.655 Y11.805 Z-0.181 F300
G1 X68.621 Y11.805 Z-0.193 F300
G1 X68.582 Y11.805 Z-0.206 F300
G1 X68.540 Y11.805 Z-0.209 F300
G1 X68.500 Y11.805 Z-0.201 F300
G1 X68.232 Y11.805 Z-0.111 F300
G1 X68.049 Y11.805 Z-0.059 F300
G1 X67.834 Y11.805 Z-0.025 F300
G1 X67.818 Y11.805 Z-0.022 F300
G1 X67.797 Y11.807 Z-0.016 F300
G1 X67.776 Y11.813 Z-0.011 F300
G1 X67.757 Y11.822 Z-0.006 F300
G1 X67.740 Y11.834 Z-0.001 F300
G1 X67.725 Y11.850 Z0.003 F300
G1 X67.713 Y11.868 Z0.006 F300
G1 X67.704 Y11.888 Z0.008 F300
G1 X67.698 Y11.909 Z0.010 F300
G1 X67.696 Y11.931 Z0.010 F300
G1 X67.698 Y11.953 Z0.010 F300
G1 X67.704 Y11.974 Z0.008 F300
G1 X67.713 Y11.994 Z0.006 F300
G1 X67.725 Y12.012 Z0.003 F300
G1 X67.740 Y12.028 Z-0.001 F300
G1 X67.757 Y12.040 Z-0.006 F300
G1 X67.776 Y12.049 Z-0.011 F300
G1 X67.797 Y12.055 Z-0.016 F300
G1 X67.818 Y12.057 Z-0.022 F300
G1 X67.834 Y12.057 Z-0.025 F300
G1 X68.049 Y12.057 Z-0.059 F300
G1 X68.232 Y12.057 Z-0.111 F300
G1 X68.500 Y12.057 Z-0.201 F300
G1 X68.540 Y12.057 Z-0.209 F300
G1 X68.582 Y12.057 Z-0.206 F300
G1 X68.621 Y12.057 Z-0.193 F300
G1 X68.655 Y12.057 Z-0.181 F300
G1 X68.690 Y12.057 Z-0.177 F300
G1 X68.734 Y12.065 Z-0.177 F300
G1 X68.771 Y12.086 Z-0.177 F300
G1 X68.800 Y12.120 Z-0.177 F300
G1 X68.815 Y12.161 Z-0.177 F300
G1 X68.815 Y12.205 Z-0.177 F300
G1 X68.800 Y12.246 Z-0.177 F300
G1 X68.771 Y12.279 Z-0.177 F300
G1 X68.734 Y12.301 Z-0.177 F300
G1 X68.690 Y12.309 Z-0.177 F300
G1 X68.655 Y12.309 Z-0.181 F300
G1 X68.621 Y12.309 Z-0.193 F300
G1 X68.582 Y12.309 Z-0.206 F300
G1 X68.540 Y12.309 Z-0.209 F300
G1 X68.500 Y12.309 Z-0.201 F300
G1 X68.232 Y12.309 Z-0.111 F300
G1 X68.049 Y12.309 Z-0.059 F300
G1 X67.834 Y12.309 Z-0.025 F300
G1 X67.818 Y12.309 Z-0.022 F300
G1 X67.797 Y12.311 Z-0.016 F300
G1 X67.776 Y12.317 Z-0.011 F300
G1 X67.757 Y12.326 Z-0.006 F300
G1 X67.740 Y12.338 Z-0.001 F300
G1 X67.725 Y12.354 Z0.003 F300
G1 X67.713 Y12.372 Z0.006 F300
G1 X67.704 Y12.392 Z0.008 F300
G1 X67.698 Y12.413 Z0.010 F300
G1 X67.696 Y12.435 Z0.010 F300
G1 X67.698 Y12.457 Z0.010 F300
G1 X67.704 Y12.478 Z0.008 F300
G1 X67.713 Y12.498 Z0.006 F300
G1 X67.725 Y12.516 Z0.003 F300
G1 X67.740 Y12.531 Z-0.001 F300
G1 X67.757 Y12.544 Z-0.006 F300
G1 X67.776 Y12.553 Z-0.011 F300
G1 X67.797 Y12.559 Z-0.016 F300
G1 X67.818 Y12.561 Z-0.022 F300
G1 X67.834 Y12.561 Z-0.025 F300
G1 X68.049 Y12.561 Z-0.059 F300
G1 X68.232 Y12.561 Z-0.111 F300
G1 X68.500 Y12.561 Z-0.201 F300
G1 X68.540 Y12.561 Z-0.209 F300
G1 X68.582 Y12.561 Z-0.206 F300
G1 X68.621 Y12.561 Z-0.193 F300
G1 X68.655 Y12.561 Z-0.181 F300
G1 X68.690 Y12.561 Z-0.177 F300
G1 X68.734 Y12.569 Z-0.177 F300
G1 X68.771 Y12.590 Z-0.177 F300
G1 X68.800 Y12.624 Z-0.177 F300
G1 X68.815 Y12.665 Z-0.177 F300
G1 X68.815 Y12.709 Z-0.177 F300
G1 X68.800 Y12.750 Z-0.177 F300
G1 X68.771 Y12.783 Z-0.177 F300
G1 X68.734 Y12.805 Z-0.177 F300
G1 X68.690 Y12.813 Z-0.177 F300
G1 X68.655 Y12.813 Z-0.181 F300
G1 X68.621 Y12.813 Z-0.193 F300
G1 X68.582 Y12.813 Z-0.206 F300
G1 X68.540 Y12.813 Z-0.209 F300
G1 X68.500 Y12.813 Z-0.201 F300
G1 X68.232 Y12.813 Z-0.111 F300
G1 X68.049 Y12.813 Z-0.059 F300
G1 X67.834 Y12.813 Z-0.025 F300
G1 X67.818 Y12.813 Z-0.022 F300
G1 X67.797 Y12.815 Z-0.016 F300
G1 X67.776 Y12.821 Z-0.011 F300
G1 X67.757 Y12.830 Z-0.006 F300
G1 X67.740 Y12.842 Z-0.001 F300
G1 X67.725 Y12.858 Z0.003 F300
G1 X67.713 Y12.876 Z0.006 F300
G1 X67.704 Y12.896 Z0.008 F300
G1 X67.698 Y12.917 Z0.010 F300
G1 X67.696 Y12.939 Z0.010 F300
G1 X67.698 Y12.961 Z0.010 F300
G1 X67.704 Y12.982 Z0.008 F300
G1 X67.713 Y13.002 Z0.006 F300
G1 X67.725 Y13.020 Z0.003 F300
G1 X67.740 Y13.035 Z-0.001 F300
G1 X67.757 Y13.048 Z-0.006 F300
G1 X67.776 Y13.057 Z-0.011 F300
G1 X67.797 Y13.063 Z-0.016 F300
G1 X67.818 Y13.065 Z-0.022 F300
G1 X67.834 Y13.065 Z-0.025 F300
G1 X68.049 Y13.065 Z-0.059 F300
G1 X68.232 Y13.065 Z-0.111 F300
G1 X68.500 Y13.065 Z-0.201 F300
G1 X68.540 Y13.065 Z-0.209 F300
G1 X68.582 Y13.065 Z-0.206 F300
G1 X68.621 Y13.065 Z-0.193 F300
G1 X68.655 Y13.065 Z-0.181 F300
G1 X68.690 Y13.065 Z-0.177 F300
G1 X68.734 Y13.073 Z-0.177 F300
G1 X68.771 Y13.094 Z-0.177 F300
G1 X68.800 Y13.128 Z-0.177 F300
G1 X68.815 Y13.169 Z-0.177 F300
G1 X68.815 Y13.213 Z-0.177 F300
G1 X68.800 Y13.254 Z-0.177 F300
G1 X68.771 Y13.287 Z-0.177 F300
G1 X68.734 Y13.309 Z-0.177 F300
G1 X68.690 Y13.317 Z-0.177 F300
G1 X68.655 Y13.317 Z-0.181 F300
G1 X68.621 Y13.317 Z-0.193 F300
G1 X68.582 Y13.317 Z-0.206 F300
G1 X68.540 Y13.317 Z-0.209 F300
G1 X68.500 Y13.317 Z-0.201 F300
G1 X68.232 Y13.317 Z-0.111 F300
G1 X68.049 Y13.317 Z-0.059 F300
G1 X67.834 Y13.317 Z-0.025 F300
G1 X67.818 Y13.317 Z-0.022 F300
G1 X67.797 Y13.319 Z-0.016 F300
G1 X67.776 Y13.325 Z-0.011 F300
G1 X67.757 Y13.334 Z-0.006 F300
G1 X67.740 Y13.346 Z-0.001 F300
G1 X67.725 Y13.362 Z0.003 F300
G1 X67.713 Y13.380 Z0.006 F300
G1 X67.704 Y13.400 Z0.008 F300
G1 X67.698 Y13.421 Z0.010 F300
G1 X67.696 Y13.443 Z0.010 F300
G1 X67.698 Y13.465 Z0.010 F300
G1 X67.704 Y13.486 Z0.008 F300
G1 X67.713 Y13.506 Z0.006 F300
G1 X67.725 Y13.524 Z0.003 F300
G1 X67.740 Y13.539 Z-0.001 F300
G1 X67.757 Y13.552 Z-0.006 F300
G1 X67.776 Y13.561 Z-0.011 F300
G1 X67.797 Y13.567 Z-0.016 F300
G1 X67.818 Y13.569 Z-0.022 F300
G1 X67.834 Y13.569 Z-0.025 F300
G1 X68.049 Y13.569 Z-0.059 F300
G1 X68.232 Y13.569 Z-0.111 F300
G1 X68.500 Y13.569 Z-0.201 F300
G1 X68.540 Y13.569 Z-0.209 F300
G1 X68.582 Y13.569 Z-0.206 F300
G1 X68.621 Y13.569 Z-0.193 F300
G1 X68.655 Y13.569 Z-0.181 F300
G1 X68.690 Y13.569 Z-0.177 F300
G1 X68.734 Y13.577 Z-0.177 F300
G1 X68.771 Y13.598 Z-0.177 F300
G1 X68.800 Y13.632 Z-0.177 F300
G1 X68.815 Y13.673 Z-0.177 F300
G1 X68.815 Y13.717 Z-0.177 F300
G1 X68.800 Y13.758 Z-0.177 F300
G1 X68.771 Y13.791 Z-0.177 F300
G1 X68.734 Y13.813 Z-0.177 F300
G1 X68.690 Y13.821 Z-0.177 F300
G1 X68.655 Y13.821 Z-0.181 F300
G1 X68.621 Y13.821 Z-0.193 F300
G1 X68.582 Y13.821 Z-0.206 F300
G1 X68.540 Y13.821 Z-0.209 F300
G1 X68.500 Y13.821 Z-0.201 F300
G1 X68.232 Y13.821 Z-0.111 F300
G1 X68.049 Y13.821 Z-0.059 F300
G1 X67.834 Y13.821 Z-0.025 F300
G1 X67.818 Y13.821 Z-0.022 F300
G1 X67.797 Y13.823 Z-0.016 F300
G1 X67.776 Y13.829 Z-0.011 F300
G1 X67.757 Y13.838 Z-0.006 F300
G1 X67.740 Y13.850 Z-0.001 F300
G1 X67.725 Y13.866 Z0.003 F300
G1 X67.713 Y13.884 Z0.006 F300
G1 X67.704 Y13.904 Z0.008 F300
G1 X67.698 Y13.925 Z0.010 F300
G1 X67.696 Y13.947 Z0.010 F300
G1 X67.698 Y13.969 Z0.010 F300
G1 X67.704 Y13.990 Z0.008 F300
G1 X67.713 Y14.010 Z0.006 F300
G1 X67.725 Y14.028 Z0.003 F300
G1 X67.740 Y14.043 Z-0.001 F300
G1 X67.757 Y14.056 Z-0.006 F300
G1 X67.776 Y14.065 Z-0.011 F300
G1 X67.797 Y14.071 Z-0.016 F300
G1 X67.818 Y14.073 Z-0.022 F300
G1 X67.834 Y14.073 Z-0.025 F300
G1 X68.049 Y14.073 Z-0.059 F300
G1 X68.232 Y14.073 Z-0.111 F300
G1 X68.500 Y14.073 Z-0.201 F300
G1 X68.540 Y14.073 Z-0.209 F300
G1 X68.582 Y14.073 Z-0.206 F300
G1 X68.621 Y14.073 Z-0.193 F300
G1 X68.655 Y14.073 Z-0.181 F300
G1 X68.690 Y14.073 Z-0.177 F300
G1 X68.734 Y14.080 Z-0.177 F300
G1 X68.771 Y14.102 Z-0.177 F300
G1 X68.800 Y14.136 Z-0.177 F300
G1 X68.815 Y14.177 Z-0.177 F300
G1 X68.815 Y14.221 Z-0.177 F300
G1 X68.800 Y14.262 Z-0.177 F300
G1 X68.771 Y14.295 Z-0.177 F300
G1 X68.734 Y14.317 Z-0.177 F300
G1 X68.690 Y14.325 Z-0.177 F300
G1 X68.655 Y14.325 Z-0.181 F300
G1 X68.621 Y14.325 Z-0.193 F300
G1 X68.582 Y14.325 Z-0.206 F300
G1 X68.540 Y14.325 Z-0.209 F300
G1 X68.500 Y14.325 Z-0.201 F300
G1 X68.232 Y14.325 Z-0.111 F300
G1 X68.049 Y14.325 Z-0.059 F300
G1 X67.834 Y14.325 Z-0.025 F300
G1 X67.818 Y14.325 Z-0.022 F300
G1 X67.797 Y14.327 Z-0.016 F300
G1 X67.776 Y14.332 Z-0.011 F300
G1 X67.757 Y14.342 Z-0.006 F300
G1 X67.740 Y14.354 Z-0.001 F300
G1 X67.725 Y14.370 Z0.003 F300
G1 X67.713 Y14.388 Z0.006 F300
G1 X67.704 Y14.408 Z0.008 F300
G1 X67.698 Y14.429 Z0.010 F300
G1 X67.696 Y14.451 Z0.010 F300
G1 X67.698 Y14.473 Z0.010 F300
G1 X67.704 Y14.494 Z0.008 F300
G1 X67.713 Y14.514 Z0.006 F300
G1 X67.725 Y14.532 Z0.003 F300
G1 X67.740 Y14.547 Z-0.001 F300
G1 X67.757 Y14.560 Z-0.006 F300
G1 X67.776 Y14.569 Z-0.011 F300
G1 X67.797 Y14.575 Z-0.016 F300
G1 X67.818 Y14.577 Z-0.022 F300
G1 X67.834 Y14.577 Z-0.025 F300
G1 X68.049 Y14.577 Z-0.059 F300
G1 X68.232 Y14.577 Z-0.111 F300
G1 X68.500 Y14.577 Z-0.201 F300
G1 X68.540 Y14.577 Z-0.209 F300
G1 X68.582 Y14.577 Z-0.206 F300
G1 X68.621 Y14.577 Z-0.193 F300
G1 X68.655 Y14.577 Z-0.181 F300
G1 X68.690 Y14.577 Z-0.177 F300
G1 X68.734 Y14.584 Z-0.177 F300
G1 X68.771 Y14.606 Z-0.177 F300
G1 X68.800 Y14.640 Z-0.177 F300
G1 X68.815 Y14.681 Z-0.177 F300
G1 X68.815 Y14.725 Z-0.177 F300
G1 X68.800 Y14.766 Z-0.177 F300
G1 X68.771 Y14.799 Z-0.177 F300
G1 X68.734 Y14.821 Z-0.177 F300
G1 X68.690 Y14.829 Z-0.177 F300
G1 X68.655 Y14.829 Z-0.181 F300
G1 X68.621 Y14.829 Z-0.193 F300
G1 X68.582 Y14.829 Z-0.206 F300
G1 X68.540 Y14.829 Z-0.209 F300
G1 X68.500 Y14.829 Z-0.201 F300
G1 X68.232 Y14.829 Z-0.111 F300
G1 X68.049 Y14.829 Z-0.059 F300
G1 X67.834 Y14.829 Z-0.025 F300
G1 X67.818 Y14.829 Z-0.022 F300
G1 X67.797 Y14.831 Z-0.016 F300
G1 X67.776 Y14.836 Z-0.011 F300
G1 X67.757 Y14.846 Z-0.006 F300
G1 X67.740 Y14.858 Z-0.001 F300
G1 X67.725 Y14.874 Z0.003 F300
G1 X67.713 Y14.892 Z0.006 F300
G1 X67.704 Y14.912 Z0.008 F300
G1 X67.698 Y14.933 Z0.010 F300
G1 X67.696 Y14.955 Z0.010 F300
G1 X67.698 Y14.977 Z0.010 F300
G1 X67.704 Y14.998 Z0.008 F300
G1 X67.713 Y15.018 Z0.006 F300
G1 X67.725 Y15.036 Z0.003 F300
G1 X67.740 Y15.051 Z-0.001 F300
G1 X67.757 Y15.064 Z-0.006 F300
G1 X67.776 Y15.073 Z-0.011 F300
G1 X67.797 Y15.079 Z-0.016 F300
G1 X67.818 Y15.081 Z-0.022 F300
G1 X67.834 Y15.081 Z-0.025 F300
G1 X68.049 Y15.081 Z-0.059 F300
G1 X68.232 Y15.081 Z-0.111 F300
G1 X68.500 Y15.081 Z-0.201 F300
G1 X68.540 Y15.081 Z-0.209 F300
G1 X68.582 Y15.081 Z-0.206 F300
G1 X68.621 Y15.081 Z-0.193 F300
G1 X68.655 Y15.081 Z-0.181 F300
G1 X68.690 Y15.081 Z-0.177 F300
G1 X68.734 Y15.088 Z-0.177 F300
G1 X68.771 Y15.110 Z-0.177 F300
G1 X68.800 Y15.144 Z-0.177 F300
G1 X68.815 Y15.185 Z-0.177 F300
G1 X68.815 Y15.229 Z-0.177 F300
G1 X68.800 Y15.270 Z-0.177 F300
G1 X68.771 Y15.303 Z-0.177 F300
G1 X68.734 Y15.325 Z-0.177 F300
G1 X68.690 Y15.333 Z-0.177 F300
G1 X68.655 Y15.333 Z-0.181 F300
G1 X68.621 Y15.333 Z-0.193 F300
G1 X68.582 Y15.333 Z-0.206 F300
G1 X68.540 Y15.333 Z-0.209 F300
G1 X68.500 Y15.333 Z-0.201 F300
G1 X68.232 Y15.333 Z-0.111 F300
G1 X68.049 Y15.333 Z-0.059 F300
G1 X67.834 Y15.333 Z-0.025 F300
G1 X67.818 Y15.333 Z-0.022 F300
G1 X67.797 Y15.335 Z-0.016 F300
G1 X67.776 Y15.340 Z-0.011 F300
G1 X67.757 Y15.350 Z-0.006 F300
G1 X67.740 Y15.362 Z-0.001 F300
G1 X67.725 Y15.378 Z0.003 F300
G1 X67.713 Y15.396 Z0.006 F300
G1 X67.704 Y15.416 Z0.008 F300
G1 X67.698 Y15.437 Z0.010 F300
G1 X67.696 Y15.459 Z0.010 F300
G1 X67.698 Y15.481 Z0.010 F300
G1 X67.704 Y15.502 Z0.008 F300
G1 X67.713 Y15.522 Z0.006 F300
G1 X67.725 Y15.540 Z0.003 F300
G1 X67.740 Y15.555 Z-0.001 F300
G1 X67.757 Y15.568 Z-0.006 F300
G1 X67.776 Y15.577 Z-0.011 F300
G1 X67.797 Y15.583 Z-0.016 F300
G1 X67.818 Y15.585 Z-0.022 F300
G1 X67.834 Y15.585 Z-0.025 F300
G1 X68.049 Y15.585 Z-0.059 F300
G1 X68.232 Y15.585 Z-0.111 F300
G1 X68.500 Y15.585 Z-0.201 F300
G1 X68.540 Y15.585 Z-0.209 F300
G1 X68.582 Y15.585 Z-0.206 F300
G1 X68.621 Y15.585 Z-0.193 F300
G1 X68.655 Y15.585 Z-0.181 F300
G1 X68.690 Y15.585 Z-0.177 F300
G1 X68.734 Y15.592 Z-0.177 F300
G1 X68.771 Y15.614 Z-0.177 F300
G1 X68.800 Y15.648 Z-0.177 F300
G1 X68.815 Y15.689 Z-0.177 F300
G1 X68.815 Y15.733 Z-0.177 F300
G1 X68.800 Y15.774 Z-0.177 F300
G1 X68.771 Y15.807 Z-0.177 F300
G1 X68.734 Y15.829 Z-0.177 F300
G1 X68.690 Y15.837 Z-0.177 F300
G1 X68.655 Y15.837 Z-0.181 F300
G1 X68.621 Y15.837 Z-0.193 F300
G1 X68.582 Y15.837 Z-0.206 F300
G1 X68.540 Y15.837 Z-0.209 F300
G1 X68.500 Y15.837 Z-0.201 F300
G1 X68.232 Y15.837 Z-0.111 F300
G1 X68.049 Y15.837 Z-0.059 F300
G1 X67.834 Y15.837 Z-0.025 F300
G1 X67.818 Y15.837 Z-0.022 F300
G1 X67.797 Y15.839 Z-0.016 F300
G1 X67.776 Y15.844 Z-0.011 F300
G1 X67.757 Y15.854 Z-0.006 F300
G1 X67.740 Y15.866 Z-0.001 F300
G1 X67.725 Y15.882 Z0.003 F300
G1 X67.713 Y15.900 Z0.006 F300
G1 X67.704 Y15.920 Z0.008 F300
G1 X67.698 Y15.941 Z0.010 F300
G1 X67.696 Y15.963 Z0.010 F300
G1 X67.698 Y15.985 Z0.010 F300
G1 X67.704 Y16.006 Z0.008 F300
G1 X67.713 Y16.026 Z0.006 F300
G1 X67.725 Y16.044 Z0.003 F300
G1 X67.740 Y16.059 Z-0.001 F300
G1 X67.757 Y16.072 Z-0.006 F300
G1 X67.776 Y16.081 Z-0.011 F300
G1 X67.797 Y16.087 Z-0.016 F300
G1 X67.818 Y16.089 Z-0.022 F300
G1 X67.834 Y16.089 Z-0.025 F300
G1 X68.049 Y16.089 Z-0.059 F300
G1 X68.232 Y16.089 Z-0.111 F300
G1 X68.500 Y16.089 Z-0.201 F300
G1 X68.540 Y16.089 Z-0.209 F300
G1 X68.582 Y16.089 Z-0.206 F300
G1 X68.621 Y16.089 Z-0.193 F300
G1 X68.655 Y16.089 Z-0.181 F300
G1 X68.690 Y16.089 Z-0.177 F300
G1 X68.734 Y16.096 Z-0.177 F300
G1 X68.771 Y16.118 Z-0.177 F300
G1 X68.800 Y16.152 Z-0.177 F300
G1 X68.815 Y16.193 Z-0.177 F300
G1 X68.815 Y16.237 Z-0.177 F300
G1 X68.800 Y16.278 Z-0.177 F300
G1 X68.771 Y16.311 Z-0.177 F300
G1 X68.734 Y16.333 Z-0.177 F300
G1 X68.690 Y16.341 Z-0.177 F300
G1 X68.655 Y16.341 Z-0.181 F300
G1 X68.621 Y16.341 Z-0.193 F300
G1 X68.582 Y16.341 Z-0.206 F300
G1 X68.540 Y16.341 Z-0.209 F300
G1 X68.500 Y16.341 Z-0.201 F300
G1 X68.232 Y16.341 Z-0.111 F300
G1 X68.049 Y16.341 Z-0.059 F300
G1 X67.834 Y16.341 Z-0.025 F300
G1 X67.818 Y16.341 Z-0.022 F300
G1 X67.797 Y16.343 Z-0.016 F300
G1 X67.776 Y16.348 Z-0.011 F300
G1 X67.757 Y16.358 Z-0.006 F300
G1 X67.740 Y16.370 Z-0.001 F300
G1 X67.725 Y16.386 Z0.003 F300
G1 X67.713 Y16.404 Z0.006 F300
G1 X67.704 Y16.424 Z0.008 F300
G1 X67.698 Y16.445 Z0.010 F300
G1 X67.696 Y16.467 Z0.010 F300
G1 X67.698 Y16.489 Z0.010 F300
G1 X67.704 Y16.510 Z0.008 F300
G1 X67.713 Y16.530 Z0.006 F300
G1 X67.725 Y16.548 Z0.003 F300
G1 X67.740 Y16.563 Z-0.001 F300
G1 X67.757 Y16.576 Z-0.006 F300
G1 X67.776 Y16.585 Z-0.011 F300
G1 X67.797 Y16.591 Z-0.016 F300
G1 X67.818 Y16.593 Z-0.022 F300
G1 X67.834 Y16.593 Z-0.025 F300
G1 X68.049 Y16.593 Z-0.059 F300
G1 X68.232 Y16.593 Z-0.111 F300
G1 X68.500 Y16.593 Z-0.201 F300
G1 X68.540 Y16.593 Z-0.209 F300
G1 X68.582 Y16.593 Z-0.206 F300
G1 X68.621 Y16.593 Z-0.193 F300
G1 X68.655 Y16.593 Z-0.181 F300
G1 X68.690 Y16.593 Z-0.177 F300
G1 X68.734 Y16.600 Z-0.177 F300
G1 X68.771 Y16.622 Z-0.177 F300
G1 X68.800 Y16.656 Z-0.177 F300
G1 X68.815 Y16.697 Z-0.177 F300
G1 X68.815 Y16.741 Z-0.177 F300
G1 X68.800 Y16.782 Z-0.177 F300
G1 X68.771 Y16.815 Z-0.177 F300
G1 X68.734 Y16.837 Z-0.177 F300
G1 X68.690 Y16.845 Z-0.177 F300
G1 X68.655 Y16.845 Z-0.181 F300
G1 X68.621 Y16.845 Z-0.193 F300
G1 X68.582 Y16.845 Z-0.206 F300
G1 X68.540 Y16.845 Z-0.209 F300
G1 X68.500 Y16.845 Z-0.201 F300
G1 X68.232 Y16.845 Z-0.111 F300
G1 X68.049 Y16.845 Z-0.059 F300
G1 X67.834 Y16.845 Z-0.025 F300
G1 X67.818 Y16.845 Z-0.022 F300
G1 X67.797 Y16.847 Z-0.016 F300
G1 X67.776 Y16.852 Z-0.011 F300
G1 X67.757 Y16.862 Z-0.006 F300
G1 X67.740 Y16.874 Z-0.001 F300
G1 X67.725 Y16.890 Z0.003 F300
G1 X67.713 Y16.908 Z0.006 F300
G1 X67.704 Y16.928 Z0.008 F300
G1 X67.698 Y16.949 Z0.010 F300
G1 X67.696 Y16.971 Z0.010 F300
G1 X67.698 Y16.993 Z0.010 F300
G1 X67.704 Y17.014 Z0.008 F300
G1 X67.713 Y17.034 Z0.006 F300
G1 X67.725 Y17.052 Z0.003 F300
G1 X67.740 Y17.067 Z-0.001 F300
G1 X67.757 Y17.080 Z-0.006 F300
G1 X67.776 Y17.089 Z-0.011 F300
G1 X67.797 Y17.095 Z-0.016 F300
G1 X67.818 Y17.097 Z-0.022 F300
G1 X67.834 Y17.097 Z-0.025 F300
G1 X68.049 Y17.097 Z-0.059 F300
G1 X68.232 Y17.097 Z-0.111 F300
G1 X68.500 Y17.097 Z-0.201 F300
G1 X68.540 Y17.097 Z-0.209 F300
G1 X68.582 Y17.097 Z-0.206 F300
G1 X68.621 Y17.097 Z-0.193 F300
G1 X68.655 Y17.097 Z-0.181 F300
G1 X68.690 Y17.097 Z-0.177 F300
G1 X68.734 Y17.104 Z-0.177 F300
G1 X68.771 Y17.126 Z-0.177 F300
G1 X68.800 Y17.160 Z-0.177 F300
G1 X68.815 Y17.201 Z-0.177 F300
G1 X68.815 Y17.245 Z-0.177 F300
G1 X68.800 Y17.286 Z-0.177 F300
G1 X68.771 Y17.319 Z-0.177 F300
G1 X68.734 Y17.341 Z-0.177 F300
G1 X68.690 Y17.349 Z-0.177 F300
G1 X68.655 Y17.349 Z-0.181 F300
G1 X68.621 Y17.349 Z-0.193 F300
G1 X68.582 Y17.349 Z-0.206 F300
G1 X68.540 Y17.349 Z-0.209 F300
G1 X68.500 Y17.349 Z-0.201 F300
G1 X68.232 Y17.349 Z-0.111 F300
G1 X68.049 Y17.349 Z-0.059 F300
G1 X67.834 Y17.349 Z-0.025 F300
G1 X67.818 Y17.349 Z-0.022 F300
G1 X67.797 Y17.351 Z-0.016 F300
G1 X67.776 Y17.356 Z-0.011 F300
G1 X67.757 Y17.366 Z-0.006 F300
G1 X67.740 Y17.378 Z-0.001 F300
G1 X67.725 Y17.394 Z0.003 F300
G1 X67.713 Y17.412 Z0.006 F300
G1 X67.704 Y17.432 Z0.008 F300
G1 X67.698 Y17.453 Z0.010 F300
G1 X67.696 Y17.475 Z0.010 F300
G1 X67.698 Y17.497 Z0.010 F300
G1 X67.704 Y17.518 Z0.008 F300
G1 X67.713 Y17.538 Z0.006 F300
G1 X67.725 Y17.556 Z0.003 F300
G1 X67.740 Y17.571 Z-0.001 F300
G1 X67.757 Y17.584 Z-0.006 F300
G1 X67.776 Y17.593 Z-0.011 F300
G1 X67.797 Y17.599 Z-0.016 F300
G1 X67.818 Y17.601 Z-0.022 F300
G1 X67.834 Y17.601 Z-0.025 F300
G1 X68.049 Y17.601 Z-0.059 F300
G1 X68.232 Y17.601 Z-0.111 F300
G1 X68.500 Y17.601 Z-0.201 F300
G1 X68.540 Y17.601 Z-0.209 F300
G1 X68.582 Y17.601 Z-0.206 F300
G1 X68.621 Y17.601 Z-0.193 F300
G1 X68.655 Y17.601 Z-0.181 F300
G1 X68.690 Y17.601 Z-0.177 F300
G1 X68.734 Y17.608 Z-0.177 F300
G1 X68.771 Y17.630 Z-0.177 F300
G1 X68.800 Y17.664 Z-0.177 F300
G1 X68.815 Y17.705 Z-0.177 F300
G1 X68.815 Y17.749 Z-0.177 F300
G1 X68.800 Y17.790 Z-0.177 F300
G1 X68.771 Y17.823 Z-0.177 F300
G1 X68.734 Y17.845 Z-0.177 F300
G1 X68.690 Y17.853 Z-0.177 F300
G1 X68.655 Y17.853 Z-0.181 F300
G1 X68.621 Y17.853 Z-0.193 F300
G1 X68.582 Y17.853 Z-0.206 F300
G1 X68.540 Y17.853 Z-0.209 F300
G1 X68.500 Y17.853 Z-0.201 F300
G1 X68.232 Y17.853 Z-0.111 F300
G1 X68.049 Y17.853 Z-0.059 F300
G1 X67.834 Y17.853 Z-0.025 F300
G1 X67.818 Y17.853 Z-0.022 F300
G1 X67.797 Y17.855 Z-0.016 F300
G1 X67.776 Y17.860 Z-0.011 F300
G1 X67.757 Y17.870 Z-0.006 F300
G1 X67.740 Y17.882 Z-0.001 F300
G1 X67.725 Y17.898 Z0.003 F300
G1 X67.713 Y17.916 Z0.006 F300
G1 X67.704 Y17.936 Z0.008 F300
G1 X67.698 Y17.957 Z0.010 F300
G1 X67.696 Y17.979 Z0.010 F300
G1 X67.698 Y18.001 Z0.010 F300
G1 X67.704 Y18.022 Z0.008 F300
G1 X67.713 Y18.042 Z0.006 F300
G1 X67.725 Y18.060 Z0.003 F300
G1 X67.740 Y18.075 Z-0.001 F300
G1 X67.757 Y18.088 Z-0.006 F300
G1 X67.776 Y18.097 Z-0.011 F300
G1 X67.797 Y18.103 Z-0.016 F300
G1 X67.818 Y18.105 Z-0.022 F300
G1 X67.834 Y18.105 Z-0.025 F300
G1 X68.049 Y18.105 Z-0.059 F300
G1 X68.232 Y18.105 Z-0.111 F300
G1 X68.500 Y18.105 Z-0.201 F300
G1 X68.540 Y18.105 Z-0.209 F300
G1 X68.582 Y18.105 Z-0.206 F300
G1 X68.621 Y18.105 Z-0.193 F300
G1 X68.655 Y18.105 Z-0.181 F300
G1 X68.690 Y18.105 Z-0.177 F300
G1 X68.734 Y18.112 Z-0.177 F300
G1 X68.771 Y18.134 Z-0.177 F300
G1 X68.800 Y18.168 Z-0.177 F300
G1 X68.815 Y18.209 Z-0.177 F300
G1 X68.815 Y18.253 Z-0.177 F300
G1 X68.800 Y18.294 Z-0.177 F300
G1 X68.771 Y18.327 Z-0.177 F300
G1 X68.734 Y18.349 Z-0.177 F300
G1 X68.690 Y18.357 Z-0.177 F300
G1 X68.655 Y18.357 Z-0.181 F300
G1 X68.621 Y18.357 Z-0.193 F300
G1 X68.582 Y18.357 Z-0.206 F300
G1 X68.540 Y18.357 Z-0.209 F300
G1 X68.500 Y18.357 Z-0.201 F300
G1 X68.232 Y18.357 Z-0.111 F300
G1 X68.049 Y18.357 Z-0.059 F300
G1 X67.834 Y18.357 Z-0.025 F300
G1 X67.818 Y18.357 Z-0.022 F300
G1 X67.797 Y18.359 Z-0.016 F300
G1 X67.776 Y18.364 Z-0.011 F300
G1 X67.757 Y18.374 Z-0.006 F300
G1 X67.740 Y18.386 Z-0.001 F300
G1 X67.725 Y18.402 Z0.003 F300
G1 X67.713 Y18.420 Z0.006 F300
G1 X67.704 Y18.440 Z0.008 F300
G1 X67.698 Y18.461 Z0.010 F300
G1 X67.696 Y18.483 Z0.010 F300
G1 X67.698 Y18.505 Z0.010 F300
G1 X67.704 Y18.526 Z0.008 F300
G1 X67.713 Y18.546 Z0.006 F300
G1 X67.725 Y18.564 Z0.003 F300
G1 X67.740 Y18.579 Z-0.001 F300
G1 X67.757 Y18.592 Z-0.006 F300
G1 X67.776 Y18.601 Z-0.011 F300
G1 X67.797 Y18.607 Z-0.016 F300
G1 X67.818 Y18.609 Z-0.022 F300
G1 X67.834 Y18.609 Z-0.025 F300
G1 X68.049 Y18.609 Z-0.059 F300
G1 X68.232 Y18.609 Z-0.111 F300
G1 X68.500 Y18.609 Z-0.201 F300
G1 X68.540 Y18.609 Z-0.209 F300
G1 X68.582 Y18.609 Z-0.206 F300
G1 X68.621 Y18.609 Z-0.193 F300
G1 X68.655 Y18.609 Z-0.181 F300
G1 X68.690 Y18.609 Z-0.177 F300
G1 X68.734 Y18.616 Z-0.177 F300
G1 X68.771 Y18.638 Z-0.177 F300
G1 X68.800 Y18.672 Z-0.177 F300
G1 X68.815 Y18.713 Z-0.177 F300
G1 X68.815 Y18.757 Z-0.177 F300
G1 X68.800 Y18.798 Z-0.177 F300
G1 X68.771 Y18.831 Z-0.177 F300
G1 X68.734 Y18.853 Z-0.177 F300
G1 X68.690 Y18.861 Z-0.177 F300
G1 X68.655 Y18.861 Z-0.181 F300
G1 X68.621 Y18.861 Z-0.193 F300
G1 X68.582 Y18.861 Z-0.206 F300
G1 X68.540 Y18.861 Z-0.209 F300
G1 X68.500 Y18.861 Z-0.201 F300
G1 X68.232 Y18.861 Z-0.111 F300
G1 X68.049 Y18.861 Z-0.059 F300
G1 X67.834 Y18.861 Z-0.025 F300
G1 X67.818 Y18.861 Z-0.022 F300
G1 X67.797 Y18.863 Z-0.016 F300
G1 X67.776 Y18.868 Z-0.011 F300
G1 X67.757 Y18.878 Z-0.006 F300
G1 X67.740 Y18.890 Z-0.001 F300
G1 X67.725 Y18.906 Z0.003 F300
G1 X67.713 Y18.924 Z0.006 F300
G1 X67.704 Y18.944 Z0.008 F300
G1 X67.698 Y18.965 Z0.010 F300
G1 X67.696 Y18.987 Z0.010 F300
G1 X67.698 Y19.009 Z0.010 F300
G1 X67.704 Y19.030 Z0.008 F300
G1 X67.713 Y19.050 Z0.006 F300
G1 X67.725 Y19.068 Z0.003 F300
G1 X67.740 Y19.083 Z-0.001 F300
G1 X67.757 Y19.096 Z-0.006 F300
G1 X67.776 Y19.105 Z-0.011 F300
G1 X67.797 Y19.111 Z-0.016 F300
G1 X67.818 Y19.113 Z-0.022 F300
G1 X67.834 Y19.113 Z-0.025 F300
G1 X68.049 Y19.113 Z-0.059 F300
G1 X68.232 Y19.113 Z-0.111 F300
G1 X68.500 Y19.113 Z-0.201 F300
G1 X68.540 Y19.113 Z-0.209 F300
G1 X68.582 Y19.113 Z-0.206 F300
G1 X68.621 Y19.113 Z-0.193 F300
G1 X68.655 Y19.113 Z-0.181 F300
G1 X68.690 Y19.113 Z-0.177 F300
G1 X68.734 Y19.120 Z-0.177 F300
G1 X68.771 Y19.142 Z-0.177 F300
G1 X68.800 Y19.176 Z-0.177 F300
G1 X68.815 Y19.217 Z-0.177 F300
G1 X68.815 Y19.261 Z-0.177 F300
G1 X68.800 Y19.302 Z-0.177 F300
G1 X68.771 Y19.335 Z-0.177 F300
G1 X68.734 Y19.357 Z-0.177 F300
G1 X68.690 Y19.365 Z-0.177 F300
G1 X68.655 Y19.365 Z-0.181 F300
G1 X68.621 Y19.365 Z-0.193 F300
G1 X68.582 Y19.365 Z-0.206 F300
G1 X68.540 Y19.365 Z-0.209 F300
G1 X68.500 Y19.365 Z-0.201 F300
G1 X68.232 Y19.365 Z-0.111 F300
G1 X68.049 Y19.365 Z-0.059 F300
G1 X67.834 Y19.365 Z-0.025 F300
G1 X67.818 Y19.365 Z-0.022 F300
G1 X67.797 Y19.367 Z-0.016 F300
G1 X67.776 Y19.372 Z-0.011 F300
G1 X67.757 Y19.382 Z-0.006 F300
G1 X67.740 Y19.394 Z-0.001 F300
G1 X67.725 Y19.410 Z0.003 F300
G1 X67.713 Y19.428 Z0.006 F300
G1 X67.704 Y19.448 Z0.008 F300
G1 X67.698 Y19.469 Z0.010 F300
G1 X67.696 Y19.491 Z0.010 F300
G1 X67.698 Y19.513 Z0.010 F300
G1 X67.704 Y19.534 Z0.008 F300
G1 X67.713 Y19.554 Z0.006 F300
G1 X67.725 Y19.572 Z0.003 F300
G1 X67.740 Y19.587 Z-0.001 F300
G1 X67.757 Y19.600 Z-0.006 F300
G1 X67.776 Y19.609 Z-0.011 F300
G1 X67.797 Y19.615 Z-0.016 F300
G1 X67.818 Y19.617 Z-0.022 F300
G1 X67.834 Y19.617 Z-0.025 F300
G1 X68.049 Y19.617 Z-0.059 F300
G1 X68.232 Y19.617 Z-0.111 F300
G1 X68.500 Y19.617 Z-0.201 F300
G1 X68.540 Y19.617 Z-0.209 F300
G1 X68.582 Y19.617 Z-0.206 F300
G1 X68.621 Y19.617 Z-0.193 F300
G1 X68.655 Y19.617 Z-0.181 F300
G1 X68.690 Y19.617 Z-0.177 F300
G1 X68.734 Y19.624 Z-0.177 F300
G1 X68.771 Y19.646 Z-0.177 F300
G1 X68.800 Y19.680 Z-0.177 F300
G1 X68.815 Y19.721 Z-0.177 F300
G1 X68.815 Y19.765 Z-0.177 F300
G1 X68.800 Y19.806 Z-0.177 F300
G1 X68.771 Y19.839 Z-0.177 F300
G1 X68.734 Y19.861 Z-0.177 F300
G1 X68.690 Y19.869 Z-0.177 F300
G1 X68.655 Y19.869 Z-0.181 F300
G1 X68.621 Y19.869 Z-0.193 F300
G1 X68.582 Y19.869 Z-0.206 F300
G1 X68.540 Y19.869 Z-0.209 F300
G1 X68.500 Y19.869 Z-0.201 F300
G1 X68.232 Y19.869 Z-0.111 F300
G1 X68.049 Y19.869 Z-0.059 F300
G1 X67.834 Y19.869 Z-0.025 F300
G1 X67.818 Y19.869 Z-0.022 F300
G1 X67.797 Y19.871 Z-0.016 F300
G1 X67.776 Y19.876 Z-0.011 F300
G1 X67.757 Y19.886 Z-0.006 F300
G1 X67.740 Y19.898 Z-0.001 F300
G1 X67.725 Y19.914 Z0.003 F300
G1 X67.713 Y19.932 Z0.006 F300
G1 X67.704 Y19.952 Z0.008 F300
G1 X67.698 Y19.973 Z0.010 F300
G1 X67.696 Y19.995 Z0.010 F300
G1 X67.698 Y20.017 Z0.010 F300
G1 X67.704 Y20.038 Z0.008 F300
G1 X67.713 Y20.058 Z0.006 F300
G1 X67.725 Y20.076 Z0.003 F300
G1 X67.740 Y20.091 Z-0.001 F300
G1 X67.757 Y20.104 Z-0.006 F300
G1 X67.776 Y20.113 Z-0.011 F300
G1 X67.797 Y20.119 Z-0.016 F300
G1 X67.818 Y20.121 Z-0.022 F300
G1 X67.834 Y20.121 Z-0.025 F300
G1 X68.049 Y20.121 Z-0.059 F300
G1 X68.232 Y20.121 Z-0.111 F300
G1 X68.500 Y20.121 Z-0.201 F300
G1 X68.540 Y20.121 Z-0.209 F300
G1 X68.582 Y20.121 Z-0.206 F300
G1 X68.621 Y20.121 Z-0.193 F300
G1 X68.655 Y20.121 Z-0.181 F300
G1 X68.690 Y20.121 Z-0.177 F300
G1 X68.734 Y20.128 Z-0.177 F300
G1 X68.771 Y20.150 Z-0.177 F300
G1 X68.800 Y20.184 Z-0.177 F300
G1 X68.815 Y20.225 Z-0.177 F300
G1 X68.815 Y20.269 Z-0.177 F300
G1 X68.800 Y20.310 Z-0.177 F300
G1 X68.771 Y20.343 Z-0.177 F300
G1 X68.734 Y20.365 Z-0.177 F300
G1 X68.690 Y20.373 Z-0.177 F300
G1 X68.655 Y20.373 Z-0.181 F300
G1 X68.621 Y20.373 Z-0.193 F300
G1 X68.582 Y20.373 Z-0.206 F300
G1 X68.540 Y20.373 Z-0.209 F300
G1 X68.500 Y20.373 Z-0.201 F300
G1 X68.232 Y20.373 Z-0.111 F300
G1 X68.049 Y20.373 Z-0.059 F300
G1 X67.834 Y20.373 Z-0.025 F300
G1 X67.818 Y20.373 Z-0.022 F300
G1 X67.797 Y20.375 Z-0.016 F300
G1 X67.776 Y20.380 Z-0.011 F300
G1 X67.757 Y20.390 Z-0.006 F300
G1 X67.740 Y20.402 Z-0.001 F300
G1 X67.725 Y20.418 Z0.003 F300
G1 X67.713 Y20.436 Z0.006 F300
G1 X67.704 Y20.456 Z0.008 F300
G1 X67.698 Y20.477 Z0.010 F300
G1 X67.696 Y20.499 Z0.010 F300
G1 X67.698 Y20.521 Z0.010 F300
G1 X67.704 Y20.542 Z0.008 F300
G1 X67.713 Y20.562 Z0.006 F300
G1 X67.725 Y20.580 Z0.003 F300
G1 X67.740 Y20.595 Z-0.001 F300
G1 X67.757 Y20.608 Z-0.006 F300
G1 X67.776 Y20.617 Z-0.011 F300
G1 X67.797 Y20.623 Z-0.016 F300
G1 X67.818 Y20.625 Z-0.022 F300
G1 X67.834 Y20.625 Z-0.025 F300
G1 X68.049 Y20.625 Z-0.059 F300
G1 X68.232 Y20.625 Z-0.111 F300
G1 X68.500 Y20.625 Z-0.201 F300
G1 X68.540 Y20.625 Z-0.209 F300
G1 X68.582 Y20.625 Z-0.206 F300
G1 X68.621 Y20.625 Z-0.193 F300
G1 X68.655 Y20.625 Z-0.181 F300
G1 X68.690 Y20.625 Z-0.177 F300
G1 X68.734 Y20.632 Z-0.177 F300
G1 X68.771 Y20.654 Z-0.177 F300
G1 X68.800 Y20.688 Z-0.177 F300
G1 X68.815 Y20.729 Z-0.177 F300
G1 X68.815 Y20.773 Z-0.177 F300
G1 X68.800 Y20.814 Z-0.177 F300
G1 X68.771 Y20.847 Z-0.177 F300
G1 X68.734 Y20.869 Z-0.177 F300
G1 X68.690 Y20.877 Z-0.177 F300
G1 X68.655 Y20.877 Z-0.181 F300
G1 X68.621 Y20.877 Z-0.193 F300
G1 X68.582 Y20.877 Z-0.206 F300
G1 X68.540 Y20.877 Z-0.209 F300
G1 X68.500 Y20.877 Z-0.201 F300
G1 X68.232 Y20.877 Z-0.111 F300
G1 X68.049 Y20.877 Z-0.059 F300
G1 X67.834 Y20.877 Z-0.025 F300
G1 X67.818 Y20.877 Z-0.022 F300
G1 X67.797 Y20.879 Z-0.016 F300
G1 X67.776 Y20.884 Z-0.011 F300
G1 X67.757 Y20.894 Z-0.006 F300
G1 X67.740 Y20.906 Z-0.001 F300
G1 X67.725 Y20.922 Z0.003 F300
G1 X67.713 Y20.940 Z0.006 F300
G1 X67.704 Y20.960 Z0.008 F300
G1 X67.698 Y20.981 Z0.010 F300
G1 X67.696 Y21.003 Z0.010 F300
G1 X67.698 Y21.025 Z0.010 F300
G1 X67.704 Y21.046 Z0.008 F300
G1 X67.713 Y21.066 Z0.006 F300
G1 X67.725 Y21.084 Z0.003 F300
G1 X67.740 Y21.099 Z-0.001 F300
G1 X67.757 Y21.112 Z-0.006 F300
G1 X67.776 Y21.121 Z-0.011 F300
G1 X67.797 Y21.127 Z-0.016 F300
G1 X67.818 Y21.129 Z-0.022 F300
G1 X67.834 Y21.129 Z-0.025 F300
G1 X68.049 Y21.129 Z-0.059 F300
G1 X68.232 Y21.129 Z-0.111 F300
G1 X68.500 Y21.129 Z-0.201 F300
G1 X68.540 Y21.129 Z-0.209 F300
G1 X68.582 Y21.129 Z-0.206 F300
G1 X68.621 Y21.129 Z-0.193 F300
G1 X68.655 Y21.129 Z-0.181 F300
G1 X68.690 Y21.129 Z-0.177 F300
G1 X68.734 Y21.136 Z-0.177 F300
G1 X68.771 Y21.158 Z-0.177 F300
G1 X68.800 Y21.192 Z-0.177 F300
G1 X68.815 Y21.233 Z-0.177 F300
G1 X68.815 Y21.276 Z-0.177 F300
G1 X68.800 Y21.318 Z-0.177 F300
G1 X68.771 Y21.351 Z-0.177 F300
G1 X68.734 Y21.373 Z-0.177 F300
G1 X68.690 Y21.381 Z-0.177 F300
G1 X68.655 Y21.381 Z-0.181 F300
G1 X68.621 Y21.381 Z-0.193 F300
G1 X68.582 Y21.381 Z-0.206 F300
G1 X68.540 Y21.381 Z-0.209 F300
G1 X68.500 Y21.381 Z-0.201 F300
G1 X68.232 Y21.381 Z-0.111 F300
G1 X68.049 Y21.381 Z-0.059 F300
G1 X67.834 Y21.381 Z-0.025 F300
G1 X67.818 Y21.381 Z-0.022 F300
G1 X67.797 Y21.383 Z-0.016 F300
G1 X67.776 Y21.388 Z-0.011 F300
G1 X67.757 Y21.397 Z-0.006 F300
G1 X67.740 Y21.410 Z-0.001 F300
G1 X67.725 Y21.426 Z0.003 F300
G1 X67.713 Y21.444 Z0.006 F300
G1 X67.704 Y21.464 Z0.008 F300
G1 X67.698 Y21.485 Z0.010 F300
G1 X67.696 Y21.507 Z0.010 F300
G1 X67.698 Y21.528 Z0.010 F300
G1 X67.704 Y21.550 Z0.008 F300
G1 X67.713 Y21.570 Z0.006 F300
G1 X67.725 Y21.588 Z0.003 F300
G1 X67.740 Y21.603 Z-0.001 F300
G1 X67.757 Y21.616 Z-0.006 F300
G1 X67.776 Y21.625 Z-0.011 F300
G1 X67.797 Y21.631 Z-0.016 F300
G1 X67.818 Y21.633 Z-0.022 F300
G1 X67.834 Y21.633 Z-0.025 F300
G1 X68.049 Y21.633 Z-0.059 F300
G1 X68.232 Y21.633 Z-0.111 F300
G1 X68.500 Y21.633 Z-0.201 F300
G1 X68.540 Y21.633 Z-0.209 F300
G1 X68.582 Y21.633 Z-0.206 F300
G1 X68.621 Y21.633 Z-0.193 F300
G1 X68.655 Y21.633 Z-0.181 F300
G1 X68.690 Y21.633 Z-0.177 F300
G1 X68.734 Y21.640 Z-0.177 F300
G1 X68.771 Y21.662 Z-0.177 F300
G1 X68.800 Y21.696 Z-0.177 F300
G1 X68.815 Y21.737 Z-0.177 F300
G1 X68.815 Y21.780 Z-0.177 F300
G1 X68.800 Y21.822 Z-0.177 F300
G1 X68.771 Y21.855 Z-0.177 F300
G1 X68.734 Y21.877 Z-0.177 F300
G1 X68.690 Y21.885 Z-0.177 F300
G1 X68.655 Y21.885 Z-0.181 F300
G1 X68.621 Y21.885 Z-0.193 F300
G1 X68.582 Y21.885 Z-0.206 F300
G1 X68.540 Y21.885 Z-0.209 F300
G1 X68.500 Y21.885 Z-0.201 F300
G1 X68.232 Y21.885 Z-0.111 F300
G1 X68.049 Y21.885 Z-0.059 F300
G1 X67.834 Y21.885 Z-0.025 F300
G1 X67.818 Y21.885 Z-0.022 F300
G1 X67.797 Y21.887 Z-0.016 F300
G1 X67.776 Y21.892 Z-0.011 F300
G1 X67.757 Y21.901 Z-0.006 F300
G1 X67.740 Y21.914 Z-0.001 F300
G1 X67.725 Y21.930 Z0.003 F300
G1 X67.713 Y21.948 Z0.006 F300
G1 X67.704 Y21.967 Z0.008 F300
G1 X67.698 Y21.989 Z0.010 F300
G1 X67.696 Y22.011 Z0.010 F300
G1 X67.698 Y22.032 Z0.010 F300
G1 X67.704 Y22.054 Z0.008 F300
G1 X67.713 Y22.074 Z0.006 F300
G1 X67.725 Y22.092 Z0.003 F300
G1 X67.740 Y22.107 Z-0.001 F300
G1 X67.757 Y22.120 Z-0.006 F300
G1 X67.776 Y22.129 Z-0.011 F300
G1 X67.797 Y22.135 Z-0.016 F300
G1 X67.818 Y22.137 Z-0.022 F300
G1 X67.834 Y22.137 Z-0.025 F300
G1 X68.049 Y22.137 Z-0.059 F300
G1 X68.232 Y22.137 Z-0.111 F300
G1 X68.500 Y22.137 Z-0.201 F300
G1 X68.540 Y22.137 Z-0.209 F300
G1 X68.582 Y22.137 Z-0.206 F300
G1 X68.621 Y22.137 Z-0.193 F300
G1 X68.655 Y22.137 Z-0.181 F300
G1 X68.690 Y22.137 Z-0.177 F300
G1 X68.734 Y22.144 Z-0.177 F300
G1 X68.771 Y22.166 Z-0.177 F300
G1 X68.800 Y22.200 Z-0.177 F300
G1 X68.815 Y22.241 Z-0.177 F300
G1 X68.815 Y22.284 Z-0.177 F300
G1 X68.800 Y22.326 Z-0.177 F300
G1 X68.771 Y22.359 Z-0.177 F300
G1 X68.734 Y22.381 Z-0.177 F300
G1 X68.690 Y22.389 Z-0.177 F300
G1 X68.655 Y22.389 Z-0.181 F300
G1 X68.621 Y22.389 Z-0.193 F300
G1 X68.582 Y22.389 Z-0.206 F300
G1 X68.540 Y22.389 Z-0.209 F300
G1 X68.500 Y22.389 Z-0.201 F300
G1 X68.232 Y22.389 Z-0.111 F300
G1 X68.049 Y22.389 Z-0.059 F300
G1 X67.834 Y22.389 Z-0.025 F300
G1 X67.818 Y22.389 Z-0.022 F300
G1 X67.797 Y22.390 Z-0.016 F300
G1 X67.776 Y22.396 Z-0.011 F300
G1 X67.757 Y22.405 Z-0.006 F300
G1 X67.740 Y22.418 Z-0.001 F300
G1 X67.725 Y22.434 Z0.003 F300
G1 X67.713 Y22.452 Z0.006 F300
G1 X67.704 Y22.471 Z0.008 F300
G1 X67.698 Y22.493 Z0.010 F300
G1 X67.696 Y22.515 Z0.010 F300
G1 X67.698 Y22.536 Z0.010 F300
G1 X67.704 Y22.558 Z0.008 F300
G1 X67.713 Y22.578 Z0.006 F300
G1 X67.725 Y22.596 Z0.003 F300
G1 X67.740 Y22.611 Z-0.001 F300
G1 X67.757 Y22.624 Z-0.006 F300
G1 X67.776 Y22.633 Z-0.011 F300
G1 X67.797 Y22.639 Z-0.016 F300
G1 X67.818 Y22.641 Z-0.022 F300
G1 X67.834 Y22.641 Z-0.025 F300
G1 X68.049 Y22.641 Z-0.059 F300
G1 X68.232 Y22.641 Z-0.111 F300
G1 X68.500 Y22.641 Z-0.201 F300
G1 X68.540 Y22.641 Z-0.209 F300
G1 X68.582 Y22.641 Z-0.206 F300
G1 X68.621 Y22.641 Z-0.193 F300
G1 X68.655 Y22.641 Z-0.181 F300
G1 X68.690 Y22.641 Z-0.177 F300
G1 X68.734 Y22.648 Z-0.177 F300
G1 X68.771 Y22.670 Z-0.177 F300
G1 X68.800 Y22.704 Z-0.177 F300
G1 X68.815 Y22.745 Z-0.177 F300
G1 X68.815 Y22.788 Z-0.177 F300
G1 X68.800 Y22.830 Z-0.177 F300
G1 X68.771 Y22.863 Z-0.177 F300
G1 X68.734 Y22.885 Z-0.177 F300
G1 X68.690 Y22.893 Z-0.177 F300
G1 X68.655 Y22.893 Z-0.181 F300
G1 X68.621 Y22.893 Z-0.193 F300
G1 X68.582 Y22.893 Z-0.206 F300
G1 X68.540 Y22.893 Z-0.209 F300
G1 X68.500 Y22.893 Z-0.201 F300
G1 X68.232 Y22.893 Z-0.111 F300
G1 X68.049 Y22.893 Z-0.059 F300
G1 X67.834 Y22.893 Z-0.025 F300
G1 X67.818 Y22.893 Z-0.022 F300
G1 X67.797 Y22.894 Z-0.016 F300
G1 X67.776 Y22.900 Z-0.011 F300
G1 X67.757 Y22.909 Z-0.006 F300
G1 X67.740 Y22.922 Z-0.001 F300
G1 X67.725 Y22.938 Z0.003 F300
G1 X67.713 Y22.956 Z0.006 F300
G1 X67.704 Y22.975 Z0.008 F300
G1 X67.698 Y22.997 Z0.010 F300
G1 X67.696 Y23.019 Z0.010 F300
G1 X67.698 Y23.040 Z0.010 F300
G1 X67.704 Y23.062 Z0.008 F300
G1 X67.713 Y23.082 Z0.006 F300
G1 X67.725 Y23.100 Z0.003 F300
G1 X67.740 Y23.115 Z-0.001 F300
G1 X67.757 Y23.128 Z-0.006 F300
G1 X67.776 Y23.137 Z-0.011 F300
G1 X67.797 Y23.143 Z-0.016 F300
G1 X67.818 Y23.145 Z-0.022 F300
G1 X67.834 Y23.145 Z-0.025 F300
G1 X68.049 Y23.145 Z-0.059 F300
G1 X68.232 Y23.145 Z-0.111 F300
G1 X68.500 Y23.145 Z-0.201 F300
G1 X68.540 Y23.145 Z-0.209 F300
G1 X68.582 Y23.145 Z-0.206 F300
G1 X68.621 Y23.145 Z-0.193 F300
G1 X68.655 Y23.145 Z-0.181 F300
G1 X68.690 Y23.145 Z-0.177 F300
G1 X68.734 Y23.152 Z-0.177 F300
G1 X68.771 Y23.174 Z-0.177 F300
G1 X68.800 Y23.208 Z-0.177 F300
G1 X68.815 Y23.249 Z-0.177 F300
G1 X68.815 Y23.292 Z-0.177 F300
G1 X68.800 Y23.334 Z-0.177 F300
G1 X68.771 Y23.367 Z-0.177 F300
G1 X68.734 Y23.389 Z-0.177 F300
G1 X68.690 Y23.397 Z-0.177 F300
G1 X68.655 Y23.397 Z-0.181 F300
G1 X68.621 Y23.397 Z-0.193 F300
G1 X68.582 Y23.397 Z-0.206 F300
G1 X68.540 Y23.397 Z-0.209 F300
G1 X68.500 Y23.397 Z-0.201 F300
G1 X68.232 Y23.397 Z-0.111 F300
G1 X68.049 Y23.397 Z-0.059 F300
G1 X67.834 Y23.397 Z-0.025 F300
G1 X67.818 Y23.397 Z-0.022 F300
G1 X67.797 Y23.398 Z-0.016 F300
G1 X67.776 Y23.404 Z-0.011 F300
G1 X67.757 Y23.413 Z-0.006 F300
G1 X67.740 Y23.426 Z-0.001 F300
G1 X67.725 Y23.442 Z0.003 F300
G1 X67.713 Y23.460 Z0.006 F300
G1 X67.704 Y23.479 Z0.008 F300
G1 X67.698 Y23.501 Z0.010 F300
G1 X67.696 Y23.523 Z0.010 F300
G1 X67.698 Y23.544 Z0.010 F300
G1 X67.704 Y23.566 Z0.008 F300
G1 X67.713 Y23.586 Z0.006 F300
G1 X67.725 Y23.604 Z0.003 F300
G1 X67.740 Y23.619 Z-0.001 F300
G1 X67.757 Y23.632 Z-0.006 F300
G1 X67.776 Y23.641 Z-0.011 F300
G1 X67.797 Y23.647 Z-0.016 F300
G1 X67.818 Y23.649 Z-0.022 F300
G1 X67.834 Y23.649 Z-0.025 F300
G1 X68.049 Y23.649 Z-0.059 F300
G1 X68.232 Y23.649 Z-0.111 F300
G1 X68.500 Y23.649 Z-0.201 F300
G1 X68.540 Y23.649 Z-0.209 F300
G1 X68.582 Y23.649 Z-0.206 F300
G1 X68.621 Y23.649 Z-0.193 F300
G1 X68.655 Y23.649 Z-0.181 F300
G1 X68.690 Y23.649 Z-0.177 F300
G1 X68.734 Y23.656 Z-0.177 F300
G1 X68.771 Y23.678 Z-0.177 F300
G1 X68.800 Y23.712 Z-0.177 F300
G1 X68.815 Y23.753 Z-0.177 F300
G1 X68.815 Y23.796 Z-0.177 F300
G1 X68.800 Y23.838 Z-0.177 F300
G1 X68.771 Y23.871 Z-0.177 F300
G1 X68.734 Y23.893 Z-0.177 F300
G1 X68.690 Y23.901 Z-0.177 F300
G1 X68.655 Y23.901 Z-0.181 F300
G1 X68.621 Y23.901 Z-0.193 F300
G1 X68.582 Y23.901 Z-0.206 F300
G1 X68.540 Y23.901 Z-0.209 F300
G1 X68.500 Y23.901 Z-0.201 F300
G1 X68.232 Y23.901 Z-0.111 F300
G1 X68.049 Y23.901 Z-0.059 F300
G1 X67.834 Y23.901 Z-0.025 F300
G1 X67.818 Y23.901 Z-0.022 F300
G1 X67.797 Y23.902 Z-0.016 F300
G1 X67.776 Y23.908 Z-0.011 F300
G1 X67.757 Y23.917 Z-0.006 F300
G1 X67.740 Y23.930 Z-0.001 F300
G1 X67.725 Y23.946 Z0.003 F300
G1 X67.713 Y23.964 Z0.006 F300
G1 X67.704 Y23.983 Z0.008 F300
G1 X67.698 Y24.005 Z0.010 F300
G1 X67.696 Y24.027 Z0.010 F300
G1 X67.698 Y24.048 Z0.010 F300
G1 X67.704 Y24.070 Z0.008 F300
G1 X67.713 Y24.090 Z0.006 F300
G1 X67.725 Y24.107 Z0.003 F300
G1 X67.740 Y24.123 Z-0.001 F300
G1 X67.757 Y24.136 Z-0.006 F300
G1 X67.776 Y24.145 Z-0.011 F300
G1 X67.797 Y24.151 Z-0.016 F300
G1 X67.818 Y24.153 Z-0.022 F300
G1 X67.834 Y24.153 Z-0.025 F300
G1 X68.049 Y24.153 Z-0.059 F300
G1 X68.232 Y24.153 Z-0.111 F300
G1 X68.500 Y24.153 Z-0.201 F300
G1 X68.540 Y24.153 Z-0.209 F300
G1 X68.582 Y24.153 Z-0.206 F300
G1 X68.621 Y24.153 Z-0.193 F300
G1 X68.655 Y24.153 Z-0.181 F300
G1 X68.690 Y24.153 Z-0.177 F300
G1 X68.734 Y24.160 Z-0.177 F300
G1 X68.771 Y24.182 Z-0.177 F300
G1 X68.800 Y24.215 Z-0.177 F300
G1 X68.815 Y24.257 Z-0.177 F300
G1 X68.815 Y24.300 Z-0.177 F300
G1 X68.800 Y24.341 Z-0.177 F300
G1 X68.771 Y24.375 Z-0.177 F300
G1 X68.734 Y24.397 Z-0.177 F300
G1 X68.690 Y24.404 Z-0.177 F300
G1 X68.655 Y24.404 Z-0.181 F300
G1 X68.621 Y24.404 Z-0.193 F300
G1 X68.582 Y24.404 Z-0.206 F300
G1 X68.540 Y24.404 Z-0.209 F300
G1 X68.500 Y24.404 Z-0.201 F300
G1 X68.232 Y24.404 Z-0.111 F300
G1 X68.049 Y24.404 Z-0.059 F300
G1 X67.834 Y24.404 Z-0.025 F300
G1 X67.818 Y24.404 Z-0.022 F300
G1 X67.797 Y24.406 Z-0.016 F300
G1 X67.776 Y24.412 Z-0.011 F300
G1 X67.757 Y24.421 Z-0.006 F300
G1 X67.740 Y24.434 Z-0.001 F300
G1 X67.725 Y24.449 Z0.003 F300
G1 X67.713 Y24.467 Z0.006 F300
G1 X67.704 Y24.487 Z0.008 F300
G1 X67.698 Y24.509 Z0.010 F300
G1 X67.696 Y24.530 Z0.010 F300
G1 X67.698 Y24.552 Z0.010 F300
G1 X67.704 Y24.574 Z0.008 F300
G1 X67.713 Y24.593 Z0.006 F300
G1 X67.725 Y24.611 Z0.003 F300
G1 X67.740 Y24.627 Z-0.001 F300
G1 X67.757 Y24.640 Z-0.006 F300
G1 X67.776 Y24.649 Z-0.011 F300
G1 X67.797 Y24.655 Z-0.016 F300
G1 X67.818 Y24.656 Z-0.022 F300
G1 X67.834 Y24.656 Z-0.025 F300
G1 X68.049 Y24.656 Z-0.059 F300
G1 X68.232 Y24.656 Z-0.111 F300
G1 X68.500 Y24.656 Z-0.201 F300
G1 X68.540 Y24.656 Z-0.209 F300
G1 X68.582 Y24.656 Z-0.206 F300
G1 X68.621 Y24.656 Z-0.193 F300
G1 X68.655 Y24.656 Z-0.181 F300
G1 X68.690 Y24.656 Z-0.177 F300
G1 X68.734 Y24.664 Z-0.177 F300
G1 X68.771 Y24.686 Z-0.177 F300
G1 X68.800 Y24.719 Z-0.177 F300
G1 X68.815 Y24.761 Z-0.177 F300
G1 X68.815 Y24.804 Z-0.177 F300
G1 X68.800 Y24.845 Z-0.177 F300
G1 X68.771 Y24.879 Z-0.177 F300
G1 X68.734 Y24.901 Z-0.177 F300
G1 X68.690 Y24.908 Z-0.177 F300
G1 X68.655 Y24.908 Z-0.181 F300
G1 X68.621 Y24.908 Z-0.193 F300
G1 X68.582 Y24.908 Z-0.206 F300
G1 X68.540 Y24.908 Z-0.209 F300
G1 X68.500 Y24.908 Z-0.201 F300
G1 X68.232 Y24.908 Z-0.111 F300
G1 X68.049 Y24.908 Z-0.059 F300
G1 X67.834 Y24.908 Z-0.025 F300
G1 X67.818 Y24.908 Z-0.022 F300
G1 X67.797 Y24.910 Z-0.016 F300
G1 X67.776 Y24.916 Z-0.011 F300
G1 X67.757 Y24.925 Z-0.006 F300
G1 X67.740 Y24.938 Z-0.001 F300
G1 X67.725 Y24.953 Z0.003 F300
G1 X67.713 Y24.971 Z0.006 F300
G1 X67.704 Y24.991 Z0.008 F300
G1 X67.698 Y25.013 Z0.010 F300
G1 X67.696 Y25.034 Z0.010 F300
G1 X67.698 Y25.056 Z0.010 F300
G1 X67.704 Y25.078 Z0.008 F300
G1 X67.713 Y25.097 Z0.006 F300
G1 X67.725 Y25.115 Z0.003 F300
G1 X67.740 Y25.131 Z-0.001 F300
G1 X67.757 Y25.144 Z-0.006 F300
G1 X67.776 Y25.153 Z-0.011 F300
G1 X67.797 Y25.159 Z-0.016 F300
G1 X67.818 Y25.160 Z-0.022 F300
G1 X67.834 Y25.160 Z-0.025 F300
G1 X68.049 Y25.160 Z-0.059 F300
G1 X68.232 Y25.160 Z-0.111 F300
G1 X68.500 Y25.160 Z-0.201 F300
G1 X68.540 Y25.160 Z-0.209 F300
G1 X68.582 Y25.160 Z-0.206 F300
G1 X68.621 Y25.160 Z-0.193 F300
G1 X68.655 Y25.160 Z-0.181 F300
G1 X68.690 Y25.160 Z-0.177 F300
G1 X68.734 Y25.168 Z-0.177 F300
G1 X68.771 Y25.190 Z-0.177 F300
G1 X68.800 Y25.223 Z-0.177 F300
G1 X68.815 Y25.265 Z-0.177 F300
G1 X68.815 Y25.308 Z-0.177 F300
G1 X68.800 Y25.349 Z-0.177 F300
G1 X68.771 Y25.383 Z-0.177 F300
G1 X68.734 Y25.405 Z-0.177 F300
G1 X68.690 Y25.412 Z-0.177 F300
G1 X68.655 Y25.412 Z-0.181 F300
G1 X68.621 Y25.412 Z-0.193 F300
G1 X68.582 Y25.412 Z-0.206 F300
G1 X68.540 Y25.412 Z-0.209 F300
G1 X68.500 Y25.412 Z-0.201 F300
G1 X68.232 Y25.412 Z-0.111 F300
G1 X68.049 Y25.412 Z-0.059 F300
G1 X67.834 Y25.412 Z-0.025 F300
G1 X67.818 Y25.412 Z-0.022 F300
G1 X67.797 Y25.414 Z-0.016 F300
G1 X67.776 Y25.420 Z-0.011 F300
G1 X67.757 Y25.429 Z-0.006 F300
G1 X67.740 Y25.442 Z-0.001 F300
G1 X67.725 Y25.457 Z0.003 F300
G1 X67.713 Y25.475 Z0.006 F300
G1 X67.704 Y25.495 Z0.008 F300
G1 X67.698 Y25.517 Z0.010 F300
G1 X67.696 Y25.538 Z0.010 F300
G1 X67.698 Y25.560 Z0.010 F300
G1 X67.704 Y25.582 Z0.008 F300
G1 X67.713 Y25.601 Z0.006 F300
G1 X67.725 Y25.619 Z0.003 F300
G1 X67.740 Y25.635 Z-0.001 F300
G1 X67.757 Y25.648 Z-0.006 F300
G1 X67.776 Y25.657 Z-0.011 F300
G1 X67.797 Y25.663 Z-0.016 F300
G1 X67.818 Y25.664 Z-0.022 F300
G1 X67.834 Y25.664 Z-0.025 F300
G1 X68.049 Y25.664 Z-0.059 F300
G1 X68.232 Y25.664 Z-0.111 F300
G1 X68.500 Y25.664 Z-0.201 F300
G1 X68.540 Y25.664 Z-0.209 F300
G1 X68.582 Y25.664 Z-0.206 F300
G1 X68.621 Y25.664 Z-0.193 F300
G1 X68.655 Y25.664 Z-0.181 F300
G1 X68.690 Y25.664 Z-0.177 F300
G1 X68.734 Y25.672 Z-0.177 F300
G1 X68.771 Y25.694 Z-0.177 F300
G1 X68.800 Y25.727 Z-0.177 F300
G1 X68.815 Y25.769 Z-0.177 F300
G1 X68.815 Y25.812 Z-0.177 F300
G1 X68.800 Y25.853 Z-0.177 F300
G1 X68.771 Y25.887 Z-0.177 F300
G1 X68.734 Y25.909 Z-0.177 F300
G1 X68.690 Y25.916 Z-0.177 F300
G1 X68.655 Y25.916 Z-0.181 F300
G1 X68.621 Y25.916 Z-0.193 F300
G1 X68.582 Y25.916 Z-0.206 F300
G1 X68.540 Y25.916 Z-0.209 F300
G1 X68.500 Y25.916 Z-0.201 F300
G1 X68.232 Y25.916 Z-0.111 F300
G1 X68.049 Y25.916 Z-0.059 F300
G1 X67.834 Y25.916 Z-0.025 F300
G1 X67.818 Y25.916 Z-0.022 F300
G1 X67.797 Y25.918 Z-0.016 F300
G1 X67.776 Y25.924 Z-0.011 F300
G1 X67.757 Y25.933 Z-0.006 F300
G1 X67.740 Y25.946 Z-0.001 F300
G1 X67.725 Y25.961 Z0.003 F300
G1 X67.713 Y25.979 Z0.006 F300
G1 X67.704 Y25.999 Z0.008 F300
G1 X67.698 Y26.021 Z0.010 F300
G1 X67.696 Y26.042 Z0.010 F300
G1 X67.698 Y26.064 Z0.010 F300
G1 X67.704 Y26.086 Z0.008 F300
G1 X67.713 Y26.105 Z0.006 F300
G1 X67.725 Y26.123 Z0.003 F300
G1 X67.740 Y26.139 Z-0.001 F300
G1 X67.757 Y26.152 Z-0.006 F300
G1 X67.776 Y26.161 Z-0.011 F300
G1 X67.797 Y26.167 Z-0.016 F300
G1 X67.818 Y26.168 Z-0.022 F300
G1 X67.834 Y26.168 Z-0.025 F300
G1 X68.049 Y26.168 Z-0.059 F300
G1 X68.232 Y26.168 Z-0.111 F300
G1 X68.500 Y26.168 Z-0.201 F300
G1 X68.540 Y26.168 Z-0.209 F300
G1 X68.582 Y26.168 Z-0.206 F300
G1 X68.621 Y26.168 Z-0.193 F300
G1 X68.655 Y26.168 Z-0.181 F300
G1 X68.690 Y26.168 Z-0.177 F300
G1 X68.734 Y26.176 Z-0.177 F300
G1 X68.771 Y26.198 Z-0.177 F300
G1 X68.800 Y26.231 Z-0.177 F300
G1 X68.815 Y26.273 Z-0.177 F300
G1 X68.815 Y26.316 Z-0.177 F300
G1 X68.800 Y26.357 Z-0.177 F300
G1 X68.771 Y26.391 Z-0.177 F300
G1 X68.734 Y26.413 Z-0.177 F300
G1 X68.690 Y26.420 Z-0.177 F300
G1 X68.655 Y26.420 Z-0.181 F300
G1 X68.621 Y26.420 Z-0.193 F300
G1 X68.582 Y26.420 Z-0.206 F300
G1 X68.540 Y26.420 Z-0.209 F300
G1 X68.500 Y26.420 Z-0.201 F300
G1 X68.232 Y26.420 Z-0.111 F300
G1 X68.049 Y26.420 Z-0.059 F300
G1 X67.834 Y26.420 Z-0.025 F300
G1 X67.818 Y26.420 Z-0.022 F300
G1 X67.797 Y26.422 Z-0.016 F300
G1 X67.776 Y26.428 Z-0.011 F300
G1 X67.757 Y26.437 Z-0.006 F300
G1 X67.740 Y26.450 Z-0.001 F300
G1 X67.725 Y26.465 Z0.003 F300
G1 X67.713 Y26.483 Z0.006 F300
G1 X67.704 Y26.503 Z0.008 F300
G1 X67.698 Y26.525 Z0.010 F300
G1 X67.696 Y26.546 Z0.010 F300
G1 X67.698 Y26.568 Z0.010 F300
G1 X67.704 Y26.589 Z0.008 F300
G1 X67.713 Y26.609 Z0.006 F300
G1 X67.725 Y26.627 Z0.003 F300
G1 X67.740 Y26.643 Z-0.001 F300
G1 X67.757 Y26.656 Z-0.006 F300
G1 X67.776 Y26.665 Z-0.011 F300
G1 X67.797 Y26.670 Z-0.016 F300
G1 X67.818 Y26.672 Z-0.022 F300
G1 X67.834 Y26.672 Z-0.025 F300
G1 X68.049 Y26.672 Z-0.059 F300
G1 X68.232 Y26.672 Z-0.111 F300
G1 X68.500 Y26.672 Z-0.201 F300
G1 X68.540 Y26.672 Z-0.209 F300
G1 X68.582 Y26.672 Z-0.206 F300
G1 X68.621 Y26.672 Z-0.193 F300
G1 X68.655 Y26.672 Z-0.181 F300
G1 X68.690 Y26.672 Z-0.177 F300
G1 X68.734 Y26.680 Z-0.177 F300
G1 X68.771 Y26.702 Z-0.177 F300
G1 X68.800 Y26.735 Z-0.177 F300
G1 X68.815 Y26.777 Z-0.177 F300
G1 X68.815 Y26.820 Z-0.177 F300
G1 X68.800 Y26.861 Z-0.177 F300
G1 X68.771 Y26.895 Z-0.177 F300
G1 X68.734 Y26.917 Z-0.177 F300
G1 X68.690 Y26.924 Z-0.177 F300
G1 X68.655 Y26.924 Z-0.181 F300
G1 X68.621 Y26.924 Z-0.193 F300
G1 X68.582 Y26.924 Z-0.206 F300
G1 X68.540 Y26.924 Z-0.209 F300
G1 X68.500 Y26.924 Z-0.201 F300
G1 X68.232 Y26.924 Z-0.111 F300
G1 X68.049 Y26.924 Z-0.059 F300
G1 X67.834 Y26.924 Z-0.025 F300
G1 X67.818 Y26.924 Z-0.022 F300
G1 X67.797 Y26.926 Z-0.016 F300
G1 X67.776 Y26.932 Z-0.011 F300
G1 X67.757 Y26.941 Z-0.006 F300
G1 X67.740 Y26.954 Z-0.001 F300
G1 X67.725 Y26.969 Z0.003 F300
G1 X67.713 Y26.987 Z0.006 F300
G1 X67.704 Y27.007 Z0.008 F300
G1 X67.698 Y27.029 Z0.010 F300
G1 X67.696 Y27.050 Z0.010 F300
G1 X67.698 Y27.072 Z0.010 F300
G1 X67.704 Y27.093 Z0.008 F300
G1 X67.713 Y27.113 Z0.006 F300
G1 X67.725 Y27.131 Z0.003 F300
G1 X67.740 Y27.147 Z-0.001 F300
G1 X67.757 Y27.160 Z-0.006 F300
G1 X67.776 Y27.169 Z-0.011 F300
G1 X67.797 Y27.174 Z-0.016 F300
G1 X67.818 Y27.176 Z-0.022 F300
G1 X67.834 Y27.176 Z-0.025 F300
G1 X68.049 Y27.176 Z-0.059 F300
G1 X68.232 Y27.176 Z-0.111 F300
G1 X68.500 Y27.176 Z-0.201 F300
G1 X68.540 Y27.176 Z-0.209 F300
G1 X68.582 Y27.176 Z-0.206 F300
G1 X68.621 Y27.176 Z-0.193 F300
G1 X68.655 Y27.176 Z-0.181 F300
G1 X68.690 Y27.176 Z-0.177 F300
G1 X68.734 Y27.184 Z-0.177 F300
G1 X68.771 Y27.206 Z-0.177 F300
G1 X68.800 Y27.239 Z-0.177 F300
G1 X68.815 Y27.280 Z-0.177 F300
G1 X68.815 Y27.324 Z-0.177 F300
G1 X68.800 Y27.365 Z-0.177 F300
G1 X68.771 Y27.399 Z-0.177 F300
G1 X68.734 Y27.421 Z-0.177 F300
G1 X68.690 Y27.428 Z-0.177 F300
G1 X68.655 Y27.428 Z-0.181 F300
G1 X68.621 Y27.428 Z-0.193 F300
G1 X68.582 Y27.428 Z-0.206 F300
G1 X68.540 Y27.428 Z-0.209 F300
G1 X68.500 Y27.428 Z-0.201 F300
G1 X68.232 Y27.428 Z-0.111 F300
G1 X68.049 Y27.428 Z-0.059 F300
G1 X67.834 Y27.428 Z-0.025 F300
G1 X67.818 Y27.428 Z-0.022 F300
G1 X67.797 Y27.430 Z-0.016 F300
G1 X67.776 Y27.436 Z-0.011 F300
G1 X67.757 Y27.445 Z-0.006 F300
G1 X67.740 Y27.458 Z-0.001 F300
G1 X67.725 Y27.473 Z0.003 F300
G1 X67.713 Y27.491 Z0.006 F300
G1 X67.704 Y27.511 Z0.008 F300
G1 X67.698 Y27.532 Z0.010 F300
G1 X67.696 Y27.554 Z0.010 F300
G1 X67.698 Y27.576 Z0.010 F300
G1 X67.704 Y27.597 Z0.008 F300
G1 X67.713 Y27.617 Z0.006 F300
G1 X67.725 Y27.635 Z0.003 F300
G1 X67.740 Y27.651 Z-0.001 F300
G1 X67.757 Y27.663 Z-0.006 F300
G1 X67.776 Y27.673 Z-0.011 F300
G1 X67.797 Y27.678 Z-0.016 F300
G1 X67.818 Y27.680 Z-0.022 F300
G1 X67.834 Y27.680 Z-0.025 F300
G1 X68.049 Y27.680 Z-0.059 F300
G1 X68.232 Y27.680 Z-0.111 F300
G1 X68.500 Y27.680 Z-0.201 F300
G1 X68.540 Y27.680 Z-0.209 F300
G1 X68.582 Y27.680 Z-0.206 F300
G1 X68.621 Y27.680 Z-0.193 F300
G1 X68.655 Y27.680 Z-0.181 F300
G1 X68.690 Y27.680 Z-0.177 F300
G1 X68.734 Y27.688 Z-0.177 F300
G1 X68.771 Y27.710 Z-0.177 F300
G1 X68.800 Y27.743 Z-0.177 F300
G1 X68.815 Y27.784 Z-0.177 F300
G1 X68.815 Y27.828 Z-0.177 F300
G1 X68.800 Y27.869 Z-0.177 F300
G1 X68.771 Y27.903 Z-0.177 F300
G1 X68.734 Y27.925 Z-0.177 F300
G1 X68.690 Y27.932 Z-0.177 F300
G1 X68.655 Y27.932 Z-0.181 F300
G1 X68.621 Y27.932 Z-0.193 F300
G1 X68.582 Y27.932 Z-0.206 F300
G1 X68.540 Y27.932 Z-0.209 F300
G1 X68.500 Y27.932 Z-0.201 F300
G1 X68.232 Y27.932 Z-0.111 F300
G1 X68.049 Y27.932 Z-0.059 F300
G1 X67.834 Y27.932 Z-0.025 F300
G1 X67.818 Y27.932 Z-0.022 F300
G1 X67.797 Y27.934 Z-0.016 F300
G1 X67.776 Y27.940 Z-0.011 F300
G1 X67.757 Y27.949 Z-0.006 F300
G1 X67.740 Y27.962 Z-0.001 F300
G1 X67.725 Y27.977 Z0.003 F300
G1 X67.713 Y27.995 Z0.006 F300
G1 X67.704 Y28.015 Z0.008 F300
G1 X67.698 Y28.036 Z0.010 F300
G1 X67.696 Y28.058 Z0.010 F300
G1 X67.698 Y28.080 Z0.010 F300
G1 X67.704 Y28.101 Z0.008 F300
G1 X67.713 Y28.121 Z0.006 F300
G1 X67.725 Y28.139 Z0.003 F300
G1 X67.740 Y28.155 Z-0.001 F300
G1 X67.757 Y28.167 Z-0.006 F300
G1 X67.776 Y28.177 Z-0.011 F300
G1 X67.797 Y28.182 Z-0.016 F300
G1 X67.818 Y28.184 Z-0.022 F300
G1 X67.834 Y28.184 Z-0.025 F300
G1 X68.049 Y28.184 Z-0.059 F300
G1 X68.232 Y28.184 Z-0.111 F300
G1 X68.500 Y28.184 Z-0.201 F300
G1 X68.540 Y28.184 Z-0.209 F300
G1 X68.582 Y28.184 Z-0.206 F300
G1 X68.621 Y28.184 Z-0.193 F300
G1 X68.655 Y28.184 Z-0.181 F300
G1 X68.690 Y28.184 Z-0.177 F300
G1 X68.734 Y28.192 Z-0.177 F300
G1 X68.771 Y28.214 Z-0.177 F300
G1 X68.800 Y28.247 Z-0.177 F300
G1 X68.815 Y28.288 Z-0.177 F300
G1 X68.815 Y28.332 Z-0.177 F300
G1 X68.800 Y28.373 Z-0.177 F300
G1 X68.771 Y28.407 Z-0.177 F300
G1 X68.734 Y28.429 Z-0.177 F300
G1 X68.690 Y28.436 Z-0.177 F300
G1 X68.655 Y28.436 Z-0.181 F300
G1 X68.621 Y28.436 Z-0.193 F300
G1 X68.582 Y28.436 Z-0.206 F300
G1 X68.540 Y28.436 Z-0.209 F300
G1 X68.500 Y28.436 Z-0.201 F300
G1 X68.232 Y28.436 Z-0.111 F300
G1 X68.049 Y28.436 Z-0.059 F300
G1 X67.834 Y28.436 Z-0.025 F300
G1 X67.818 Y28.436 Z-0.022 F300
G1 X67.797 Y28.438 Z-0.016 F300
G1 X67.776 Y28.444 Z-0.011 F300
G1 X67.757 Y28.453 Z-0.006 F300
G1 X67.740 Y28.466 Z-0.001 F300
G1 X67.725 Y28.481 Z0.003 F300
G1 X67.713 Y28.499 Z0.006 F300
G1 X67.704 Y28.519 Z0.008 F300
G1 X67.698 Y28.540 Z0.010 F300
G1 X67.696 Y28.562 Z0.010 F300
G1 X67.698 Y28.584 Z0.010 F300
G1 X67.704 Y28.605 Z0.008 F300
G1 X67.713 Y28.625 Z0.006 F300
G1 X67.725 Y28.643 Z0.003 F300
G1 X67.740 Y28.659 Z-0.001 F300
G1 X67.757 Y28.671 Z-0.006 F300
G1 X67.776 Y28.681 Z-0.011 F300
G1 X67.797 Y28.686 Z-0.016 F300
G1 X67.818 Y28.688 Z-0.022 F300
G1 X67.834 Y28.688 Z-0.025 F300
G1 X68.049 Y28.688 Z-0.059 F300
G1 X68.232 Y28.688 Z-0.111 F300
G1 X68.500 Y28.688 Z-0.201 F300
G1 X68.540 Y28.688 Z-0.209 F300
G1 X68.582 Y28.688 Z-0.206 F300
G1 X68.621 Y28.688 Z-0.193 F300
G1 X68.655 Y28.688 Z-0.181 F300
G1 X68.690 Y28.688 Z-0.177 F300
G1 X68.734 Y28.696 Z-0.177 F300
G1 X68.771 Y28.718 Z-0.177 F300
G1 X68.800 Y28.751 Z-0.177 F300
G1 X68.815 Y28.792 Z-0.177 F300
G1 X68.815 Y28.836 Z-0.177 F300
G1 X68.800 Y28.877 Z-0.177 F300
G1 X68.771 Y28.911 Z-0.177 F300
G1 X68.734 Y28.933 Z-0.177 F300
G1 X68.690 Y28.940 Z-0.177 F300
G1 X68.655 Y28.940 Z-0.181 F300
G1 X68.621 Y28.940 Z-0.193 F300
G1 X68.582 Y28.940 Z-0.206 F300
G1 X68.540 Y28.940 Z-0.209 F300
G1 X68.500 Y28.940 Z-0.201 F300
G1 X68.232 Y28.940 Z-0.111 F300
G1 X68.049 Y28.940 Z-0.059 F300
G1 X67.834 Y28.940 Z-0.025 F300
G1 X67.818 Y28.940 Z-0.022 F300
G1 X67.797 Y28.942 Z-0.016 F300
G1 X67.776 Y28.948 Z-0.011 F300
G1 X67.757 Y28.957 Z-0.006 F300
G1 X67.740 Y28.970 Z-0.001 F300
G1 X67.725 Y28.985 Z0.003 F300
G1 X67.713 Y29.003 Z0.006 F300
G1 X67.704 Y29.023 Z0.008 F300
G1 X67.698 Y29.044 Z0.010 F300
G1 X67.696 Y29.066 Z0.010 F300
G1 X67.698 Y29.088 Z0.010 F300
G1 X67.704 Y29.109 Z0.008 F300
G1 X67.713 Y29.129 Z0.006 F300
G1 X67.725 Y29.147 Z0.003 F300
G1 X67.740 Y29.163 Z-0.001 F300
G1 X67.757 Y29.175 Z-0.006 F300
G1 X67.776 Y29.185 Z-0.011 F300
G1 X67.797 Y29.190 Z-0.016 F300
G1 X67.818 Y29.192 Z-0.022 F300
G1 X67.834 Y29.192 Z-0.025 F300
G1 X68.049 Y29.192 Z-0.059 F300
G1 X68.232 Y29.192 Z-0.111 F300
G1 X68.500 Y29.192 Z-0.201 F300
G1 X68.540 Y29.192 Z-0.209 F300
G1 X68.582 Y29.192 Z-0.206 F300
G1 X68.621 Y29.192 Z-0.193 F300
G1 X68.655 Y29.192 Z-0.181 F300
G1 X68.690 Y29.192 Z-0.177 F300
G1 X68.734 Y29.200 Z-0.177 F300
G1 X68.771 Y29.222 Z-0.177 F300
G1 X68.800 Y29.255 Z-0.177 F300
G1 X68.815 Y29.296 Z-0.177 F300
G1 X68.815 Y29.340 Z-0.177 F300
G1 X68.800 Y29.381 Z-0.177 F300
G1 X68.771 Y29.415 Z-0.177 F300
G1 X68.734 Y29.437 Z-0.177 F300
G1 X68.690 Y29.444 Z-0.177 F300
G1 X68.655 Y29.444 Z-0.181 F300
G1 X68.621 Y29.444 Z-0.193 F300
G1 X68.582 Y29.444 Z-0.206 F300
G1 X68.540 Y29.444 Z-0.209 F300
G1 X68.500 Y29.444 Z-0.201 F300
G1 X68.232 Y29.444 Z-0.111 F300
G1 X68.049 Y29.444 Z-0.059 F300
G1 X67.834 Y29.444 Z-0.025 F300
G1 X67.818 Y29.444 Z-0.022 F300
G1 X67.797 Y29.446 Z-0.016 F300
G1 X67.776 Y29.452 Z-0.011 F300
G1 X67.757 Y29.461 Z-0.006 F300
G1 X67.740 Y29.474 Z-0.001 F300
G1 X67.725 Y29.489 Z0.003 F300
G1 X67.713 Y29.507 Z0.006 F300
G1 X67.704 Y29.527 Z0.008 F300
G1 X67.698 Y29.548 Z0.010 F300
G1 X67.696 Y29.570 Z0.010 F300
G1 X67.698 Y29.592 Z0.010 F300
G1 X67.704 Y29.613 Z0.008 F300
G1 X67.713 Y29.633 Z0.006 F300
G1 X67.725 Y29.651 Z0.003 F300
G1 X67.740 Y29.667 Z-0.001 F300
G1 X67.757 Y29.679 Z-0.006 F300
G1 X67.776 Y29.689 Z-0.011 F300
G1 X67.797 Y29.694 Z-0.016 F300
G1 X67.818 Y29.696 Z-0.022 F300
G1 X67.834 Y29.696 Z-0.025 F300
G1 X68.049 Y29.696 Z-0.059 F300
G1 X68.232 Y29.696 Z-0.111 F300
G1 X68.500 Y29.696 Z-0.201 F300
G1 X68.540 Y29.696 Z-0.209 F300
G1 X68.582 Y29.696 Z-0.206 F300
G1 X68.621 Y29.696 Z-0.193 F300
G1 X68.655 Y29.696 Z-0.181 F300
G1 X68.690 Y29.696 Z-0.177 F300
G1 X68.734 Y29.704 Z-0.177 F300
G1 X68.771 Y29.726 Z-0.177 F300
G1 X68.800 Y29.759 Z-0.177 F300
G1 X68.815 Y29.800 Z-0.177 F300
G1 X68.815 Y29.844 Z-0.177 F300
G1 X68.800 Y29.885 Z-0.177 F300
G1 X68.771 Y29.919 Z-0.177 F300
G1 X68.734 Y29.941 Z-0.177 F300
G1 X68.690 Y29.948 Z-0.177 F300
G1 X68.655 Y29.948 Z-0.181 F300
G1 X68.621 Y29.948 Z-0.193 F300
G1 X68.582 Y29.948 Z-0.206 F300
G1 X68.540 Y29.948 Z-0.209 F300
G1 X68.500 Y29.948 Z-0.201 F300
G1 X68.232 Y29.948 Z-0.111 F300
G1 X68.049 Y29.948 Z-0.059 F300
G1 X67.834 Y29.948 Z-0.025 F300
G1 X67.818 Y29.948 Z-0.022 F300
G1 X67.797 Y29.950 Z-0.016 F300
G1 X67.776 Y29.956 Z-0.011 F300
G1 X67.757 Y29.965 Z-0.006 F300
G1 X67.740 Y29.978 Z-0.001 F300
G1 X67.725 Y29.993 Z0.003 F300
G1 X67.713 Y30.011 Z0.006 F300
G1 X67.704 Y30.031 Z0.008 F300
G1 X67.698 Y30.052 Z0.010 F300
G1 X67.696 Y30.074 Z0.010 F300
G1 X67.698 Y30.096 Z0.010 F300
G1 X67.704 Y30.117 Z0.008 F300
G1 X67.713 Y30.137 Z0.006 F300
G1 X67.725 Y30.155 Z0.003 F300
G1 X67.740 Y30.171 Z-0.001 F300
G1 X67.757 Y30.183 Z-0.006 F300
G1 X67.776 Y30.193 Z-0.011 F300
G1 X67.797 Y30.198 Z-0.016 F300
G1 X67.818 Y30.200 Z-0.022 F300
G1 X67.834 Y30.200 Z-0.025 F300
G1 X68.049 Y30.200 Z-0.059 F300
G1 X68.232 Y30.200 Z-0.111 F300
G1 X68.500 Y30.200 Z-0.201 F300
G1 X68.540 Y30.200 Z-0.209 F300
G1 X68.582 Y30.200 Z-0.206 F300
G1 X68.621 Y30.200 Z-0.193 F300
G1 X68.655 Y30.200 Z-0.181 F300
G1 X68.690 Y30.200 Z-0.177 F300
G1 X68.734 Y30.208 Z-0.177 F300
G1 X68.771 Y30.230 Z-0.177 F300
G1 X68.800 Y30.263 Z-0.177 F300
G1 X68.815 Y30.304 Z-0.177 F300
G1 X68.815 Y30.348 Z-0.177 F300
G1 X68.800 Y30.389 Z-0.177 F300
G1 X68.771 Y30.423 Z-0.177 F300
G1 X68.734 Y30.445 Z-0.177 F300
G1 X68.690 Y30.452 Z-0.177 F300
G1 X68.655 Y30.452 Z-0.181 F300
G1 X68.621 Y30.452 Z-0.193 F300
G1 X68.582 Y30.452 Z-0.206 F300
G1 X68.540 Y30.452 Z-0.209 F300
G1 X68.500 Y30.452 Z-0.201 F300
G1 X68.232 Y30.452 Z-0.111 F300
G1 X68.049 Y30.452 Z-0.059 F300
G1 X67.834 Y30.452 Z-0.025 F300
G1 X67.818 Y30.452 Z-0.022 F300
G1 X67.797 Y30.454 Z-0.016 F300
G1 X67.776 Y30.460 Z-0.011 F300
G1 X67.757 Y30.469 Z-0.006 F300
G1 X67.740 Y30.482 Z-0.001 F300
G1 X67.725 Y30.497 Z0.003 F300
G1 X67.713 Y30.515 Z0.006 F300
G1 X67.704 Y30.535 Z0.008 F300
G1 X67.698 Y30.556 Z0.010 F300
G1 X67.696 Y30.578 Z0.010 F300
G1 X67.698 Y30.600 Z0.010 F300
G1 X67.704 Y30.621 Z0.008 F300
G1 X67.713 Y30.641 Z0.006 F300
G1 X67.725 Y30.659 Z0.003 F300
G1 X67.740 Y30.675 Z-0.001 F300
G1 X67.757 Y30.687 Z-0.006 F300
G1 X67.776 Y30.697 Z-0.011 F300
G1 X67.797 Y30.702 Z-0.016 F300
G1 X67.818 Y30.704 Z-0.022 F300
G1 X67.834 Y30.704 Z-0.025 F300
G1 X68.049 Y30.704 Z-0.059 F300
G1 X68.232 Y30.704 Z-0.111 F300
G1 X68.500 Y30.704 Z-0.201 F300
G1 X68.540 Y30.704 Z-0.209 F300
G1 X68.582 Y30.704 Z-0.206 F300
G1 X68.621 Y30.704 Z-0.193 F300
G1 X68.655 Y30.704 Z-0.181 F300
G1 X68.690 Y30.704 Z-0.177 F300
G1 X68.734 Y30.712 Z-0.177 F300
G1 X68.771 Y30.734 Z-0.177 F300
G1 X68.800 Y30.767 Z-0.177 F300
G1 X68.815 Y30.808 Z-0.177 F300
G1 X68.815 Y30.852 Z-0.177 F300
G1 X68.800 Y30.893 Z-0.177 F300
G1 X68.771 Y30.927 Z-0.177 F300
G1 X68.734 Y30.949 Z-0.177 F300
G1 X68.690 Y30.956 Z-0.177 F300
G1 X68.655 Y30.956 Z-0.181 F300
G1 X68.621 Y30.956 Z-0.193 F300
G1 X68.582 Y30.956 Z-0.206 F300
G1 X68.540 Y30.956 Z-0.209 F300
G1 X68.500 Y30.956 Z-0.201 F300
G1 X68.232 Y30.956 Z-0.111 F300
G1 X68.049 Y30.956 Z-0.059 F300
G1 X67.834 Y30.956 Z-0.025 F300
G1 X67.818 Y30.956 Z-0.022 F300
G1 X67.797 Y30.958 Z-0.016 F300
G1 X67.776 Y30.964 Z-0.011 F300
G1 X67.757 Y30.973 Z-0.006 F300
G1 X67.740 Y30.986 Z-0.001 F300
G1 X67.725 Y31.001 Z0.003 F300
G1 X67.713 Y31.019 Z0.006 F300
G1 X67.704 Y31.039 Z0.008 F300
G1 X67.698 Y31.060 Z0.010 F300
G1 X67.696 Y31.082 Z0.010 F300
G1 X67.698 Y31.104 Z0.010 F300
G1 X67.704 Y31.125 Z0.008 F300
G1 X67.713 Y31.145 Z0.006 F300
G1 X67.725 Y31.163 Z0.003 F300
G1 X67.740 Y31.179 Z-0.001 F300
G1 X67.757 Y31.191 Z-0.006 F300
G1 X67.776 Y31.201 Z-0.011 F300
G1 X67.797 Y31.206 Z-0.016 F300
G1 X67.818 Y31.208 Z-0.022 F300
G1 X67.834 Y31.208 Z-0.025 F300
G1 X68.049 Y31.208 Z-0.059 F300
G1 X68.232 Y31.208 Z-0.111 F300
G1 X68.500 Y31.208 Z-0.201 F300
G1 X68.540 Y31.208 Z-0.209 F300
G1 X68.582 Y31.208 Z-0.206 F300
G1 X68.621 Y31.208 Z-0.193 F300
G1 X68.655 Y31.208 Z-0.181 F300
G1 X68.690 Y31.208 Z-0.177 F300
G1 X68.734 Y31.216 Z-0.177 F300
G1 X68.771 Y31.238 Z-0.177 F300
G1 X68.800 Y31.271 Z-0.177 F300
G1 X68.815 Y31.312 Z-0.177 F300
G1 X68.815 Y31.356 Z-0.177 F300
G1 X68.800 Y31.397 Z-0.177 F300
G1 X68.771 Y31.431 Z-0.177 F300
G1 X68.734 Y31.453 Z-0.177 F300
G1 X68.690 Y31.460 Z-0.177 F300
G1 X68.655 Y31.460 Z-0.181 F300
G1 X68.621 Y31.460 Z-0.193 F300
G1 X68.582 Y31.460 Z-0.206 F300
G1 X68.540 Y31.460 Z-0.209 F300
G1 X68.500 Y31.460 Z-0.201 F300
G1 X68.232 Y31.460 Z-0.111 F300
G1 X68.049 Y31.460 Z-0.059 F300
G1 X67.834 Y31.460 Z-0.025 F300
G1 X67.818 Y31.460 Z-0.022 F300
G1 X67.797 Y31.462 Z-0.016 F300
G1 X67.776 Y31.468 Z-0.011 F300
G1 X67.757 Y31.477 Z-0.006 F300
G1 X67.740 Y31.490 Z-0.001 F300
G1 X67.725 Y31.505 Z0.003 F300
G1 X67.713 Y31.523 Z0.006 F300
G1 X67.704 Y31.543 Z0.008 F300
G1 X67.698 Y31.564 Z0.010 F300
G1 X67.696 Y31.586 Z0.010 F300
G1 X67.698 Y31.608 Z0.010 F300
G1 X67.704 Y31.629 Z0.008 F300
G1 X67.713 Y31.649 Z0.006 F300
G1 X67.725 Y31.667 Z0.003 F300
G1 X67.740 Y31.683 Z-0.001 F300
G1 X67.757 Y31.695 Z-0.006 F300
G1 X67.776 Y31.705 Z-0.011 F300
G1 X67.797 Y31.710 Z-0.016 F300
G1 X67.818 Y31.712 Z-0.022 F300
G1 X67.834 Y31.712 Z-0.025 F300
G1 X68.049 Y31.712 Z-0.059 F300
G1 X68.232 Y31.712 Z-0.111 F300
G1 X68.500 Y31.712 Z-0.201 F300
G1 X68.540 Y31.712 Z-0.209 F300
G1 X68.582 Y31.712 Z-0.206 F300
G1 X68.621 Y31.712 Z-0.193 F300
G1 X68.655 Y31.712 Z-0.181 F300
G1 X68.690 Y31.712 Z-0.177 F300
G1 X68.734 Y31.720 Z-0.177 F300
G1 X68.771 Y31.742 Z-0.177 F300
G1 X68.800 Y31.775 Z-0.177 F300
G1 X68.815 Y31.816 Z-0.177 F300
G1 X68.815 Y31.860 Z-0.177 F300
G1 X68.800 Y31.901 Z-0.177 F300
G1 X68.771 Y31.935 Z-0.177 F300
G1 X68.734 Y31.957 Z-0.177 F300
G1 X68.690 Y31.964 Z-0.177 F300
G1 X68.655 Y31.964 Z-0.181 F300
G1 X68.621 Y31.964 Z-0.193 F300
G1 X68.582 Y31.964 Z-0.206 F300
G1 X68.540 Y31.964 Z-0.209 F300
G1 X68.500 Y31.964 Z-0.201 F300
G1 X68.232 Y31.964 Z-0.111 F300
G1 X68.049 Y31.964 Z-0.059 F300
G1 X67.834 Y31.964 Z-0.025 F300
G1 X67.818 Y31.964 Z-0.022 F300
G1 X67.797 Y31.966 Z-0.016 F300
G1 X67.776 Y31.972 Z-0.011 F300
G1 X67.757 Y31.981 Z-0.006 F300
G1 X67.740 Y31.994 Z-0.001 F300
G1 X67.725 Y32.009 Z0.003 F300
G1 X67.713 Y32.027 Z0.006 F300
G1 X67.704 Y32.047 Z0.008 F300
G1 X67.698 Y32.068 Z0.010 F300
G1 X67.696 Y32.090 Z0.010 F300
G1 X67.698 Y32.112 Z0.010 F300
G1 X67.704 Y32.133 Z0.008 F300
G1 X67.713 Y32.153 Z0.006 F300
G1 X67.725 Y32.171 Z0.003 F300
G1 X67.740 Y32.187 Z-0.001 F300
G1 X67.757 Y32.199 Z-0.006 F300
G1 X67.776 Y32.209 Z-0.011 F300
G1 X67.797 Y32.214 Z-0.016 F300
G1 X67.818 Y32.216 Z-0.022 F300
G1 X67.834 Y32.216 Z-0.025 F300
G1 X68.049 Y32.216 Z-0.059 F300
G1 X68.232 Y32.216 Z-0.111 F300
G1 X68.500 Y32.216 Z-0.201 F300
G1 X68.540 Y32.216 Z-0.209 F300
G1 X68.582 Y32.216 Z-0.206 F300
G1 X68.621 Y32.216 Z-0.193 F300
G1 X68.655 Y32.216 Z-0.181 F300
G1 X68.690 Y32.216 Z-0.177 F300
G1 X68.734 Y32.224 Z-0.177 F300
G1 X68.771 Y32.246 Z-0.177 F300
G1 X68.800 Y32.279 Z-0.177 F300
G1 X68.815 Y32.320 Z-0.177 F300
G1 X68.815 Y32.364 Z-0.177 F300
G1 X68.800 Y32.405 Z-0.177 F300
G1 X68.771 Y32.439 Z-0.177 F300
G1 X68.734 Y32.461 Z-0.177 F300
G1 X68.690 Y32.468 Z-0.177 F300
G1 X68.655 Y32.468 Z-0.181 F300
G1 X68.621 Y32.468 Z-0.193 F300
G1 X68.582 Y32.468 Z-0.206 F300
G1 X68.540 Y32.468 Z-0.209 F300
G1 X68.500 Y32.468 Z-0.201 F300
G1 X68.232 Y32.468 Z-0.111 F300
G1 X68.049 Y32.468 Z-0.059 F300
G1 X67.834 Y32.468 Z-0.025 F300
G1 X67.818 Y32.468 Z-0.022 F300
G1 X67.797 Y32.470 Z-0.016 F300
G1 X67.776 Y32.476 Z-0.011 F300
G1 X67.757 Y32.485 Z-0.006 F300
G1 X67.740 Y32.498 Z-0.001 F300
G1 X67.725 Y32.513 Z0.003 F300
G1 X67.713 Y32.531 Z0.006 F300
G1 X67.704 Y32.551 Z0.008 F300
G1 X67.698 Y32.572 Z0.010 F300
G1 X67.696 Y32.594 Z0.010 F300
G1 X67.698 Y32.616 Z0.010 F300
G1 X67.704 Y32.637 Z0.008 F300
G1 X67.713 Y32.657 Z0.006 F300
G1 X67.725 Y32.675 Z0.003 F300
G1 X67.740 Y32.691 Z-0.001 F300
G1 X67.757 Y32.703 Z-0.006 F300
G1 X67.776 Y32.713 Z-0.011 F300
G1 X67.797 Y32.718 Z-0.016 F300
G1 X67.818 Y32.720 Z-0.022 F300
G1 X67.834 Y32.720 Z-0.025 F300
G1 X68.049 Y32.720 Z-0.059 F300
G1 X68.232 Y32.720 Z-0.111 F300
G1 X68.500 Y32.720 Z-0.201 F300
G1 X68.540 Y32.720 Z-0.209 F300
G1 X68.582 Y32.720 Z-0.206 F300
G1 X68.621 Y32.720 Z-0.193 F300
G1 X68.655 Y32.720 Z-0.181 F300
G1 X68.690 Y32.720 Z-0.177 F300
G1 X68.734 Y32.728 Z-0.177 F300
G1 X68.771 Y32.750 Z-0.177 F300
G1 X68.800 Y32.783 Z-0.177 F300
G1 X68.815 Y32.824 Z-0.177 F300
G1 X68.815 Y32.868 Z-0.177 F300
G1 X68.800 Y32.909 Z-0.177 F300
G1 X68.771 Y32.943 Z-0.177 F300
G1 X68.734 Y32.965 Z-0.177 F300
G1 X68.690 Y32.972 Z-0.177 F300
G1 X68.655 Y32.972 Z-0.181 F300
G1 X68.621 Y32.972 Z-0.193 F300
G1 X68.582 Y32.972 Z-0.206 F300
G1 X68.540 Y32.972 Z-0.209 F300
G1 X68.500 Y32.972 Z-0.201 F300
G1 X68.232 Y32.972 Z-0.111 F300
G1 X68.049 Y32.972 Z-0.059 F300
G1 X67.834 Y32.972 Z-0.025 F300
G1 X67.818 Y32.972 Z-0.022 F300
G1 X67.797 Y32.974 Z-0.016 F300
G1 X67.776 Y32.980 Z-0.011 F300
G1 X67.757 Y32.989 Z-0.006 F300
G1 X67.740 Y33.002 Z-0.001 F300
G1 X67.725 Y33.017 Z0.003 F300
G1 X67.713 Y33.035 Z0.006 F300
G1 X67.704 Y33.055 Z0.008 F300
G1 X67.698 Y33.076 Z0.010 F300
G1 X67.696 Y33.098 Z0.010 F300
G1 X67.698 Y33.120 Z0.010 F300
G1 X67.704 Y33.141 Z0.008 F300
G1 X67.713 Y33.161 Z0.006 F300
G1 X67.725 Y33.179 Z0.003 F300
G1 X67.740 Y33.195 Z-0.001 F300
G1 X67.757 Y33.207 Z-0.006 F300
G1 X67.776 Y33.217 Z-0.011 F300
G1 X67.797 Y33.222 Z-0.016 F300
G1 X67.818 Y33.224 Z-0.022 F300
G1 X67.834 Y33.224 Z-0.025 F300
G1 X68.049 Y33.224 Z-0.059 F300
G1 X68.232 Y33.224 Z-0.111 F300
G1 X68.500 Y33.224 Z-0.201 F300
G1 X68.540 Y33.224 Z-0.209 F300
G1 X68.582 Y33.224 Z-0.206 F300
G1 X68.621 Y33.224 Z-0.193 F300
G1 X68.655 Y33.224 Z-0.181 F300
G1 X68.690 Y33.224 Z-0.177 F300
G1 X68.734 Y33.232 Z-0.177 F300
G1 X68.771 Y33.254 Z-0.177 F300
G1 X68.800 Y33.287 Z-0.177 F300
G1 X68.815 Y33.328 Z-0.177 F300
G1 X68.815 Y33.372 Z-0.177 F300
G1 X68.800 Y33.413 Z-0.177 F300
G1 X68.771 Y33.447 Z-0.177 F300
G1 X68.734 Y33.469 Z-0.177 F300
G1 X68.690 Y33.476 Z-0.177 F300
G1 X68.655 Y33.476 Z-0.181 F300
G1 X68.621 Y33.476 Z-0.193 F300
G1 X68.582 Y33.476 Z-0.206 F300
G1 X68.540 Y33.476 Z-0.209 F300
G1 X68.500 Y33.476 Z-0.201 F300
G1 X68.232 Y33.476 Z-0.111 F300
G1 X68.049 Y33.476 Z-0.059 F300
G1 X67.834 Y33.476 Z-0.025 F300
G1 X67.818 Y33.476 Z-0.022 F300
G1 X67.797 Y33.478 Z-0.016 F300
G1 X67.776 Y33.484 Z-0.011 F300
G1 X67.757 Y33.493 Z-0.006 F300
G1 X67.740 Y33.506 Z-0.001 F300
G1 X67.725 Y33.521 Z0.003 F300
G1 X67.713 Y33.539 Z0.006 F300
G1 X67.704 Y33.559 Z0.008 F300
G1 X67.698 Y33.580 Z0.010 F300
G1 X67.696 Y33.602 Z0.010 F300
G1 X67.698 Y33.624 Z0.010 F300
G1 X67.704 Y33.645 Z0.008 F300
G1 X67.713 Y33.665 Z0.006 F300
G1 X67.725 Y33.683 Z0.003 F300
G1 X67.740 Y33.699 Z-0.001 F300
G1 X67.757 Y33.711 Z-0.006 F300
G1 X67.776 Y33.721 Z-0.011 F300
G1 X67.797 Y33.726 Z-0.016 F300
G1 X67.818 Y33.728 Z-0.022 F300
G1 X67.834 Y33.728 Z-0.025 F300
G1 X68.049 Y33.728 Z-0.059 F300
G1 X68.232 Y33.728 Z-0.111 F300
G1 X68.500 Y33.728 Z-0.201 F300
G1 X68.540 Y33.728 Z-0.209 F300
G1 X68.582 Y33.728 Z-0.206 F300
G1 X68.621 Y33.728 Z-0.193 F300
G1 X68.655 Y33.728 Z-0.181 F300
G1 X68.690 Y33.728 Z-0.177 F300
G1 X68.734 Y33.736 Z-0.177 F300
G1 X68.771 Y33.758 Z-0.177 F300
G1 X68.800 Y33.791 Z-0.177 F300
G1 X68.815 Y33.832 Z-0.177 F300
G1 X68.815 Y33.876 Z-0.177 F300
G1 X68.800 Y33.917 Z-0.177 F300
G1 X68.771 Y33.951 Z-0.177 F300
G1 X68.734 Y33.973 Z-0.177 F300
G1 X68.690 Y33.980 Z-0.177 F300
G1 X68.655 Y33.980 Z-0.181 F300
G1 X68.621 Y33.980 Z-0.193 F300
G1 X68.582 Y33.980 Z-0.206 F300
G1 X68.540 Y33.980 Z-0.209 F300
G1 X68.500 Y33.980 Z-0.201 F300
G1 X68.232 Y33.980 Z-0.111 F300
G1 X68.049 Y33.980 Z-0.059 F300
G1 X67.834 Y33.980 Z-0.025 F300
G1 X67.818 Y33.980 Z-0.022 F300
G1 X67.797 Y33.982 Z-0.016 F300
G1 X67.776 Y33.988 Z-0.011 F300
G1 X67.757 Y33.997 Z-0.006 F300
G1 X67.740 Y34.010 Z-0.001 F300
G1 X67.725 Y34.025 Z0.003 F300
G1 X67.713 Y34.043 Z0.006 F300
G1 X67.704 Y34.063 Z0.008 F300
G1 X67.698 Y34.084 Z0.010 F300
G1 X67.696 Y34.106 Z0.010 F300
G1 X67.698 Y34.128 Z0.010 F300
G1 X67.704 Y34.149 Z0.008 F300
G1 X67.713 Y34.169 Z0.006 F300
G1 X67.725 Y34.187 Z0.003 F300
G1 X67.740 Y34.203 Z-0.001 F300
G1 X67.757 Y34.215 Z-0.006 F300
G1 X67.776 Y34.225 Z-0.011 F300
G1 X67.797 Y34.230 Z-0.016 F300
G1 X67.818 Y34.232 Z-0.022 F300
G1 X67.834 Y34.232 Z-0.025 F300
G1 X68.049 Y34.232 Z-0.059 F300
G1 X68.232 Y34.232 Z-0.111 F300
G1 X68.500 Y34.232 Z-0.201 F300
G1 X68.540 Y34.232 Z-0.209 F300
G1 X68.582 Y34.232 Z-0.206 F300
G1 X68.621 Y34.232 Z-0.193 F300
G1 X68.655 Y34.232 Z-0.181 F300
G1 X68.690 Y34.232 Z-0.177 F300
G1 X68.734 Y34.240 Z-0.177 F300
G1 X68.771 Y34.262 Z-0.177 F300
G1 X68.800 Y34.295 Z-0.177 F300
G1 X68.815 Y34.336 Z-0.177 F300
G1 X68.815 Y34.380 Z-0.177 F300
G1 X68.800 Y34.421 Z-0.177 F300
G1 X68.771 Y34.455 Z-0.177 F300
G1 X68.734 Y34.476 Z-0.177 F300
G1 X68.690 Y34.484 Z-0.177 F300
G1 X68.655 Y34.484 Z-0.181 F300
G1 X68.621 Y34.484 Z-0.193 F300
G1 X68.582 Y34.484 Z-0.206 F300
G1 X68.540 Y34.484 Z-0.209 F300
G1 X68.500 Y34.484 Z-0.201 F300
G1 X68.232 Y34.484 Z-0.111 F300
G1 X68.049 Y34.484 Z-0.059 F300
G1 X67.834 Y34.484 Z-0.025 F300
G1 X67.818 Y34.484 Z-0.022 F300
G1 X67.797 Y34.486 Z-0.016 F300
G1 X67.776 Y34.492 Z-0.011 F300
G1 X67.757 Y34.501 Z-0.006 F300
G1 X67.740 Y34.514 Z-0.001 F300
G1 X67.725 Y34.529 Z0.003 F300
G1 X67.713 Y34.547 Z0.006 F300
G1 X67.704 Y34.567 Z0.008 F300
G1 X67.698 Y34.588 Z0.010 F300
G1 X67.696 Y34.610 Z0.010 F300
G1 X67.698 Y34.632 Z0.010 F300
G1 X67.704 Y34.653 Z0.008 F300
G1 X67.713 Y34.673 Z0.006 F300
G1 X67.725 Y34.691 Z0.003 F300
G1 X67.740 Y34.707 Z-0.001 F300
G1 X67.757 Y34.719 Z-0.006 F300
G1 X67.776 Y34.728 Z-0.011 F300
G1 X67.797 Y34.734 Z-0.016 F300
G1 X67.818 Y34.736 Z-0.022 F300
G1 X67.834 Y34.736 Z-0.025 F300
G1 X68.049 Y34.736 Z-0.059 F300
G1 X68.232 Y34.736 Z-0.111 F300
G1 X68.500 Y34.736 Z-0.201 F300
G1 X68.540 Y34.736 Z-0.209 F300
G1 X68.582 Y34.736 Z-0.206 F300
G1 X68.621 Y34.736 Z-0.193 F300
G1 X68.655 Y34.736 Z-0.181 F300
G1 X68.690 Y34.736 Z-0.177 F300
G1 X68.734 Y34.744 Z-0.177 F300
G1 X68.771 Y34.766 Z-0.177 F300
G1 X68.800 Y34.799 Z-0.177 F300
G1 X68.815 Y34.840 Z-0.177 F300
G1 X68.815 Y34.884 Z-0.177 F300
G1 X68.800 Y34.925 Z-0.177 F300
G1 X68.771 Y34.959 Z-0.177 F300
G1 X68.734 Y34.980 Z-0.177 F300
G1 X68.690 Y34.988 Z-0.177 F300
G1 X68.655 Y34.988 Z-0.181 F300
G1 X68.621 Y34.988 Z-0.193 F300
G1 X68.582 Y34.988 Z-0.206 F300
G1 X68.540 Y34.988 Z-0.209 F300
G1 X68.500 Y34.988 Z-0.201 F300
G1 X68.232 Y34.988 Z-0.111 F300
G1 X68.049 Y34.988 Z-0.059 F300
G1 X67.834 Y34.988 Z-0.025 F300
G1 X67.818 Y34.988 Z-0.022 F300
G1 X67.797 Y34.990 Z-0.016 F300
G1 X67.776 Y34.996 Z-0.011 F300
G1 X67.757 Y35.005 Z-0.006 F300
G1 X67.740 Y35.018 Z-0.001 F300
G1 X67.725 Y35.033 Z0.003 F300
G1 X67.713 Y35.051 Z0.006 F300
G1 X67.704 Y35.071 Z0.008 F300
G1 X67.698 Y35.092 Z0.010 F300
G1 X67.696 Y35.114 Z0.010 F300
G1 X67.698 Y35.136 Z0.010 F300
G1 X67.704 Y35.157 Z0.008 F300
G1 X67.713 Y35.177 Z0.006 F300
G1 X67.725 Y35.195 Z0.003 F300
G1 X67.740 Y35.211 Z-0.001 F300
G1 X67.757 Y35.223 Z-0.006 F300
G1 X67.776 Y35.232 Z-0.011 F300
G1 X67.797 Y35.238 Z-0.016 F300
G1 X67.818 Y35.240 Z-0.022 F300
G1 X67.834 Y35.240 Z-0.025 F300
G1 X68.049 Y35.240 Z-0.059 F300
G1 X68.232 Y35.240 Z-0.111 F300
G1 X68.500 Y35.240 Z-0.201 F300
G1 X68.540 Y35.240 Z-0.209 F300
G1 X68.582 Y35.240 Z-0.206 F300
G1 X68.621 Y35.240 Z-0.193 F300
G1 X68.655 Y35.240 Z-0.181 F300
G1 X68.690 Y35.240 Z-0.177 F300
G1 X68.734 Y35.248 Z-0.177 F300
G1 X68.771 Y35.270 Z-0.177 F300
G1 X68.800 Y35.303 Z-0.177 F300
G1 X68.815 Y35.344 Z-0.177 F300
G1 X68.815 Y35.388 Z-0.177 F300
G1 X68.800 Y35.429 Z-0.177 F300
G1 X68.771 Y35.463 Z-0.177 F300
G1 X68.734 Y35.484 Z-0.177 F300
G1 X68.690 Y35.492 Z-0.177 F300
G1 X68.655 Y35.492 Z-0.181 F300
G1 X68.621 Y35.492 Z-0.193 F300
G1 X68.582 Y35.492 Z-0.206 F300
G1 X68.540 Y35.492 Z-0.209 F300
G1 X68.500 Y35.492 Z-0.201 F300
G1 X68.232 Y35.492 Z-0.111 F300
G1 X68.049 Y35.492 Z-0.059 F300
G1 X67.834 Y35.492 Z-0.025 F300
G1 X67.818 Y35.492 Z-0.022 F300
G1 X67.797 Y35.494 Z-0.016 F300
G1 X67.776 Y35.500 Z-0.011 F300
G1 X67.757 Y35.509 Z-0.006 F300
G1 X67.740 Y35.522 Z-0.001 F300
G1 X67.725 Y35.537 Z0.003 F300
G1 X67.713 Y35.555 Z0.006 F300
G1 X67.704 Y35.575 Z0.008 F300
G1 X67.698 Y35.596 Z0.010 F300
G1 X67.696 Y35.618 Z0.010 F300
G1 X67.698 Y35.640 Z0.010 F300
G1 X67.704 Y35.661 Z0.008 F300
G1 X67.713 Y35.681 Z0.006 F300
G1 X67.725 Y35.699 Z0.003 F300
G1 X67.740 Y35.715 Z-0.001 F300
G1 X67.757 Y35.727 Z-0.006 F300
G1 X67.776 Y35.736 Z-0.011 F300
G1 X67.797 Y35.742 Z-0.016 F300
G1 X67.818 Y35.744 Z-0.022 F300
G1 X67.834 Y35.744 Z-0.025 F300
G1 X68.049 Y35.744 Z-0.059 F300
G1 X68.232 Y35.744 Z-0.111 F300
G1 X68.500 Y35.744 Z-0.201 F300
G1 X68.540 Y35.744 Z-0.209 F300
G1 X68.582 Y35.744 Z-0.206 F300
G1 X68.621 Y35.744 Z-0.193 F300
G1 X68.655 Y35.744 Z-0.181 F300
G1 X68.690 Y35.744 Z-0.177 F300
G1 X68.734 Y35.752 Z-0.177 F300
G1 X68.771 Y35.774 Z-0.177 F300
G1 X68.800 Y35.807 Z-0.177 F300
G1 X68.815 Y35.848 Z-0.177 F300
G1 X68.815 Y35.892 Z-0.177 F300
G1 X68.800 Y35.933 Z-0.177 F300
G1 X68.771 Y35.967 Z-0.177 F300
G1 X68.734 Y35.988 Z-0.177 F300
G1 X68.690 Y35.996 Z-0.177 F300
G1 X68.655 Y35.996 Z-0.181 F300
G1 X68.621 Y35.996 Z-0.193 F300
G1 X68.582 Y35.996 Z-0.206 F300
G1 X68.540 Y35.996 Z-0.209 F300
G1 X68.500 Y35.996 Z-0.201 F300
G1 X68.232 Y35.996 Z-0.111 F300
G1 X68.049 Y35.996 Z-0.059 F300
G1 X67.834 Y35.996 Z-0.025 F300
G1 X67.818 Y35.996 Z-0.022 F300
G1 X67.797 Y35.998 Z-0.016 F300
G1 X67.776 Y36.004 Z-0.011 F300
G1 X67.757 Y36.013 Z-0.006 F300
G1 X67.740 Y36.026 Z-0.001 F300
G1 X67.725 Y36.041 Z0.003 F300
G1 X67.713 Y36.059 Z0.006 F300
G1 X67.704 Y36.079 Z0.008 F300
G1 X67.698 Y36.100 Z0.010 F300
G1 X67.696 Y36.122 Z0.010 F300
G1 X67.698 Y36.144 Z0.010 F300
G1 X67.704 Y36.165 Z0.008 F300
G1 X67.713 Y36.185 Z0.006 F300
G1 X67.725 Y36.203 Z0.003 F300
G1 X67.740 Y36.219 Z-0.001 F300
G1 X67.757 Y36.231 Z-0.006 F300
G1 X67.776 Y36.240 Z-0.011 F300
G1 X67.797 Y36.246 Z-0.016 F300
G1 X67.818 Y36.248 Z-0.022 F300
G1 X67.834 Y36.248 Z-0.025 F300
G1 X68.049 Y36.248 Z-0.059 F300
G1 X68.232 Y36.248 Z-0.111 F300
G1 X68.500 Y36.248 Z-0.201 F300
G1 X68.540 Y36.248 Z-0.209 F300
G1 X68.582 Y36.248 Z-0.206 F300
G1 X68.621 Y36.248 Z-0.193 F300
G1 X68.655 Y36.248 Z-0.181 F300
G1 X68.690 Y36.248 Z-0.177 F300
G1 X68.734 Y36.256 Z-0.177 F300
G1 X68.771 Y36.277 Z-0.177 F300
G1 X68.800 Y36.311 Z-0.177 F300
G1 X68.815 Y36.352 Z-0.177 F300
G1 X68.815 Y36.396 Z-0.177 F300
G1 X68.800 Y36.437 Z-0.177 F300
G1 X68.771 Y36.471 Z-0.177 F300
G1 X68.734 Y36.492 Z-0.177 F300
G1 X68.690 Y36.500 Z-0.177 F300
G1 X68.655 Y36.500 Z-0.181 F300
G1 X68.621 Y36.500 Z-0.193 F300
G1 X68.582 Y36.500 Z-0.206 F300
G1 X68.540 Y36.500 Z-0.209 F300
G1 X68.500 Y36.500 Z-0.201 F300
G1 X68.232 Y36.500 Z-0.111 F300
G1 X68.049 Y36.500 Z-0.059 F300
G1 X67.834 Y36.500 Z-0.025 F300
G1 X67.818 Y36.500 Z-0.022 F300
G1 X67.818 Y36.500 Z-0.022 F300
G1 X67.797 Y36.502 Z-0.016 F300
G1 X67.776 Y36.508 Z-0.011 F300
G1 X67.757 Y36.517 Z-0.006 F300
G1 X67.740 Y36.529 Z-0.001 F300
G1 X67.725 Y36.545 Z0.003 F300
G1 X67.713 Y36.563 Z0.006 F300
G1 X67.704 Y36.583 Z0.008 F300
G1 X67.698 Y36.604 Z0.010 F300
G1 X67.696 Y36.626 Z0.010 F300
G1 X67.698 Y36.648 Z0.010 F300
G1 X67.704 Y36.669 Z0.008 F300
G1 X67.713 Y36.689 Z0.006 F300
G1 X67.725 Y36.707 Z0.003 F300
G1 X67.740 Y36.723 Z-0.001 F300
G1 X67.757 Y36.735 Z-0.006 F300
G1 X67.776 Y36.744 Z-0.011 F300
G1 X67.797 Y36.750 Z-0.016 F300
G1 X67.818 Y36.752 Z-0.022 F300
G1 X67.834 Y36.752 Z-0.025 F300
G1 X67.834 Y36.752 Z-0.025 F300
G1 X68.049 Y36.752 Z-0.059 F300
G1 X68.232 Y36.752 Z-0.111 F300
G1 X68.500 Y36.752 Z-0.201 F300
G1 X68.540 Y36.752 Z-0.209 F300
G1 X68.582 Y36.752 Z-0.206 F300
G1 X68.621 Y36.752 Z-0.193 F300
G1 X68.621 Y36.752 Z-0.193 F300
G1 X68.655 Y36.752 Z-0.181 F300
G1 X68.690 Y36.752 Z-0.177 F300
G1 X68.734 Y36.760 Z-0.177 F300
G1 X68.771 Y36.781 Z-0.177 F300
G1 X68.800 Y36.815 Z-0.177 F300
G1 X68.815 Y36.856 Z-0.177 F300
G1 X68.815 Y36.900 Z-0.177 F300
G1 X68.800 Y36.941 Z-0.177 F300
G1 X68.771 Y36.975 Z-0.177 F300
G1 X68.734 Y36.996 Z-0.177 F300
G1 X68.690 Y37.004 Z-0.177 F300
G1 X68.686 Y37.004 Z-0.177 F300
G1 X68.650 Y37.004 Z-0.181 F300
G1 X68.616 Y37.004 Z-0.193 F300
G1 X68.577 Y37.004 Z-0.206 F300
G1 X68.536 Y37.004 Z-0.209 F300
G1 X68.496 Y37.004 Z-0.201 F300
G1 X68.496 Y37.004 Z-0.201 F300
G1 X68.228 Y37.004 Z-0.111 F300
G1 X68.045 Y37.004 Z-0.059 F300
G1 X67.829 Y37.004 Z-0.025 F300
G1 X67.814 Y37.004 Z-0.022 F300
G1 X67.809 Y37.004 Z-0.021 F300
G1 X67.788 Y37.006 Z-0.015 F300
G1 X67.768 Y37.012 Z-0.010 F300
G1 X67.748 Y37.021 Z-0.005 F300
G1 X67.731 Y37.033 Z0.000 F300
G1 X67.716 Y37.049 Z0.003 F300
G1 X67.704 Y37.067 Z0.007 F300
G1 X67.695 Y37.087 Z0.009 F300
G1 X67.689 Y37.108 Z0.010 F300
G1 X67.687 Y37.130 Z0.011 F300
G1 X67.689 Y37.152 Z0.010 F300
G1 X67.695 Y37.173 Z0.008 F300
G1 X67.704 Y37.193 Z0.006 F300
G1 X67.716 Y37.211 Z0.003 F300
G1 X67.731 Y37.227 Z-0.001 F300
G1 X67.748 Y37.239 Z-0.006 F300
G1 X67.767 Y37.248 Z-0.011 F300
G1 X67.788 Y37.254 Z-0.016 F300
G1 X67.809 Y37.256 Z-0.022 F300
G1 X67.825 Y37.256 Z-0.025 F300
G1 X68.040 Y37.256 Z-0.059 F300
G1 X68.223 Y37.256 Z-0.111 F300
G1 X68.491 Y37.256 Z-0.201 F300
G1 X68.531 Y37.256 Z-0.209 F300
G1 X68.573 Y37.256 Z-0.206 F300
G1 X68.612 Y37.256 Z-0.193 F300
G1 X68.646 Y37.256 Z-0.181 F300
G1 X68.682 Y37.256 Z-0.177 F300
G1 X68.725 Y37.264 Z-0.177 F300
G1 X68.763 Y37.285 Z-0.177 F300
G1 X68.791 Y37.319 Z-0.177 F300
G1 X68.806 Y37.360 Z-0.177 F300
G1 X68.806 Y37.404 Z-0.177 F300
G1 X68.791 Y37.445 Z-0.177 F300
G1 X68.763 Y37.478 Z-0.177 F300
G1 X68.725 Y37.500 Z-0.177 F300
G1 X68.682 Y37.508 Z-0.177 F300
G1 X68.677 Y37.508 Z-0.177 F300
G1 X68.641 Y37.508 Z-0.181 F300
G1 X68.607 Y37.508 Z-0.193 F300
G1 X68.568 Y37.508 Z-0.206 F300
G1 X68.527 Y37.508 Z-0.209 F300
G1 X68.487 Y37.508 Z-0.201 F300
G1 X68.487 Y37.508 Z-0.201 F300
G1 X68.219 Y37.508 Z-0.111 F300
G1 X68.036 Y37.508 Z-0.059 F300
G1 X67.820 Y37.508 Z-0.025 F300
G1 X67.805 Y37.508 Z-0.022 F300
G1 X67.801 Y37.508 Z-0.021 F300
G1 X67.779 Y37.510 Z-0.015 F300
G1 X67.759 Y37.516 Z-0.010 F300
G1 X67.740 Y37.525 Z-0.005 F300
G1 X67.722 Y37.537 Z0.000 F300
G1 X67.707 Y37.553 Z0.003 F300
G1 X67.695 Y37.571 Z0.007 F300
G1 X67.686 Y37.591 Z0.009 F300
G1 X67.680 Y37.612 Z0.010 F300
G1 X67.679 Y37.634 Z0.011 F300
G1 X67.680 Y37.656 Z0.010 F300
G1 X67.686 Y37.677 Z0.008 F300
G1 X67.695 Y37.697 Z0.006 F300
G1 X67.707 Y37.715 Z0.003 F300
G1 X67.722 Y37.730 Z-0.001 F300
G1 X67.739 Y37.743 Z-0.006 F300
G1 X67.759 Y37.752 Z-0.011 F300
G1 X67.779 Y37.758 Z-0.016 F300
G1 X67.800 Y37.760 Z-0.022 F300
G1 X67.816 Y37.760 Z-0.025 F300
G1 X68.031 Y37.760 Z-0.059 F300
G1 X68.215 Y37.760 Z-0.111 F300
G1 X68.482 Y37.760 Z-0.201 F300
G1 X68.523 Y37.760 Z-0.209 F300
G1 X68.564 Y37.760 Z-0.206 F300
G1 X68.603 Y37.760 Z-0.193 F300
G1 X68.603 Y37.760 Z-0.193 F300
G1 X68.637 Y37.760 Z-0.181 F300
G1 X68.673 Y37.760 Z-0.177 F300
G1 X68.716 Y37.768 Z-0.177 F300
G1 X68.754 Y37.789 Z-0.177 F300
G1 X68.782 Y37.823 Z-0.177 F300
G1 X68.797 Y37.864 Z-0.177 F300
G1 X68.797 Y37.908 Z-0.177 F300
G1 X68.782 Y37.949 Z-0.177 F300
G1 X68.754 Y37.982 Z-0.177 F300
G1 X68.716 Y38.004 Z-0.177 F300
G1 X68.673 Y38.012 Z-0.177 F300
G1 X68.663 Y38.012 Z-0.177 F300
G1 X68.627 Y38.012 Z-0.181 F300
G1 X68.593 Y38.012 Z-0.193 F300
G1 X68.554 Y38.012 Z-0.206 F300
G1 X68.513 Y38.012 Z-0.209 F300
G1 X68.473 Y38.012 Z-0.201 F300
G1 X68.205 Y38.012 Z-0.111 F300
G1 X68.022 Y38.012 Z-0.059 F300
G1 X67.806 Y38.012 Z-0.025 F300
G1 X67.791 Y38.012 Z-0.022 F300
G1 X67.778 Y38.012 Z-0.019 F300
G1 X67.757 Y38.014 Z-0.013 F300
G1 X67.737 Y38.020 Z-0.008 F300
G1 X67.717 Y38.029 Z-0.003 F300
G1 X67.700 Y38.041 Z0.001 F300
G1 X67.685 Y38.057 Z0.005 F300
G1 X67.672 Y38.075 Z0.008 F300
G1 X67.663 Y38.095 Z0.010 F300
G1 X67.658 Y38.116 Z0.011 F300
G1 X67.656 Y38.138 Z0.012 F300
G1 X67.658 Y38.160 Z0.011 F300
G1 X67.663 Y38.181 Z0.009 F300
G1 X67.672 Y38.201 Z0.007 F300
G1 X67.684 Y38.219 Z0.003 F300
G1 X67.699 Y38.234 Z-0.001 F300
G1 X67.716 Y38.247 Z-0.006 F300
G1 X67.736 Y38.256 Z-0.011 F300
G1 X67.756 Y38.262 Z-0.016 F300
G1 X67.777 Y38.264 Z-0.022 F300
G1 X67.793 Y38.264 Z-0.025 F300
G1 X68.008 Y38.264 Z-0.059 F300
G1 X68.192 Y38.264 Z-0.111 F300
G1 X68.459 Y38.264 Z-0.201 F300
G1 X68.500 Y38.264 Z-0.209 F300
G1 X68.541 Y38.264 Z-0.206 F300
G1 X68.580 Y38.264 Z-0.193 F300
G1 X68.614 Y38.264 Z-0.181 F300
G1 X68.650 Y38.264 Z-0.177 F300
G1 X68.693 Y38.272 Z-0.177 F300
G1 X68.731 Y38.293 Z-0.177 F300
G1 X68.759 Y38.327 Z-0.177 F300
G1 X68.774 Y38.368 Z-0.177 F300
G1 X68.774 Y38.412 Z-0.177 F300
G1 X68.759 Y38.453 Z-0.177 F300
G1 X68.731 Y38.486 Z-0.177 F300
G1 X68.693 Y38.508 Z-0.177 F300
G1 X68.650 Y38.516 Z-0.177 F300
G1 X68.636 Y38.516 Z-0.177 F300
G1 X68.601 Y38.516 Z-0.181 F300
G1 X68.567 Y38.516 Z-0.193 F300
G1 X68.528 Y38.516 Z-0.206 F300
G1 X68.486 Y38.516 Z-0.209 F300
G1 X68.446 Y38.516 Z-0.201 F300
