;Header Start
;header_type: cnc
;tool_head: standardCNCToolheadForSM2
;machine: 
;estimated_time(s): 441
;max_x(mm): 142
;max_y(mm): 68.50000000000001
;max_z(mm): 334
;max_b(mm): 0
;min_x(mm): 5
;min_y(mm): 5
;min_b(mm): 0
;min_z(mm): -9.25
;work_speed(mm/minute): 300
;jog_speed(mm/minute): 119695
;work_size_x: 320
;work_size_x: 350
;Header End

;Program
; -> Name        : process02_boom_clamp_support
;Machine
; -> Vendor      : Snapmaker
; -> Vendor URL  : http://www.snapmaker.com
; -> Description : Snapmaker 2.0 (Marlin)
;Estiamted Machining Time
; -> 0h  7min  21sec     : Operation 02_2D Contour2
; -> 0h  7min  21sec     : Total

G21
G90
G0 Z15.000
M3 P100
G4 S2
G0 X3.721 Y3.272 Z15.000
G1 X3.721 Y3.272 Z15.000 F300
G1 X3.721 Y3.272 Z5.000
G1 X3.721 Y3.272 Z4.000
G1 X3.721 Y3.272 Z-2.683
G1 X3.727 Y3.278 Z-2.753
G1 X3.744 Y3.295 Z-2.820
G1 X3.770 Y3.321 Z-2.880
G1 X3.806 Y3.357 Z-2.931
G1 X3.848 Y3.399 Z-2.969
G1 X3.896 Y3.447 Z-2.992
G1 X3.946 Y3.497 Z-3.000
G1 X4.170 Y3.721 Z-3.000
G1 X4.215 Y3.777 Z-3.000
G1 X4.246 Y3.841 Z-3.000
G1 X4.261 Y3.910 Z-3.000
G1 X4.261 Y3.981 Z-3.000
G1 X4.246 Y4.051 Z-3.000
G1 X4.215 Y4.115 Z-3.000
G1 X4.170 Y4.170 Z-3.000
G1 X4.032 Y4.320 Z-3.000
G1 X3.907 Y4.479 Z-3.000
G1 X3.794 Y4.648 Z-3.000
G1 X3.695 Y4.825 Z-3.000
G1 X3.609 Y5.010 Z-3.000
G1 X3.539 Y5.200 Z-3.000
G1 X3.484 Y5.396 Z-3.000
G1 X3.444 Y5.595 Z-3.000
G1 X3.420 Y5.797 Z-3.000
G1 X3.412 Y6.000 Z-3.000
G1 X3.412 Y36.750 Z-3.000
G1 X3.420 Y37.477 Z-3.000
G1 X3.444 Y38.204 Z-3.000
G1 X3.484 Y38.930 Z-3.000
G1 X3.539 Y39.656 Z-3.000
G1 X3.611 Y40.379 Z-3.000
G1 X3.698 Y41.101 Z-3.000
G1 X3.800 Y41.821 Z-3.000
G1 X3.919 Y42.539 Z-3.000
G1 X4.053 Y43.254 Z-3.000
G1 X4.203 Y43.966 Z-3.000
G1 X4.368 Y44.674 Z-3.000
G1 X4.548 Y45.378 Z-3.000
G1 X4.744 Y46.079 Z-3.000
G1 X4.955 Y46.775 Z-3.000
G1 X5.182 Y47.466 Z-3.000
G1 X5.423 Y48.152 Z-3.000
G1 X5.679 Y48.833 Z-3.000
G1 X5.950 Y49.508 Z-3.000
G1 X6.236 Y50.177 Z-3.000
G1 X6.536 Y50.839 Z-3.000
G1 X6.851 Y51.495 Z-3.000
G1 X7.179 Y52.144 Z-3.000
G1 X7.522 Y52.785 Z-3.000
G1 X7.879 Y53.419 Z-3.000
G1 X8.249 Y54.045 Z-3.000
G1 X8.633 Y54.662 Z-3.000
G1 X9.031 Y55.271 Z-3.000
G1 X9.442 Y55.872 Z-3.000
G1 X9.865 Y56.463 Z-3.000
G1 X10.302 Y57.045 Z-3.000
G1 X10.751 Y57.617 Z-3.000
G1 X11.212 Y58.179 Z-3.000
G1 X11.686 Y58.731 Z-3.000
G1 X12.171 Y59.272 Z-3.000
G1 X12.668 Y59.803 Z-3.000
G1 X13.177 Y60.323 Z-3.000
G1 X13.697 Y60.832 Z-3.000
G1 X14.228 Y61.329 Z-3.000
G1 X14.769 Y61.814 Z-3.000
G1 X15.321 Y62.288 Z-3.000
G1 X15.883 Y62.749 Z-3.000
G1 X16.455 Y63.198 Z-3.000
G1 X17.037 Y63.635 Z-3.000
G1 X17.628 Y64.058 Z-3.000
G1 X18.229 Y64.469 Z-3.000
G1 X18.838 Y64.867 Z-3.000
G1 X19.455 Y65.251 Z-3.000
G1 X20.081 Y65.621 Z-3.000
G1 X20.715 Y65.978 Z-3.000
G1 X21.356 Y66.321 Z-3.000
G1 X22.005 Y66.649 Z-3.000
G1 X22.661 Y66.964 Z-3.000
G1 X23.323 Y67.264 Z-3.000
G1 X23.992 Y67.550 Z-3.000
G1 X24.667 Y67.821 Z-3.000
G1 X25.348 Y68.077 Z-3.000
G1 X26.034 Y68.318 Z-3.000
G1 X26.725 Y68.545 Z-3.000
G1 X27.421 Y68.756 Z-3.000
G1 X28.122 Y68.952 Z-3.000
G1 X28.826 Y69.132 Z-3.000
G1 X29.534 Y69.297 Z-3.000
G1 X30.246 Y69.447 Z-3.000
G1 X30.961 Y69.581 Z-3.000
G1 X31.679 Y69.700 Z-3.000
G1 X32.399 Y69.802 Z-3.000
G1 X33.121 Y69.889 Z-3.000
G1 X33.844 Y69.961 Z-3.000
G1 X34.570 Y70.016 Z-3.000
G1 X35.296 Y70.056 Z-3.000
G1 X36.023 Y70.080 Z-3.000
G1 X36.750 Y70.088 Z-3.000
G1 X37.477 Y70.080 Z-3.000
G1 X38.204 Y70.056 Z-3.000
G1 X38.930 Y70.016 Z-3.000
G1 X39.656 Y69.961 Z-3.000
G1 X40.379 Y69.889 Z-3.000
G1 X41.101 Y69.802 Z-3.000
G1 X41.821 Y69.700 Z-3.000
G1 X42.539 Y69.581 Z-3.000
G1 X43.254 Y69.447 Z-3.000
G1 X43.966 Y69.297 Z-3.000
G1 X44.674 Y69.132 Z-3.000
G1 X45.378 Y68.952 Z-3.000
G1 X46.079 Y68.756 Z-3.000
G1 X46.775 Y68.545 Z-3.000
G1 X47.466 Y68.318 Z-3.000
G1 X48.152 Y68.077 Z-3.000
G1 X48.833 Y67.821 Z-3.000
G1 X49.508 Y67.550 Z-3.000
G1 X50.177 Y67.264 Z-3.000
G1 X50.839 Y66.964 Z-3.000
G1 X51.495 Y66.649 Z-3.000
G1 X52.144 Y66.321 Z-3.000
G1 X52.785 Y65.978 Z-3.000
G1 X53.419 Y65.621 Z-3.000
G1 X54.045 Y65.251 Z-3.000
G1 X54.662 Y64.867 Z-3.000
G1 X55.271 Y64.469 Z-3.000
G1 X55.872 Y64.058 Z-3.000
G1 X56.463 Y63.635 Z-3.000
G1 X57.045 Y63.198 Z-3.000
G1 X57.617 Y62.749 Z-3.000
G1 X58.179 Y62.288 Z-3.000
G1 X58.731 Y61.814 Z-3.000
G1 X59.272 Y61.329 Z-3.000
G1 X59.803 Y60.832 Z-3.000
G1 X60.323 Y60.323 Z-3.000
G1 X60.832 Y59.803 Z-3.000
G1 X61.329 Y59.272 Z-3.000
G1 X61.814 Y58.731 Z-3.000
G1 X62.288 Y58.179 Z-3.000
G1 X62.749 Y57.617 Z-3.000
G1 X63.198 Y57.045 Z-3.000
G1 X63.635 Y56.463 Z-3.000
G1 X64.058 Y55.872 Z-3.000
G1 X64.469 Y55.271 Z-3.000
G1 X64.867 Y54.662 Z-3.000
G1 X65.251 Y54.045 Z-3.000
G1 X65.621 Y53.419 Z-3.000
G1 X65.978 Y52.785 Z-3.000
G1 X66.321 Y52.144 Z-3.000
G1 X66.649 Y51.495 Z-3.000
G1 X66.964 Y50.839 Z-3.000
G1 X67.264 Y50.177 Z-3.000
G1 X67.550 Y49.508 Z-3.000
G1 X67.821 Y48.833 Z-3.000
G1 X68.077 Y48.152 Z-3.000
G1 X68.318 Y47.466 Z-3.000
G1 X68.545 Y46.775 Z-3.000
G1 X68.756 Y46.079 Z-3.000
G1 X68.952 Y45.378 Z-3.000
G1 X69.132 Y44.674 Z-3.000
G1 X69.297 Y43.966 Z-3.000
G1 X69.447 Y43.254 Z-3.000
G1 X69.581 Y42.539 Z-3.000
G1 X69.700 Y41.821 Z-3.000
G1 X69.802 Y41.101 Z-3.000
G1 X69.889 Y40.379 Z-3.000
G1 X69.961 Y39.656 Z-3.000
G1 X70.016 Y38.930 Z-3.000
G1 X70.056 Y38.204 Z-3.000
G1 X70.080 Y37.477 Z-3.000
G1 X70.088 Y36.750 Z-3.000
G1 X70.088 Y6.000 Z-3.000
G1 X70.080 Y5.797 Z-3.000
G1 X70.056 Y5.595 Z-3.000
G1 X70.016 Y5.396 Z-3.000
G1 X69.961 Y5.200 Z-3.000
G1 X69.891 Y5.010 Z-3.000
G1 X69.805 Y4.825 Z-3.000
G1 X69.706 Y4.648 Z-3.000
G1 X69.593 Y4.479 Z-3.000
G1 X69.468 Y4.320 Z-3.000
G1 X69.330 Y4.170 Z-3.000
G1 X69.180 Y4.032 Z-3.000
G1 X69.021 Y3.907 Z-3.000
G1 X68.852 Y3.794 Z-3.000
G1 X68.675 Y3.695 Z-3.000
G1 X68.490 Y3.609 Z-3.000
G1 X68.300 Y3.539 Z-3.000
G1 X68.104 Y3.484 Z-3.000
G1 X67.905 Y3.444 Z-3.000
G1 X67.703 Y3.420 Z-3.000
G1 X67.500 Y3.412 Z-3.000
G1 X6.000 Y3.412 Z-3.000
G1 X5.797 Y3.420 Z-3.000
G1 X5.595 Y3.444 Z-3.000
G1 X5.396 Y3.484 Z-3.000
G1 X5.200 Y3.539 Z-3.000
G1 X5.010 Y3.609 Z-3.000
G1 X4.825 Y3.695 Z-3.000
G1 X4.648 Y3.794 Z-3.000
G1 X4.479 Y3.907 Z-3.000
G1 X4.320 Y4.032 Z-3.000
G1 X4.170 Y4.170 Z-3.000
G1 X4.115 Y4.215 Z-3.000
G1 X4.051 Y4.246 Z-3.000
G1 X3.981 Y4.261 Z-3.000
G1 X3.910 Y4.261 Z-3.000
G1 X3.841 Y4.246 Z-3.000
G1 X3.777 Y4.215 Z-3.000
G1 X3.721 Y4.170 Z-3.000
G1 X3.497 Y3.946 Z-3.000
G1 X3.447 Y3.896 Z-2.992
G1 X3.399 Y3.848 Z-2.969
G1 X3.357 Y3.806 Z-2.931
G1 X3.321 Y3.770 Z-2.880
G1 X3.295 Y3.744 Z-2.820
G1 X3.278 Y3.727 Z-2.753
G1 X3.272 Y3.721 Z-2.683
G1 X3.272 Y3.721 Z5.000
G1 X3.721 Y3.272 Z5.000
G1 X3.721 Y3.272 Z2.235
G1 X3.721 Y3.272 Z-5.683
G1 X3.727 Y3.278 Z-5.753
G1 X3.744 Y3.295 Z-5.820
G1 X3.770 Y3.321 Z-5.880
G1 X3.806 Y3.357 Z-5.931
G1 X3.848 Y3.399 Z-5.969
G1 X3.896 Y3.447 Z-5.992
G1 X3.946 Y3.497 Z-6.000
G1 X4.170 Y3.721 Z-6.000
G1 X4.215 Y3.777 Z-6.000
G1 X4.246 Y3.841 Z-6.000
G1 X4.261 Y3.910 Z-6.000
G1 X4.261 Y3.981 Z-6.000
G1 X4.246 Y4.051 Z-6.000
G1 X4.215 Y4.115 Z-6.000
G1 X4.170 Y4.170 Z-6.000
G1 X4.032 Y4.320 Z-6.000
G1 X3.907 Y4.479 Z-6.000
G1 X3.794 Y4.648 Z-6.000
G1 X3.695 Y4.825 Z-6.000
G1 X3.609 Y5.010 Z-6.000
G1 X3.539 Y5.200 Z-6.000
G1 X3.484 Y5.396 Z-6.000
G1 X3.444 Y5.595 Z-6.000
G1 X3.420 Y5.797 Z-6.000
G1 X3.412 Y6.000 Z-6.000
G1 X3.412 Y36.750 Z-6.000
G1 X3.420 Y37.477 Z-6.000
G1 X3.444 Y38.204 Z-6.000
G1 X3.484 Y38.930 Z-6.000
G1 X3.539 Y39.656 Z-6.000
G1 X3.611 Y40.379 Z-6.000
G1 X3.698 Y41.101 Z-6.000
G1 X3.800 Y41.821 Z-6.000
G1 X3.919 Y42.539 Z-6.000
G1 X4.053 Y43.254 Z-6.000
G1 X4.203 Y43.966 Z-6.000
G1 X4.368 Y44.674 Z-6.000
G1 X4.548 Y45.378 Z-6.000
G1 X4.744 Y46.079 Z-6.000
G1 X4.955 Y46.775 Z-6.000
G1 X5.182 Y47.466 Z-6.000
G1 X5.423 Y48.152 Z-6.000
G1 X5.679 Y48.833 Z-6.000
G1 X5.950 Y49.508 Z-6.000
G1 X6.236 Y50.177 Z-6.000
G1 X6.536 Y50.839 Z-6.000
G1 X6.851 Y51.495 Z-6.000
G1 X7.179 Y52.144 Z-6.000
G1 X7.522 Y52.785 Z-6.000
G1 X7.879 Y53.419 Z-6.000
G1 X8.249 Y54.045 Z-6.000
G1 X8.633 Y54.662 Z-6.000
G1 X9.031 Y55.271 Z-6.000
G1 X9.442 Y55.872 Z-6.000
G1 X9.865 Y56.463 Z-6.000
G1 X10.302 Y57.045 Z-6.000
G1 X10.751 Y57.617 Z-6.000
G1 X11.212 Y58.179 Z-6.000
G1 X11.686 Y58.731 Z-6.000
G1 X12.171 Y59.272 Z-6.000
G1 X12.668 Y59.803 Z-6.000
G1 X13.177 Y60.323 Z-6.000
G1 X13.697 Y60.832 Z-6.000
G1 X14.228 Y61.329 Z-6.000
G1 X14.769 Y61.814 Z-6.000
G1 X15.321 Y62.288 Z-6.000
G1 X15.883 Y62.749 Z-6.000
G1 X16.455 Y63.198 Z-6.000
G1 X17.037 Y63.635 Z-6.000
G1 X17.628 Y64.058 Z-6.000
G1 X18.229 Y64.469 Z-6.000
G1 X18.838 Y64.867 Z-6.000
G1 X19.455 Y65.251 Z-6.000
G1 X20.081 Y65.621 Z-6.000
G1 X20.715 Y65.978 Z-6.000
G1 X21.356 Y66.321 Z-6.000
G1 X22.005 Y66.649 Z-6.000
G1 X22.661 Y66.964 Z-6.000
G1 X23.323 Y67.264 Z-6.000
G1 X23.992 Y67.550 Z-6.000
G1 X24.667 Y67.821 Z-6.000
G1 X25.348 Y68.077 Z-6.000
G1 X26.034 Y68.318 Z-6.000
G1 X26.725 Y68.545 Z-6.000
G1 X27.421 Y68.756 Z-6.000
G1 X28.122 Y68.952 Z-6.000
G1 X28.826 Y69.132 Z-6.000
G1 X29.534 Y69.297 Z-6.000
G1 X30.246 Y69.447 Z-6.000
G1 X30.961 Y69.581 Z-6.000
G1 X31.679 Y69.700 Z-6.000
G1 X32.399 Y69.802 Z-6.000
G1 X33.121 Y69.889 Z-6.000
G1 X33.844 Y69.961 Z-6.000
G1 X34.570 Y70.016 Z-6.000
G1 X35.296 Y70.056 Z-6.000
G1 X36.023 Y70.080 Z-6.000
G1 X36.750 Y70.088 Z-6.000
G1 X37.477 Y70.080 Z-6.000
G1 X38.204 Y70.056 Z-6.000
G1 X38.930 Y70.016 Z-6.000
G1 X39.656 Y69.961 Z-6.000
G1 X40.379 Y69.889 Z-6.000
G1 X41.101 Y69.802 Z-6.000
G1 X41.821 Y69.700 Z-6.000
G1 X42.539 Y69.581 Z-6.000
G1 X43.254 Y69.447 Z-6.000
G1 X43.966 Y69.297 Z-6.000
G1 X44.674 Y69.132 Z-6.000
G1 X45.378 Y68.952 Z-6.000
G1 X46.079 Y68.756 Z-6.000
G1 X46.775 Y68.545 Z-6.000
G1 X47.466 Y68.318 Z-6.000
G1 X48.152 Y68.077 Z-6.000
G1 X48.833 Y67.821 Z-6.000
G1 X49.508 Y67.550 Z-6.000
G1 X50.177 Y67.264 Z-6.000
G1 X50.839 Y66.964 Z-6.000
G1 X51.495 Y66.649 Z-6.000
G1 X52.144 Y66.321 Z-6.000
G1 X52.785 Y65.978 Z-6.000
G1 X53.419 Y65.621 Z-6.000
G1 X54.045 Y65.251 Z-6.000
G1 X54.662 Y64.867 Z-6.000
G1 X55.271 Y64.469 Z-6.000
G1 X55.872 Y64.058 Z-6.000
G1 X56.463 Y63.635 Z-6.000
G1 X57.045 Y63.198 Z-6.000
G1 X57.617 Y62.749 Z-6.000
G1 X58.179 Y62.288 Z-6.000
G1 X58.731 Y61.814 Z-6.000
G1 X59.272 Y61.329 Z-6.000
G1 X59.803 Y60.832 Z-6.000
G1 X60.323 Y60.323 Z-6.000
G1 X60.832 Y59.803 Z-6.000
G1 X61.329 Y59.272 Z-6.000
G1 X61.814 Y58.731 Z-6.000
G1 X62.288 Y58.179 Z-6.000
G1 X62.749 Y57.617 Z-6.000
G1 X63.198 Y57.045 Z-6.000
G1 X63.635 Y56.463 Z-6.000
G1 X64.058 Y55.872 Z-6.000
G1 X64.469 Y55.271 Z-6.000
G1 X64.867 Y54.662 Z-6.000
G1 X65.251 Y54.045 Z-6.000
G1 X65.621 Y53.419 Z-6.000
G1 X65.978 Y52.785 Z-6.000
G1 X66.321 Y52.144 Z-6.000
G1 X66.649 Y51.495 Z-6.000
G1 X66.964 Y50.839 Z-6.000
G1 X67.264 Y50.177 Z-6.000
G1 X67.550 Y49.508 Z-6.000
G1 X67.821 Y48.833 Z-6.000
G1 X68.077 Y48.152 Z-6.000
G1 X68.318 Y47.466 Z-6.000
G1 X68.545 Y46.775 Z-6.000
G1 X68.756 Y46.079 Z-6.000
G1 X68.952 Y45.378 Z-6.000
G1 X69.132 Y44.674 Z-6.000
G1 X69.297 Y43.966 Z-6.000
G1 X69.447 Y43.254 Z-6.000
G1 X69.581 Y42.539 Z-6.000
G1 X69.700 Y41.821 Z-6.000
G1 X69.802 Y41.101 Z-6.000
G1 X69.889 Y40.379 Z-6.000
G1 X69.961 Y39.656 Z-6.000
G1 X70.016 Y38.930 Z-6.000
G1 X70.056 Y38.204 Z-6.000
G1 X70.080 Y37.477 Z-6.000
G1 X70.088 Y36.750 Z-6.000
G1 X70.088 Y6.000 Z-6.000
G1 X70.080 Y5.797 Z-6.000
G1 X70.056 Y5.595 Z-6.000
G1 X70.016 Y5.396 Z-6.000
G1 X69.961 Y5.200 Z-6.000
G1 X69.891 Y5.010 Z-6.000
G1 X69.805 Y4.825 Z-6.000
G1 X69.706 Y4.648 Z-6.000
G1 X69.593 Y4.479 Z-6.000
G1 X69.468 Y4.320 Z-6.000
G1 X69.330 Y4.170 Z-6.000
G1 X69.180 Y4.032 Z-6.000
G1 X69.021 Y3.907 Z-6.000
G1 X68.852 Y3.794 Z-6.000
G1 X68.675 Y3.695 Z-6.000
G1 X68.490 Y3.609 Z-6.000
G1 X68.300 Y3.539 Z-6.000
G1 X68.104 Y3.484 Z-6.000
G1 X67.905 Y3.444 Z-6.000
G1 X67.703 Y3.420 Z-6.000
G1 X67.500 Y3.412 Z-6.000
G1 X6.000 Y3.412 Z-6.000
G1 X5.797 Y3.420 Z-6.000
G1 X5.595 Y3.444 Z-6.000
G1 X5.396 Y3.484 Z-6.000
G1 X5.200 Y3.539 Z-6.000
G1 X5.010 Y3.609 Z-6.000
G1 X4.825 Y3.695 Z-6.000
G1 X4.648 Y3.794 Z-6.000
G1 X4.479 Y3.907 Z-6.000
G1 X4.320 Y4.032 Z-6.000
G1 X4.170 Y4.170 Z-6.000
G1 X4.115 Y4.215 Z-6.000
G1 X4.051 Y4.246 Z-6.000
G1 X3.981 Y4.261 Z-6.000
G1 X3.910 Y4.261 Z-6.000
G1 X3.841 Y4.246 Z-6.000
G1 X3.777 Y4.215 Z-6.000
G1 X3.721 Y4.170 Z-6.000
G1 X3.497 Y3.946 Z-6.000
G1 X3.447 Y3.896 Z-5.992
G1 X3.399 Y3.848 Z-5.969
G1 X3.357 Y3.806 Z-5.931
G1 X3.321 Y3.770 Z-5.880
G1 X3.295 Y3.744 Z-5.820
G1 X3.278 Y3.727 Z-5.753
G1 X3.272 Y3.721 Z-5.683
G1 X3.272 Y3.721 Z5.000
G1 X3.721 Y3.272 Z5.000
G1 X3.721 Y3.272 Z-0.765
G1 X3.721 Y3.272 Z-7.308
G1 X3.727 Y3.278 Z-7.378
G1 X3.744 Y3.295 Z-7.445
G1 X3.770 Y3.321 Z-7.505
G1 X3.806 Y3.357 Z-7.556
G1 X3.848 Y3.399 Z-7.594
G1 X3.896 Y3.447 Z-7.617
G1 X3.946 Y3.497 Z-7.625
G1 X4.170 Y3.721 Z-7.625
G1 X4.215 Y3.777 Z-7.625
G1 X4.246 Y3.841 Z-7.625
G1 X4.261 Y3.910 Z-7.625
G1 X4.261 Y3.981 Z-7.625
G1 X4.246 Y4.051 Z-7.625
G1 X4.215 Y4.115 Z-7.625
G1 X4.170 Y4.170 Z-7.625
G1 X4.032 Y4.320 Z-7.625
G1 X3.907 Y4.479 Z-7.625
G1 X3.794 Y4.648 Z-7.625
G1 X3.695 Y4.825 Z-7.625
G1 X3.609 Y5.010 Z-7.625
G1 X3.539 Y5.200 Z-7.625
G1 X3.484 Y5.396 Z-7.625
G1 X3.444 Y5.595 Z-7.625
G1 X3.420 Y5.797 Z-7.625
G1 X3.412 Y6.000 Z-7.625
G1 X3.412 Y36.750 Z-7.625
G1 X3.420 Y37.477 Z-7.625
G1 X3.444 Y38.204 Z-7.625
G1 X3.484 Y38.930 Z-7.625
G1 X3.539 Y39.656 Z-7.625
G1 X3.611 Y40.379 Z-7.625
G1 X3.698 Y41.101 Z-7.625
G1 X3.800 Y41.821 Z-7.625
G1 X3.919 Y42.539 Z-7.625
G1 X4.053 Y43.254 Z-7.625
G1 X4.203 Y43.966 Z-7.625
G1 X4.368 Y44.674 Z-7.625
G1 X4.548 Y45.378 Z-7.625
G1 X4.744 Y46.079 Z-7.625
G1 X4.955 Y46.775 Z-7.625
G1 X5.182 Y47.466 Z-7.625
G1 X5.423 Y48.152 Z-7.625
G1 X5.679 Y48.833 Z-7.625
G1 X5.950 Y49.508 Z-7.625
G1 X6.236 Y50.177 Z-7.625
G1 X6.536 Y50.839 Z-7.625
G1 X6.851 Y51.495 Z-7.625
G1 X7.179 Y52.144 Z-7.625
G1 X7.522 Y52.785 Z-7.625
G1 X7.879 Y53.419 Z-7.625
G1 X8.249 Y54.045 Z-7.625
G1 X8.633 Y54.662 Z-7.625
G1 X9.031 Y55.271 Z-7.625
G1 X9.442 Y55.872 Z-7.625
G1 X9.865 Y56.463 Z-7.625
G1 X10.302 Y57.045 Z-7.625
G1 X10.751 Y57.617 Z-7.625
G1 X11.212 Y58.179 Z-7.625
G1 X11.686 Y58.731 Z-7.625
G1 X12.171 Y59.272 Z-7.625
G1 X12.668 Y59.803 Z-7.625
G1 X13.177 Y60.323 Z-7.625
G1 X13.697 Y60.832 Z-7.625
G1 X14.228 Y61.329 Z-7.625
G1 X14.769 Y61.814 Z-7.625
G1 X15.321 Y62.288 Z-7.625
G1 X15.883 Y62.749 Z-7.625
G1 X16.455 Y63.198 Z-7.625
G1 X17.037 Y63.635 Z-7.625
G1 X17.628 Y64.058 Z-7.625
G1 X18.229 Y64.469 Z-7.625
G1 X18.838 Y64.867 Z-7.625
G1 X19.455 Y65.251 Z-7.625
G1 X20.081 Y65.621 Z-7.625
G1 X20.715 Y65.978 Z-7.625
G1 X21.356 Y66.321 Z-7.625
G1 X22.005 Y66.649 Z-7.625
G1 X22.661 Y66.964 Z-7.625
G1 X23.323 Y67.264 Z-7.625
G1 X23.992 Y67.550 Z-7.625
G1 X24.667 Y67.821 Z-7.625
G1 X25.348 Y68.077 Z-7.625
G1 X26.034 Y68.318 Z-7.625
G1 X26.725 Y68.545 Z-7.625
G1 X27.421 Y68.756 Z-7.625
G1 X28.122 Y68.952 Z-7.625
G1 X28.826 Y69.132 Z-7.625
G1 X29.534 Y69.297 Z-7.625
G1 X30.246 Y69.447 Z-7.625
G1 X30.961 Y69.581 Z-7.625
G1 X31.679 Y69.700 Z-7.625
G1 X32.399 Y69.802 Z-7.625
G1 X33.121 Y69.889 Z-7.625
G1 X33.844 Y69.961 Z-7.625
G1 X34.570 Y70.016 Z-7.625
G1 X35.296 Y70.056 Z-7.625
G1 X36.023 Y70.080 Z-7.625
G1 X36.750 Y70.088 Z-7.625
G1 X37.477 Y70.080 Z-7.625
G1 X38.204 Y70.056 Z-7.625
G1 X38.930 Y70.016 Z-7.625
G1 X39.656 Y69.961 Z-7.625
G1 X40.379 Y69.889 Z-7.625
G1 X41.101 Y69.802 Z-7.625
G1 X41.821 Y69.700 Z-7.625
G1 X42.539 Y69.581 Z-7.625
G1 X43.254 Y69.447 Z-7.625
G1 X43.966 Y69.297 Z-7.625
G1 X44.674 Y69.132 Z-7.625
G1 X45.378 Y68.952 Z-7.625
G1 X46.079 Y68.756 Z-7.625
G1 X46.775 Y68.545 Z-7.625
G1 X47.466 Y68.318 Z-7.625
G1 X48.152 Y68.077 Z-7.625
G1 X48.833 Y67.821 Z-7.625
G1 X49.508 Y67.550 Z-7.625
G1 X50.177 Y67.264 Z-7.625
G1 X50.839 Y66.964 Z-7.625
G1 X51.495 Y66.649 Z-7.625
G1 X52.144 Y66.321 Z-7.625
G1 X52.785 Y65.978 Z-7.625
G1 X53.419 Y65.621 Z-7.625
G1 X54.045 Y65.251 Z-7.625
G1 X54.662 Y64.867 Z-7.625
G1 X55.271 Y64.469 Z-7.625
G1 X55.872 Y64.058 Z-7.625
G1 X56.463 Y63.635 Z-7.625
G1 X57.045 Y63.198 Z-7.625
G1 X57.617 Y62.749 Z-7.625
G1 X58.179 Y62.288 Z-7.625
G1 X58.731 Y61.814 Z-7.625
G1 X59.272 Y61.329 Z-7.625
G1 X59.803 Y60.832 Z-7.625
G1 X60.323 Y60.323 Z-7.625
G1 X60.832 Y59.803 Z-7.625
G1 X61.329 Y59.272 Z-7.625
G1 X61.814 Y58.731 Z-7.625
G1 X62.288 Y58.179 Z-7.625
G1 X62.749 Y57.617 Z-7.625
G1 X63.198 Y57.045 Z-7.625
G1 X63.635 Y56.463 Z-7.625
G1 X64.058 Y55.872 Z-7.625
G1 X64.469 Y55.271 Z-7.625
G1 X64.867 Y54.662 Z-7.625
G1 X65.251 Y54.045 Z-7.625
G1 X65.621 Y53.419 Z-7.625
G1 X65.978 Y52.785 Z-7.625
G1 X66.321 Y52.144 Z-7.625
G1 X66.649 Y51.495 Z-7.625
G1 X66.964 Y50.839 Z-7.625
G1 X67.264 Y50.177 Z-7.625
G1 X67.550 Y49.508 Z-7.625
G1 X67.821 Y48.833 Z-7.625
G1 X68.077 Y48.152 Z-7.625
G1 X68.318 Y47.466 Z-7.625
G1 X68.545 Y46.775 Z-7.625
G1 X68.756 Y46.079 Z-7.625
G1 X68.952 Y45.378 Z-7.625
G1 X69.132 Y44.674 Z-7.625
G1 X69.297 Y43.966 Z-7.625
G1 X69.447 Y43.254 Z-7.625
G1 X69.581 Y42.539 Z-7.625
G1 X69.700 Y41.821 Z-7.625
G1 X69.802 Y41.101 Z-7.625
G1 X69.889 Y40.379 Z-7.625
G1 X69.961 Y39.656 Z-7.625
G1 X70.016 Y38.930 Z-7.625
G1 X70.056 Y38.204 Z-7.625
G1 X70.080 Y37.477 Z-7.625
G1 X70.088 Y36.750 Z-7.625
G1 X70.088 Y6.000 Z-7.625
G1 X70.080 Y5.797 Z-7.625
G1 X70.056 Y5.595 Z-7.625
G1 X70.016 Y5.396 Z-7.625
G1 X69.961 Y5.200 Z-7.625
G1 X69.891 Y5.010 Z-7.625
G1 X69.805 Y4.825 Z-7.625
G1 X69.706 Y4.648 Z-7.625
G1 X69.593 Y4.479 Z-7.625
G1 X69.468 Y4.320 Z-7.625
G1 X69.330 Y4.170 Z-7.625
G1 X69.180 Y4.032 Z-7.625
G1 X69.021 Y3.907 Z-7.625
G1 X68.852 Y3.794 Z-7.625
G1 X68.675 Y3.695 Z-7.625
G1 X68.490 Y3.609 Z-7.625
G1 X68.300 Y3.539 Z-7.625
G1 X68.104 Y3.484 Z-7.625
G1 X67.905 Y3.444 Z-7.625
G1 X67.703 Y3.420 Z-7.625
G1 X67.500 Y3.412 Z-7.625
G1 X6.000 Y3.412 Z-7.625
G1 X5.797 Y3.420 Z-7.625
G1 X5.595 Y3.444 Z-7.625
G1 X5.396 Y3.484 Z-7.625
G1 X5.200 Y3.539 Z-7.625
G1 X5.010 Y3.609 Z-7.625
G1 X4.825 Y3.695 Z-7.625
G1 X4.648 Y3.794 Z-7.625
G1 X4.479 Y3.907 Z-7.625
G1 X4.320 Y4.032 Z-7.625
G1 X4.170 Y4.170 Z-7.625
G1 X4.115 Y4.215 Z-7.625
G1 X4.051 Y4.246 Z-7.625
G1 X3.981 Y4.261 Z-7.625
G1 X3.910 Y4.261 Z-7.625
G1 X3.841 Y4.246 Z-7.625
G1 X3.777 Y4.215 Z-7.625
G1 X3.721 Y4.170 Z-7.625
G1 X3.497 Y3.946 Z-7.625
G1 X3.447 Y3.896 Z-7.617
G1 X3.399 Y3.848 Z-7.594
G1 X3.357 Y3.806 Z-7.556
G1 X3.321 Y3.770 Z-7.505
G1 X3.295 Y3.744 Z-7.445
G1 X3.278 Y3.727 Z-7.378
G1 X3.272 Y3.721 Z-7.308
G1 X3.272 Y3.721 Z5.000
G1 X3.721 Y3.272 Z5.000
G1 X3.721 Y3.272 Z-2.390
G1 X3.721 Y3.272 Z-8.933
G1 X3.727 Y3.278 Z-9.003
G1 X3.744 Y3.295 Z-9.070
G1 X3.770 Y3.321 Z-9.130
G1 X3.806 Y3.357 Z-9.181
G1 X3.848 Y3.399 Z-9.219
G1 X3.896 Y3.447 Z-9.242
G1 X3.946 Y3.497 Z-9.250
G1 X4.170 Y3.721 Z-9.250
G1 X4.215 Y3.777 Z-9.250
G1 X4.246 Y3.841 Z-9.250
G1 X4.261 Y3.910 Z-9.250
G1 X4.261 Y3.981 Z-9.250
G1 X4.246 Y4.051 Z-9.250
G1 X4.215 Y4.115 Z-9.250
G1 X4.170 Y4.170 Z-9.250
G1 X4.032 Y4.320 Z-9.250
G1 X3.907 Y4.479 Z-9.250
G1 X3.794 Y4.648 Z-9.250
G1 X3.695 Y4.825 Z-9.250
G1 X3.609 Y5.010 Z-9.250
G1 X3.539 Y5.200 Z-9.250
G1 X3.484 Y5.396 Z-9.250
G1 X3.444 Y5.595 Z-9.250
G1 X3.420 Y5.797 Z-9.250
G1 X3.412 Y6.000 Z-9.250
G1 X3.412 Y15.372 Z-9.250
G1 X3.412 Y15.372 Z-8.456
G1 X3.412 Y21.722 Z-8.456
G1 X3.412 Y21.722 Z-9.250
G1 X3.412 Y36.750 Z-9.250
G1 X3.419 Y37.419 Z-9.250
G1 X3.439 Y38.087 Z-9.250
G1 X3.473 Y38.755 Z-9.250
G1 X3.520 Y39.422 Z-9.250
G1 X3.580 Y40.088 Z-9.250
G1 X3.654 Y40.752 Z-9.250
G1 X3.741 Y41.415 Z-9.250
G1 X3.841 Y42.076 Z-9.250
G1 X3.954 Y42.735 Z-9.250
G1 X4.081 Y43.391 Z-9.250
G1 X4.221 Y44.045 Z-9.250
G1 X4.221 Y44.045 Z-8.456
G1 X4.382 Y44.733 Z-8.456
G1 X4.559 Y45.417 Z-8.456
G1 X4.750 Y46.098 Z-8.456
G1 X4.955 Y46.774 Z-8.456
G1 X5.175 Y47.445 Z-8.456
G1 X5.409 Y48.112 Z-8.456
G1 X5.656 Y48.774 Z-8.456
G1 X5.918 Y49.430 Z-8.456
G1 X6.194 Y50.081 Z-8.456
G1 X6.194 Y50.081 Z-9.250
G1 X6.492 Y50.745 Z-9.250
G1 X6.805 Y51.402 Z-9.250
G1 X7.132 Y52.052 Z-9.250
G1 X7.473 Y52.695 Z-9.250
G1 X7.828 Y53.330 Z-9.250
G1 X8.197 Y53.958 Z-9.250
G1 X8.579 Y54.577 Z-9.250
G1 X8.975 Y55.187 Z-9.250
G1 X9.384 Y55.789 Z-9.250
G1 X9.806 Y56.382 Z-9.250
G1 X10.241 Y56.966 Z-9.250
G1 X10.689 Y57.539 Z-9.250
G1 X11.149 Y58.103 Z-9.250
G1 X11.621 Y58.657 Z-9.250
G1 X12.105 Y59.200 Z-9.250
G1 X12.601 Y59.733 Z-9.250
G1 X13.108 Y60.255 Z-9.250
G1 X13.627 Y60.765 Z-9.250
G1 X14.157 Y61.264 Z-9.250
G1 X14.697 Y61.751 Z-9.250
G1 X15.248 Y62.227 Z-9.250
G1 X15.810 Y62.690 Z-9.250
G1 X16.381 Y63.141 Z-9.250
G1 X16.962 Y63.579 Z-9.250
G1 X17.552 Y64.005 Z-9.250
G1 X18.152 Y64.417 Z-9.250
G1 X18.760 Y64.817 Z-9.250
G1 X19.377 Y65.203 Z-9.250
G1 X20.002 Y65.575 Z-9.250
G1 X20.635 Y65.934 Z-9.250
G1 X21.276 Y66.279 Z-9.250
G1 X21.924 Y66.609 Z-9.250
G1 X21.924 Y66.609 Z-8.456
G1 X22.561 Y66.917 Z-8.456
G1 X23.203 Y67.211 Z-8.456
G1 X23.852 Y67.491 Z-8.456
G1 X24.506 Y67.758 Z-8.456
G1 X25.166 Y68.010 Z-8.456
G1 X25.831 Y68.249 Z-8.456
G1 X26.501 Y68.473 Z-8.456
G1 X27.176 Y68.683 Z-8.456
G1 X27.855 Y68.879 Z-8.456
G1 X27.855 Y68.879 Z-9.250
G1 X28.558 Y69.065 Z-9.250
G1 X29.266 Y69.237 Z-9.250
G1 X29.977 Y69.392 Z-9.250
G1 X30.691 Y69.532 Z-9.250
G1 X31.408 Y69.657 Z-9.250
G1 X32.127 Y69.765 Z-9.250
G1 X32.849 Y69.858 Z-9.250
G1 X33.573 Y69.936 Z-9.250
G1 X34.298 Y69.997 Z-9.250
G1 X35.024 Y70.043 Z-9.250
G1 X35.751 Y70.073 Z-9.250
G1 X36.479 Y70.086 Z-9.250
G1 X37.207 Y70.084 Z-9.250
G1 X37.934 Y70.066 Z-9.250
G1 X38.661 Y70.033 Z-9.250
G1 X39.387 Y69.983 Z-9.250
G1 X40.112 Y69.918 Z-9.250
G1 X40.835 Y69.836 Z-9.250
G1 X41.556 Y69.739 Z-9.250
G1 X42.275 Y69.626 Z-9.250
G1 X42.992 Y69.498 Z-9.250
G1 X43.705 Y69.354 Z-9.250
G1 X44.415 Y69.194 Z-9.250
G1 X45.121 Y69.019 Z-9.250
G1 X45.824 Y68.829 Z-9.250
G1 X46.522 Y68.623 Z-9.250
G1 X47.215 Y68.402 Z-9.250
G1 X47.904 Y68.166 Z-9.250
G1 X48.587 Y67.915 Z-9.250
G1 X49.264 Y67.650 Z-9.250
G1 X49.936 Y67.369 Z-9.250
G1 X50.601 Y67.074 Z-9.250
G1 X50.601 Y67.074 Z-8.456
G1 X51.241 Y66.774 Z-8.456
G1 X51.874 Y66.460 Z-8.456
G1 X52.500 Y66.132 Z-8.456
G1 X53.119 Y65.792 Z-8.456
G1 X53.731 Y65.439 Z-8.456
G1 X54.335 Y65.072 Z-8.456
G1 X54.932 Y64.693 Z-8.456
G1 X55.520 Y64.302 Z-8.456
G1 X56.099 Y63.898 Z-8.456
G1 X56.099 Y63.898 Z-9.250
G1 X56.687 Y63.469 Z-9.250
G1 X57.266 Y63.027 Z-9.250
G1 X57.835 Y62.573 Z-9.250
G1 X58.393 Y62.107 Z-9.250
G1 X58.941 Y61.628 Z-9.250
G1 X59.479 Y61.138 Z-9.250
G1 X60.006 Y60.636 Z-9.250
G1 X60.522 Y60.123 Z-9.250
G1 X61.026 Y59.598 Z-9.250
G1 X61.519 Y59.063 Z-9.250
G1 X62.001 Y58.517 Z-9.250
G1 X62.470 Y57.961 Z-9.250
G1 X62.927 Y57.394 Z-9.250
G1 X63.371 Y56.818 Z-9.250
G1 X63.803 Y56.232 Z-9.250
G1 X64.221 Y55.637 Z-9.250
G1 X64.627 Y55.033 Z-9.250
G1 X65.020 Y54.420 Z-9.250
G1 X65.398 Y53.799 Z-9.250
G1 X65.764 Y53.169 Z-9.250
G1 X66.115 Y52.532 Z-9.250
G1 X66.453 Y51.887 Z-9.250
G1 X66.776 Y51.235 Z-9.250
G1 X67.085 Y50.576 Z-9.250
G1 X67.380 Y49.911 Z-9.250
G1 X67.660 Y49.239 Z-9.250
G1 X67.925 Y48.562 Z-9.250
G1 X68.175 Y47.878 Z-9.250
G1 X68.411 Y47.190 Z-9.250
G1 X68.631 Y46.496 Z-9.250
G1 X68.836 Y45.798 Z-9.250
G1 X69.026 Y45.095 Z-9.250
G1 X69.026 Y45.095 Z-8.456
G1 X69.196 Y44.410 Z-8.456
G1 X69.351 Y43.720 Z-8.456
G1 X69.491 Y43.028 Z-8.456
G1 X69.617 Y42.332 Z-8.456
G1 X69.728 Y41.634 Z-8.456
G1 X69.824 Y40.934 Z-8.456
G1 X69.905 Y40.232 Z-8.456
G1 X69.971 Y39.529 Z-8.456
G1 X70.023 Y38.824 Z-8.456
G1 X70.023 Y38.824 Z-9.250
G1 X70.059 Y38.133 Z-9.250
G1 X70.080 Y37.442 Z-9.250
G1 X70.088 Y36.750 Z-9.250
G1 X70.088 Y16.694 Z-9.250
G1 X70.088 Y16.694 Z-8.456
G1 X70.088 Y10.344 Z-8.456
G1 X70.088 Y10.344 Z-9.250
G1 X70.088 Y6.000 Z-9.250
G1 X70.080 Y5.797 Z-9.250
G1 X70.056 Y5.595 Z-9.250
G1 X70.016 Y5.396 Z-9.250
G1 X69.961 Y5.200 Z-9.250
G1 X69.891 Y5.010 Z-9.250
G1 X69.805 Y4.825 Z-9.250
G1 X69.706 Y4.648 Z-9.250
G1 X69.593 Y4.479 Z-9.250
G1 X69.468 Y4.320 Z-9.250
G1 X69.330 Y4.170 Z-9.250
G1 X69.180 Y4.032 Z-9.250
G1 X69.021 Y3.907 Z-9.250
G1 X68.852 Y3.794 Z-9.250
G1 X68.675 Y3.695 Z-9.250
G1 X68.490 Y3.609 Z-9.250
G1 X68.300 Y3.539 Z-9.250
G1 X68.104 Y3.484 Z-9.250
G1 X67.905 Y3.444 Z-9.250
G1 X67.703 Y3.420 Z-9.250
G1 X67.500 Y3.412 Z-9.250
G1 X51.529 Y3.412 Z-9.250
G1 X51.529 Y3.412 Z-8.456
G1 X45.179 Y3.412 Z-8.456
G1 X45.179 Y3.412 Z-9.250
G1 X23.293 Y3.412 Z-9.250
G1 X23.293 Y3.412 Z-8.456
G1 X16.943 Y3.412 Z-8.456
G1 X16.943 Y3.412 Z-9.250
G1 X6.000 Y3.412 Z-9.250
G1 X5.797 Y3.420 Z-9.250
G1 X5.595 Y3.444 Z-9.250
G1 X5.396 Y3.484 Z-9.250
G1 X5.200 Y3.539 Z-9.250
G1 X5.010 Y3.609 Z-9.250
G1 X4.825 Y3.695 Z-9.250
G1 X4.648 Y3.794 Z-9.250
G1 X4.479 Y3.907 Z-9.250
G1 X4.320 Y4.032 Z-9.250
G1 X4.170 Y4.170 Z-9.250
G1 X4.115 Y4.215 Z-9.250
G1 X4.051 Y4.246 Z-9.250
G1 X3.981 Y4.261 Z-9.250
G1 X3.910 Y4.261 Z-9.250
G1 X3.841 Y4.246 Z-9.250
G1 X3.777 Y4.215 Z-9.250
G1 X3.721 Y4.170 Z-9.250
G1 X3.497 Y3.946 Z-9.250
G1 X3.447 Y3.896 Z-9.242
G1 X3.399 Y3.848 Z-9.219
G1 X3.357 Y3.806 Z-9.181
G1 X3.321 Y3.770 Z-9.130
G1 X3.295 Y3.744 Z-9.070
G1 X3.278 Y3.727 Z-9.003
G1 X3.272 Y3.721 Z-8.933
G1 X3.272 Y3.721 Z5.000
G1 X75.965 Y5.635 Z5.000
G1 X75.965 Y5.635 Z4.000
G1 X75.965 Y5.635 Z-2.683
G1 X75.973 Y5.635 Z-2.753
G1 X75.996 Y5.635 Z-2.820
G1 X76.034 Y5.636 Z-2.880
G1 X76.084 Y5.637 Z-2.931
G1 X76.144 Y5.637 Z-2.969
G1 X76.211 Y5.638 Z-2.992
G1 X76.282 Y5.639 Z-3.000
G1 X76.600 Y5.644 Z-3.000
G1 X76.670 Y5.652 Z-3.000
G1 X76.737 Y5.677 Z-3.000
G1 X76.797 Y5.715 Z-3.000
G1 X76.846 Y5.766 Z-3.000
G1 X76.883 Y5.827 Z-3.000
G1 X76.906 Y5.895 Z-3.000
G1 X76.913 Y5.965 Z-3.000
G1 X76.912 Y6.000 Z-3.000
G1 X76.912 Y36.750 Z-3.000
G1 X76.920 Y37.477 Z-3.000
G1 X76.944 Y38.204 Z-3.000
G1 X76.984 Y38.930 Z-3.000
G1 X77.039 Y39.656 Z-3.000
G1 X77.111 Y40.379 Z-3.000
G1 X77.198 Y41.101 Z-3.000
G1 X77.300 Y41.821 Z-3.000
G1 X77.419 Y42.539 Z-3.000
G1 X77.553 Y43.254 Z-3.000
G1 X77.703 Y43.966 Z-3.000
G1 X77.868 Y44.674 Z-3.000
G1 X78.048 Y45.378 Z-3.000
G1 X78.244 Y46.079 Z-3.000
G1 X78.455 Y46.775 Z-3.000
G1 X78.682 Y47.466 Z-3.000
G1 X78.923 Y48.152 Z-3.000
G1 X79.179 Y48.833 Z-3.000
G1 X79.450 Y49.508 Z-3.000
G1 X79.736 Y50.177 Z-3.000
G1 X80.036 Y50.839 Z-3.000
G1 X80.351 Y51.495 Z-3.000
G1 X80.679 Y52.144 Z-3.000
G1 X81.022 Y52.785 Z-3.000
G1 X81.379 Y53.419 Z-3.000
G1 X81.749 Y54.045 Z-3.000
G1 X82.133 Y54.662 Z-3.000
G1 X82.531 Y55.271 Z-3.000
G1 X82.942 Y55.872 Z-3.000
G1 X83.365 Y56.463 Z-3.000
G1 X83.802 Y57.045 Z-3.000
G1 X84.251 Y57.617 Z-3.000
G1 X84.712 Y58.179 Z-3.000
G1 X85.186 Y58.731 Z-3.000
G1 X85.671 Y59.272 Z-3.000
G1 X86.168 Y59.803 Z-3.000
G1 X86.677 Y60.323 Z-3.000
G1 X87.197 Y60.832 Z-3.000
G1 X87.728 Y61.329 Z-3.000
G1 X88.269 Y61.814 Z-3.000
G1 X88.821 Y62.288 Z-3.000
G1 X89.383 Y62.749 Z-3.000
G1 X89.955 Y63.198 Z-3.000
G1 X90.537 Y63.635 Z-3.000
G1 X91.128 Y64.058 Z-3.000
G1 X91.729 Y64.469 Z-3.000
G1 X92.338 Y64.867 Z-3.000
G1 X92.955 Y65.251 Z-3.000
G1 X93.581 Y65.621 Z-3.000
G1 X94.215 Y65.978 Z-3.000
G1 X94.856 Y66.321 Z-3.000
G1 X95.505 Y66.649 Z-3.000
G1 X96.161 Y66.964 Z-3.000
G1 X96.823 Y67.264 Z-3.000
G1 X97.492 Y67.550 Z-3.000
G1 X98.167 Y67.821 Z-3.000
G1 X98.848 Y68.077 Z-3.000
G1 X99.534 Y68.318 Z-3.000
G1 X100.225 Y68.545 Z-3.000
G1 X100.921 Y68.756 Z-3.000
G1 X101.622 Y68.952 Z-3.000
G1 X102.326 Y69.132 Z-3.000
G1 X103.034 Y69.297 Z-3.000
G1 X103.746 Y69.447 Z-3.000
G1 X104.461 Y69.581 Z-3.000
G1 X105.179 Y69.699 Z-3.000
G1 X105.899 Y69.802 Z-3.000
G1 X106.621 Y69.889 Z-3.000
G1 X107.344 Y69.961 Z-3.000
G1 X108.070 Y70.016 Z-3.000
G1 X108.796 Y70.056 Z-3.000
G1 X109.523 Y70.080 Z-3.000
G1 X110.250 Y70.087 Z-3.000
G1 X110.977 Y70.080 Z-3.000
G1 X111.704 Y70.056 Z-3.000
G1 X112.430 Y70.016 Z-3.000
G1 X113.156 Y69.961 Z-3.000
G1 X113.879 Y69.889 Z-3.000
G1 X114.601 Y69.802 Z-3.000
G1 X115.321 Y69.699 Z-3.000
G1 X116.039 Y69.581 Z-3.000
G1 X116.754 Y69.447 Z-3.000
G1 X117.466 Y69.297 Z-3.000
G1 X118.174 Y69.132 Z-3.000
G1 X118.878 Y68.952 Z-3.000
G1 X119.579 Y68.756 Z-3.000
G1 X120.275 Y68.545 Z-3.000
G1 X120.966 Y68.318 Z-3.000
G1 X121.652 Y68.077 Z-3.000
G1 X122.333 Y67.821 Z-3.000
G1 X123.008 Y67.550 Z-3.000
G1 X123.677 Y67.264 Z-3.000
G1 X124.339 Y66.964 Z-3.000
G1 X124.995 Y66.649 Z-3.000
G1 X125.644 Y66.321 Z-3.000
G1 X126.285 Y65.978 Z-3.000
G1 X126.919 Y65.621 Z-3.000
G1 X127.545 Y65.251 Z-3.000
G1 X128.162 Y64.867 Z-3.000
G1 X128.771 Y64.469 Z-3.000
G1 X129.372 Y64.058 Z-3.000
G1 X129.963 Y63.635 Z-3.000
G1 X130.545 Y63.198 Z-3.000
G1 X131.117 Y62.749 Z-3.000
G1 X131.679 Y62.288 Z-3.000
G1 X132.231 Y61.814 Z-3.000
G1 X132.772 Y61.329 Z-3.000
G1 X133.303 Y60.832 Z-3.000
G1 X133.823 Y60.323 Z-3.000
G1 X134.332 Y59.803 Z-3.000
G1 X134.829 Y59.272 Z-3.000
G1 X135.314 Y58.731 Z-3.000
G1 X135.788 Y58.179 Z-3.000
G1 X136.249 Y57.617 Z-3.000
G1 X136.698 Y57.045 Z-3.000
G1 X137.135 Y56.463 Z-3.000
G1 X137.558 Y55.872 Z-3.000
G1 X137.969 Y55.271 Z-3.000
G1 X138.367 Y54.662 Z-3.000
G1 X138.751 Y54.045 Z-3.000
G1 X139.121 Y53.419 Z-3.000
G1 X139.478 Y52.785 Z-3.000
G1 X139.821 Y52.144 Z-3.000
G1 X140.149 Y51.495 Z-3.000
G1 X140.464 Y50.839 Z-3.000
G1 X140.764 Y50.177 Z-3.000
G1 X141.050 Y49.508 Z-3.000
G1 X141.321 Y48.833 Z-3.000
G1 X141.577 Y48.152 Z-3.000
G1 X141.818 Y47.466 Z-3.000
G1 X142.045 Y46.775 Z-3.000
G1 X142.256 Y46.079 Z-3.000
G1 X142.452 Y45.378 Z-3.000
G1 X142.632 Y44.674 Z-3.000
G1 X142.797 Y43.966 Z-3.000
G1 X142.947 Y43.254 Z-3.000
G1 X143.081 Y42.539 Z-3.000
G1 X143.199 Y41.821 Z-3.000
G1 X143.302 Y41.101 Z-3.000
G1 X143.389 Y40.379 Z-3.000
G1 X143.461 Y39.656 Z-3.000
G1 X143.516 Y38.930 Z-3.000
G1 X143.556 Y38.204 Z-3.000
G1 X143.580 Y37.477 Z-3.000
G1 X143.587 Y36.750 Z-3.000
G1 X143.587 Y6.000 Z-3.000
G1 X143.580 Y5.797 Z-3.000
G1 X143.556 Y5.595 Z-3.000
G1 X143.516 Y5.396 Z-3.000
G1 X143.461 Y5.200 Z-3.000
G1 X143.391 Y5.010 Z-3.000
G1 X143.305 Y4.825 Z-3.000
G1 X143.206 Y4.648 Z-3.000
G1 X143.093 Y4.479 Z-3.000
G1 X142.968 Y4.320 Z-3.000
G1 X142.830 Y4.170 Z-3.000
G1 X142.680 Y4.032 Z-3.000
G1 X142.521 Y3.907 Z-3.000
G1 X142.352 Y3.794 Z-3.000
G1 X142.175 Y3.695 Z-3.000
G1 X141.990 Y3.609 Z-3.000
G1 X141.800 Y3.539 Z-3.000
G1 X141.604 Y3.484 Z-3.000
G1 X141.405 Y3.444 Z-3.000
G1 X141.203 Y3.420 Z-3.000
G1 X141.000 Y3.412 Z-3.000
G1 X79.500 Y3.412 Z-3.000
G1 X79.299 Y3.420 Z-3.000
G1 X79.099 Y3.444 Z-3.000
G1 X78.901 Y3.483 Z-3.000
G1 X78.707 Y3.537 Z-3.000
G1 X78.518 Y3.606 Z-3.000
G1 X78.335 Y3.690 Z-3.000
G1 X78.158 Y3.787 Z-3.000
G1 X77.990 Y3.899 Z-3.000
G1 X77.831 Y4.022 Z-3.000
G1 X77.683 Y4.158 Z-3.000
G1 X77.545 Y4.305 Z-3.000
G1 X77.419 Y4.462 Z-3.000
G1 X77.306 Y4.629 Z-3.000
G1 X77.206 Y4.804 Z-3.000
G1 X77.120 Y4.986 Z-3.000
G1 X77.048 Y5.174 Z-3.000
G1 X76.991 Y5.367 Z-3.000
G1 X76.949 Y5.564 Z-3.000
G1 X76.923 Y5.764 Z-3.000
G1 X76.913 Y5.965 Z-3.000
G1 X76.904 Y6.036 Z-3.000
G1 X76.879 Y6.103 Z-3.000
G1 X76.841 Y6.162 Z-3.000
G1 X76.790 Y6.212 Z-3.000
G1 X76.729 Y6.249 Z-3.000
G1 X76.662 Y6.271 Z-3.000
G1 X76.591 Y6.278 Z-3.000
G1 X76.274 Y6.274 Z-3.000
G1 X76.203 Y6.273 Z-2.992
G1 X76.136 Y6.272 Z-2.969
G1 X76.076 Y6.272 Z-2.931
G1 X76.025 Y6.271 Z-2.880
G1 X75.987 Y6.270 Z-2.820
G1 X75.964 Y6.270 Z-2.753
G1 X75.956 Y6.270 Z-2.683
G1 X75.956 Y6.270 Z5.000
G1 X75.965 Y5.635 Z5.000
G1 X75.965 Y5.635 Z2.235
G1 X75.965 Y5.635 Z-5.683
G1 X75.973 Y5.635 Z-5.753
G1 X75.996 Y5.635 Z-5.820
G1 X76.034 Y5.636 Z-5.880
G1 X76.084 Y5.637 Z-5.931
G1 X76.144 Y5.637 Z-5.969
G1 X76.211 Y5.638 Z-5.992
G1 X76.282 Y5.639 Z-6.000
G1 X76.600 Y5.644 Z-6.000
G1 X76.670 Y5.652 Z-6.000
G1 X76.737 Y5.677 Z-6.000
G1 X76.797 Y5.715 Z-6.000
G1 X76.846 Y5.766 Z-6.000
G1 X76.883 Y5.827 Z-6.000
G1 X76.906 Y5.895 Z-6.000
G1 X76.913 Y5.965 Z-6.000
G1 X76.912 Y6.000 Z-6.000
G1 X76.912 Y36.750 Z-6.000
G1 X76.920 Y37.477 Z-6.000
G1 X76.944 Y38.204 Z-6.000
G1 X76.984 Y38.930 Z-6.000
G1 X77.039 Y39.656 Z-6.000
G1 X77.111 Y40.379 Z-6.000
G1 X77.198 Y41.101 Z-6.000
G1 X77.300 Y41.821 Z-6.000
G1 X77.419 Y42.539 Z-6.000
G1 X77.553 Y43.254 Z-6.000
G1 X77.703 Y43.966 Z-6.000
G1 X77.868 Y44.674 Z-6.000
G1 X78.048 Y45.378 Z-6.000
G1 X78.244 Y46.079 Z-6.000
G1 X78.455 Y46.775 Z-6.000
G1 X78.682 Y47.466 Z-6.000
G1 X78.923 Y48.152 Z-6.000
G1 X79.179 Y48.833 Z-6.000
G1 X79.450 Y49.508 Z-6.000
G1 X79.736 Y50.177 Z-6.000
G1 X80.036 Y50.839 Z-6.000
G1 X80.351 Y51.495 Z-6.000
G1 X80.679 Y52.144 Z-6.000
G1 X81.022 Y52.785 Z-6.000
G1 X81.379 Y53.419 Z-6.000
G1 X81.749 Y54.045 Z-6.000
G1 X82.133 Y54.662 Z-6.000
G1 X82.531 Y55.271 Z-6.000
G1 X82.942 Y55.872 Z-6.000
G1 X83.365 Y56.463 Z-6.000
G1 X83.802 Y57.045 Z-6.000
G1 X84.251 Y57.617 Z-6.000
G1 X84.712 Y58.179 Z-6.000
G1 X85.186 Y58.731 Z-6.000
G1 X85.671 Y59.272 Z-6.000
G1 X86.168 Y59.803 Z-6.000
G1 X86.677 Y60.323 Z-6.000
G1 X87.197 Y60.832 Z-6.000
G1 X87.728 Y61.329 Z-6.000
G1 X88.269 Y61.814 Z-6.000
G1 X88.821 Y62.288 Z-6.000
G1 X89.383 Y62.749 Z-6.000
G1 X89.955 Y63.198 Z-6.000
G1 X90.537 Y63.635 Z-6.000
G1 X91.128 Y64.058 Z-6.000
G1 X91.729 Y64.469 Z-6.000
G1 X92.338 Y64.867 Z-6.000
G1 X92.955 Y65.251 Z-6.000
G1 X93.581 Y65.621 Z-6.000
G1 X94.215 Y65.978 Z-6.000
G1 X94.856 Y66.321 Z-6.000
G1 X95.505 Y66.649 Z-6.000
G1 X96.161 Y66.964 Z-6.000
G1 X96.823 Y67.264 Z-6.000
G1 X97.492 Y67.550 Z-6.000
G1 X98.167 Y67.821 Z-6.000
G1 X98.848 Y68.077 Z-6.000
G1 X99.534 Y68.318 Z-6.000
G1 X100.225 Y68.545 Z-6.000
G1 X100.921 Y68.756 Z-6.000
G1 X101.622 Y68.952 Z-6.000
G1 X102.326 Y69.132 Z-6.000
G1 X103.034 Y69.297 Z-6.000
G1 X103.746 Y69.447 Z-6.000
G1 X104.461 Y69.581 Z-6.000
G1 X105.179 Y69.699 Z-6.000
G1 X105.899 Y69.802 Z-6.000
G1 X106.621 Y69.889 Z-6.000
G1 X107.344 Y69.961 Z-6.000
G1 X108.070 Y70.016 Z-6.000
G1 X108.796 Y70.056 Z-6.000
G1 X109.523 Y70.080 Z-6.000
G1 X110.250 Y70.087 Z-6.000
G1 X110.977 Y70.080 Z-6.000
G1 X111.704 Y70.056 Z-6.000
G1 X112.430 Y70.016 Z-6.000
G1 X113.156 Y69.961 Z-6.000
G1 X113.879 Y69.889 Z-6.000
G1 X114.601 Y69.802 Z-6.000
G1 X115.321 Y69.699 Z-6.000
G1 X116.039 Y69.581 Z-6.000
G1 X116.754 Y69.447 Z-6.000
G1 X117.466 Y69.297 Z-6.000
G1 X118.174 Y69.132 Z-6.000
G1 X118.878 Y68.952 Z-6.000
G1 X119.579 Y68.756 Z-6.000
G1 X120.275 Y68.545 Z-6.000
G1 X120.966 Y68.318 Z-6.000
G1 X121.652 Y68.077 Z-6.000
G1 X122.333 Y67.821 Z-6.000
G1 X123.008 Y67.550 Z-6.000
G1 X123.677 Y67.264 Z-6.000
G1 X124.339 Y66.964 Z-6.000
G1 X124.995 Y66.649 Z-6.000
G1 X125.644 Y66.321 Z-6.000
G1 X126.285 Y65.978 Z-6.000
G1 X126.919 Y65.621 Z-6.000
G1 X127.545 Y65.251 Z-6.000
G1 X128.162 Y64.867 Z-6.000
G1 X128.771 Y64.469 Z-6.000
G1 X129.372 Y64.058 Z-6.000
G1 X129.963 Y63.635 Z-6.000
G1 X130.545 Y63.198 Z-6.000
G1 X131.117 Y62.749 Z-6.000
G1 X131.679 Y62.288 Z-6.000
G1 X132.231 Y61.814 Z-6.000
G1 X132.772 Y61.329 Z-6.000
G1 X133.303 Y60.832 Z-6.000
G1 X133.823 Y60.323 Z-6.000
G1 X134.332 Y59.803 Z-6.000
G1 X134.829 Y59.272 Z-6.000
G1 X135.314 Y58.731 Z-6.000
G1 X135.788 Y58.179 Z-6.000
G1 X136.249 Y57.617 Z-6.000
G1 X136.698 Y57.045 Z-6.000
G1 X137.135 Y56.463 Z-6.000
G1 X137.558 Y55.872 Z-6.000
G1 X137.969 Y55.271 Z-6.000
G1 X138.367 Y54.662 Z-6.000
G1 X138.751 Y54.045 Z-6.000
G1 X139.121 Y53.419 Z-6.000
G1 X139.478 Y52.785 Z-6.000
G1 X139.821 Y52.144 Z-6.000
G1 X140.149 Y51.495 Z-6.000
G1 X140.464 Y50.839 Z-6.000
G1 X140.764 Y50.177 Z-6.000
G1 X141.050 Y49.508 Z-6.000
G1 X141.321 Y48.833 Z-6.000
G1 X141.577 Y48.152 Z-6.000
G1 X141.818 Y47.466 Z-6.000
G1 X142.045 Y46.775 Z-6.000
G1 X142.256 Y46.079 Z-6.000
G1 X142.452 Y45.378 Z-6.000
G1 X142.632 Y44.674 Z-6.000
G1 X142.797 Y43.966 Z-6.000
G1 X142.947 Y43.254 Z-6.000
G1 X143.081 Y42.539 Z-6.000
G1 X143.199 Y41.821 Z-6.000
G1 X143.302 Y41.101 Z-6.000
G1 X143.389 Y40.379 Z-6.000
G1 X143.461 Y39.656 Z-6.000
G1 X143.516 Y38.930 Z-6.000
G1 X143.556 Y38.204 Z-6.000
G1 X143.580 Y37.477 Z-6.000
G1 X143.587 Y36.750 Z-6.000
G1 X143.587 Y6.000 Z-6.000
G1 X143.580 Y5.797 Z-6.000
G1 X143.556 Y5.595 Z-6.000
G1 X143.516 Y5.396 Z-6.000
G1 X143.461 Y5.200 Z-6.000
G1 X143.391 Y5.010 Z-6.000
G1 X143.305 Y4.825 Z-6.000
G1 X143.206 Y4.648 Z-6.000
G1 X143.093 Y4.479 Z-6.000
G1 X142.968 Y4.320 Z-6.000
G1 X142.830 Y4.170 Z-6.000
G1 X142.680 Y4.032 Z-6.000
G1 X142.521 Y3.907 Z-6.000
G1 X142.352 Y3.794 Z-6.000
G1 X142.175 Y3.695 Z-6.000
G1 X141.990 Y3.609 Z-6.000
G1 X141.800 Y3.539 Z-6.000
G1 X141.604 Y3.484 Z-6.000
G1 X141.405 Y3.444 Z-6.000
G1 X141.203 Y3.420 Z-6.000
G1 X141.000 Y3.412 Z-6.000
G1 X79.500 Y3.412 Z-6.000
G1 X79.299 Y3.420 Z-6.000
G1 X79.099 Y3.444 Z-6.000
G1 X78.901 Y3.483 Z-6.000
G1 X78.707 Y3.537 Z-6.000
G1 X78.518 Y3.606 Z-6.000
G1 X78.335 Y3.690 Z-6.000
G1 X78.158 Y3.787 Z-6.000
G1 X77.990 Y3.899 Z-6.000
G1 X77.831 Y4.022 Z-6.000
G1 X77.683 Y4.158 Z-6.000
G1 X77.545 Y4.305 Z-6.000
G1 X77.419 Y4.462 Z-6.000
G1 X77.306 Y4.629 Z-6.000
G1 X77.206 Y4.804 Z-6.000
G1 X77.120 Y4.986 Z-6.000
G1 X77.048 Y5.174 Z-6.000
G1 X76.991 Y5.367 Z-6.000
G1 X76.949 Y5.564 Z-6.000
G1 X76.923 Y5.764 Z-6.000
G1 X76.913 Y5.965 Z-6.000
G1 X76.904 Y6.036 Z-6.000
G1 X76.879 Y6.103 Z-6.000
G1 X76.841 Y6.162 Z-6.000
G1 X76.790 Y6.212 Z-6.000
G1 X76.729 Y6.249 Z-6.000
G1 X76.662 Y6.271 Z-6.000
G1 X76.591 Y6.278 Z-6.000
G1 X76.274 Y6.274 Z-6.000
G1 X76.203 Y6.273 Z-5.992
G1 X76.136 Y6.272 Z-5.969
G1 X76.076 Y6.272 Z-5.931
G1 X76.025 Y6.271 Z-5.880
G1 X75.987 Y6.270 Z-5.820
G1 X75.964 Y6.270 Z-5.753
G1 X75.956 Y6.270 Z-5.683
G1 X75.956 Y6.270 Z5.000
G1 X75.965 Y5.635 Z5.000
G1 X75.965 Y5.635 Z-0.765
G1 X75.965 Y5.635 Z-7.308
G1 X75.973 Y5.635 Z-7.378
G1 X75.996 Y5.635 Z-7.445
G1 X76.034 Y5.636 Z-7.505
G1 X76.084 Y5.637 Z-7.556
G1 X76.144 Y5.637 Z-7.594
G1 X76.211 Y5.638 Z-7.617
G1 X76.282 Y5.639 Z-7.625
G1 X76.600 Y5.644 Z-7.625
G1 X76.670 Y5.652 Z-7.625
G1 X76.737 Y5.677 Z-7.625
G1 X76.797 Y5.715 Z-7.625
G1 X76.846 Y5.766 Z-7.625
G1 X76.883 Y5.827 Z-7.625
G1 X76.906 Y5.895 Z-7.625
G1 X76.913 Y5.965 Z-7.625
G1 X76.912 Y6.000 Z-7.625
G1 X76.912 Y36.750 Z-7.625
G1 X76.920 Y37.477 Z-7.625
G1 X76.944 Y38.204 Z-7.625
G1 X76.984 Y38.930 Z-7.625
G1 X77.039 Y39.656 Z-7.625
G1 X77.111 Y40.379 Z-7.625
G1 X77.198 Y41.101 Z-7.625
G1 X77.300 Y41.821 Z-7.625
G1 X77.419 Y42.539 Z-7.625
G1 X77.553 Y43.254 Z-7.625
G1 X77.703 Y43.966 Z-7.625
G1 X77.868 Y44.674 Z-7.625
G1 X78.048 Y45.378 Z-7.625
G1 X78.244 Y46.079 Z-7.625
G1 X78.455 Y46.775 Z-7.625
G1 X78.682 Y47.466 Z-7.625
G1 X78.923 Y48.152 Z-7.625
G1 X79.179 Y48.833 Z-7.625
G1 X79.450 Y49.508 Z-7.625
G1 X79.736 Y50.177 Z-7.625
G1 X80.036 Y50.839 Z-7.625
G1 X80.351 Y51.495 Z-7.625
G1 X80.679 Y52.144 Z-7.625
G1 X81.022 Y52.785 Z-7.625
G1 X81.379 Y53.419 Z-7.625
G1 X81.749 Y54.045 Z-7.625
G1 X82.133 Y54.662 Z-7.625
G1 X82.531 Y55.271 Z-7.625
G1 X82.942 Y55.872 Z-7.625
G1 X83.365 Y56.463 Z-7.625
G1 X83.802 Y57.045 Z-7.625
G1 X84.251 Y57.617 Z-7.625
G1 X84.712 Y58.179 Z-7.625
G1 X85.186 Y58.731 Z-7.625
G1 X85.671 Y59.272 Z-7.625
G1 X86.168 Y59.803 Z-7.625
G1 X86.677 Y60.323 Z-7.625
G1 X87.197 Y60.832 Z-7.625
G1 X87.728 Y61.329 Z-7.625
G1 X88.269 Y61.814 Z-7.625
G1 X88.821 Y62.288 Z-7.625
G1 X89.383 Y62.749 Z-7.625
G1 X89.955 Y63.198 Z-7.625
G1 X90.537 Y63.635 Z-7.625
G1 X91.128 Y64.058 Z-7.625
G1 X91.729 Y64.469 Z-7.625
G1 X92.338 Y64.867 Z-7.625
G1 X92.955 Y65.251 Z-7.625
G1 X93.581 Y65.621 Z-7.625
G1 X94.215 Y65.978 Z-7.625
G1 X94.856 Y66.321 Z-7.625
G1 X95.505 Y66.649 Z-7.625
G1 X96.161 Y66.964 Z-7.625
G1 X96.823 Y67.264 Z-7.625
G1 X97.492 Y67.550 Z-7.625
G1 X98.167 Y67.821 Z-7.625
G1 X98.848 Y68.077 Z-7.625
G1 X99.534 Y68.318 Z-7.625
G1 X100.225 Y68.545 Z-7.625
G1 X100.921 Y68.756 Z-7.625
G1 X101.622 Y68.952 Z-7.625
G1 X102.326 Y69.132 Z-7.625
G1 X103.034 Y69.297 Z-7.625
G1 X103.746 Y69.447 Z-7.625
G1 X104.461 Y69.581 Z-7.625
G1 X105.179 Y69.699 Z-7.625
G1 X105.899 Y69.802 Z-7.625
G1 X106.621 Y69.889 Z-7.625
G1 X107.344 Y69.961 Z-7.625
G1 X108.070 Y70.016 Z-7.625
G1 X108.796 Y70.056 Z-7.625
G1 X109.523 Y70.080 Z-7.625
G1 X110.250 Y70.087 Z-7.625
G1 X110.977 Y70.080 Z-7.625
G1 X111.704 Y70.056 Z-7.625
G1 X112.430 Y70.016 Z-7.625
G1 X113.156 Y69.961 Z-7.625
G1 X113.879 Y69.889 Z-7.625
G1 X114.601 Y69.802 Z-7.625
G1 X115.321 Y69.699 Z-7.625
G1 X116.039 Y69.581 Z-7.625
G1 X116.754 Y69.447 Z-7.625
G1 X117.466 Y69.297 Z-7.625
G1 X118.174 Y69.132 Z-7.625
G1 X118.878 Y68.952 Z-7.625
G1 X119.579 Y68.756 Z-7.625
G1 X120.275 Y68.545 Z-7.625
G1 X120.966 Y68.318 Z-7.625
G1 X121.652 Y68.077 Z-7.625
G1 X122.333 Y67.821 Z-7.625
G1 X123.008 Y67.550 Z-7.625
G1 X123.677 Y67.264 Z-7.625
G1 X124.339 Y66.964 Z-7.625
G1 X124.995 Y66.649 Z-7.625
G1 X125.644 Y66.321 Z-7.625
G1 X126.285 Y65.978 Z-7.625
G1 X126.919 Y65.621 Z-7.625
G1 X127.545 Y65.251 Z-7.625
G1 X128.162 Y64.867 Z-7.625
G1 X128.771 Y64.469 Z-7.625
G1 X129.372 Y64.058 Z-7.625
G1 X129.963 Y63.635 Z-7.625
G1 X130.545 Y63.198 Z-7.625
G1 X131.117 Y62.749 Z-7.625
G1 X131.679 Y62.288 Z-7.625
G1 X132.231 Y61.814 Z-7.625
G1 X132.772 Y61.329 Z-7.625
G1 X133.303 Y60.832 Z-7.625
G1 X133.823 Y60.323 Z-7.625
G1 X134.332 Y59.803 Z-7.625
G1 X134.829 Y59.272 Z-7.625
G1 X135.314 Y58.731 Z-7.625
G1 X135.788 Y58.179 Z-7.625
G1 X136.249 Y57.617 Z-7.625
G1 X136.698 Y57.045 Z-7.625
G1 X137.135 Y56.463 Z-7.625
G1 X137.558 Y55.872 Z-7.625
G1 X137.969 Y55.271 Z-7.625
G1 X138.367 Y54.662 Z-7.625
G1 X138.751 Y54.045 Z-7.625
G1 X139.121 Y53.419 Z-7.625
G1 X139.478 Y52.785 Z-7.625
G1 X139.821 Y52.144 Z-7.625
G1 X140.149 Y51.495 Z-7.625
G1 X140.464 Y50.839 Z-7.625
G1 X140.764 Y50.177 Z-7.625
G1 X141.050 Y49.508 Z-7.625
G1 X141.321 Y48.833 Z-7.625
G1 X141.577 Y48.152 Z-7.625
G1 X141.818 Y47.466 Z-7.625
G1 X142.045 Y46.775 Z-7.625
G1 X142.256 Y46.079 Z-7.625
G1 X142.452 Y45.378 Z-7.625
G1 X142.632 Y44.674 Z-7.625
G1 X142.797 Y43.966 Z-7.625
G1 X142.947 Y43.254 Z-7.625
G1 X143.081 Y42.539 Z-7.625
G1 X143.199 Y41.821 Z-7.625
G1 X143.302 Y41.101 Z-7.625
G1 X143.389 Y40.379 Z-7.625
G1 X143.461 Y39.656 Z-7.625
G1 X143.516 Y38.930 Z-7.625
G1 X143.556 Y38.204 Z-7.625
G1 X143.580 Y37.477 Z-7.625
G1 X143.587 Y36.750 Z-7.625
G1 X143.587 Y6.000 Z-7.625
G1 X143.580 Y5.797 Z-7.625
G1 X143.556 Y5.595 Z-7.625
G1 X143.516 Y5.396 Z-7.625
G1 X143.461 Y5.200 Z-7.625
G1 X143.391 Y5.010 Z-7.625
G1 X143.305 Y4.825 Z-7.625
G1 X143.206 Y4.648 Z-7.625
G1 X143.093 Y4.479 Z-7.625
G1 X142.968 Y4.320 Z-7.625
G1 X142.830 Y4.170 Z-7.625
G1 X142.680 Y4.032 Z-7.625
G1 X142.521 Y3.907 Z-7.625
G1 X142.352 Y3.794 Z-7.625
G1 X142.175 Y3.695 Z-7.625
G1 X141.990 Y3.609 Z-7.625
G1 X141.800 Y3.539 Z-7.625
G1 X141.604 Y3.484 Z-7.625
G1 X141.405 Y3.444 Z-7.625
G1 X141.203 Y3.420 Z-7.625
G1 X141.000 Y3.412 Z-7.625
G1 X79.500 Y3.412 Z-7.625
G1 X79.299 Y3.420 Z-7.625
G1 X79.099 Y3.444 Z-7.625
G1 X78.901 Y3.483 Z-7.625
G1 X78.707 Y3.537 Z-7.625
G1 X78.518 Y3.606 Z-7.625
G1 X78.335 Y3.690 Z-7.625
G1 X78.158 Y3.787 Z-7.625
G1 X77.990 Y3.899 Z-7.625
G1 X77.831 Y4.022 Z-7.625
G1 X77.683 Y4.158 Z-7.625
G1 X77.545 Y4.305 Z-7.625
G1 X77.419 Y4.462 Z-7.625
G1 X77.306 Y4.629 Z-7.625
G1 X77.206 Y4.804 Z-7.625
G1 X77.120 Y4.986 Z-7.625
G1 X77.048 Y5.174 Z-7.625
G1 X76.991 Y5.367 Z-7.625
G1 X76.949 Y5.564 Z-7.625
G1 X76.923 Y5.764 Z-7.625
G1 X76.913 Y5.965 Z-7.625
G1 X76.904 Y6.036 Z-7.625
G1 X76.879 Y6.103 Z-7.625
G1 X76.841 Y6.162 Z-7.625
G1 X76.790 Y6.212 Z-7.625
G1 X76.729 Y6.249 Z-7.625
G1 X76.662 Y6.271 Z-7.625
G1 X76.591 Y6.278 Z-7.625
G1 X76.274 Y6.274 Z-7.625
G1 X76.203 Y6.273 Z-7.617
G1 X76.136 Y6.272 Z-7.594
G1 X76.076 Y6.272 Z-7.556
G1 X76.025 Y6.271 Z-7.505
G1 X75.987 Y6.270 Z-7.445
G1 X75.964 Y6.270 Z-7.378
G1 X75.956 Y6.270 Z-7.308
G1 X75.956 Y6.270 Z5.000
G1 X75.965 Y5.635 Z5.000
G1 X75.965 Y5.635 Z-2.390
G1 X75.965 Y5.635 Z-8.933
G1 X75.973 Y5.635 Z-9.003
G1 X75.996 Y5.635 Z-9.070
G1 X76.034 Y5.636 Z-9.130
G1 X76.084 Y5.637 Z-9.181
G1 X76.144 Y5.637 Z-9.219
G1 X76.211 Y5.638 Z-9.242
G1 X76.282 Y5.639 Z-9.250
G1 X76.600 Y5.644 Z-9.250
G1 X76.670 Y5.652 Z-9.250
G1 X76.737 Y5.677 Z-9.250
G1 X76.797 Y5.715 Z-9.250
G1 X76.846 Y5.766 Z-9.250
G1 X76.883 Y5.827 Z-9.250
G1 X76.906 Y5.895 Z-9.250
G1 X76.913 Y5.965 Z-9.250
G1 X76.912 Y6.000 Z-9.250
G1 X76.912 Y15.372 Z-9.250
G1 X76.912 Y15.372 Z-8.456
G1 X76.912 Y21.722 Z-8.456
G1 X76.912 Y21.722 Z-9.250
G1 X76.912 Y36.750 Z-9.250
G1 X76.919 Y37.419 Z-9.250
G1 X76.939 Y38.087 Z-9.250
G1 X76.973 Y38.755 Z-9.250
G1 X77.020 Y39.422 Z-9.250
G1 X77.080 Y40.088 Z-9.250
G1 X77.154 Y40.752 Z-9.250
G1 X77.241 Y41.415 Z-9.250
G1 X77.341 Y42.076 Z-9.250
G1 X77.454 Y42.735 Z-9.250
G1 X77.581 Y43.391 Z-9.250
G1 X77.721 Y44.045 Z-9.250
G1 X77.721 Y44.045 Z-8.456
G1 X77.882 Y44.733 Z-8.456
G1 X78.059 Y45.417 Z-8.456
G1 X78.250 Y46.098 Z-8.456
G1 X78.455 Y46.774 Z-8.456
G1 X78.675 Y47.445 Z-8.456
G1 X78.909 Y48.112 Z-8.456
G1 X79.156 Y48.774 Z-8.456
G1 X79.418 Y49.430 Z-8.456
G1 X79.694 Y50.081 Z-8.456
G1 X79.694 Y50.081 Z-9.250
G1 X79.992 Y50.745 Z-9.250
G1 X80.305 Y51.402 Z-9.250
G1 X80.632 Y52.052 Z-9.250
G1 X80.973 Y52.695 Z-9.250
G1 X81.328 Y53.330 Z-9.250
G1 X81.697 Y53.958 Z-9.250
G1 X82.079 Y54.577 Z-9.250
G1 X82.475 Y55.187 Z-9.250
G1 X82.884 Y55.789 Z-9.250
G1 X83.306 Y56.382 Z-9.250
G1 X83.741 Y56.966 Z-9.250
G1 X84.189 Y57.539 Z-9.250
G1 X84.649 Y58.103 Z-9.250
G1 X85.121 Y58.657 Z-9.250
G1 X85.605 Y59.200 Z-9.250
G1 X86.101 Y59.733 Z-9.250
G1 X86.608 Y60.255 Z-9.250
G1 X87.127 Y60.765 Z-9.250
G1 X87.657 Y61.264 Z-9.250
G1 X88.197 Y61.751 Z-9.250
G1 X88.748 Y62.227 Z-9.250
G1 X89.310 Y62.690 Z-9.250
G1 X89.881 Y63.141 Z-9.250
G1 X90.462 Y63.579 Z-9.250
G1 X91.052 Y64.005 Z-9.250
G1 X91.652 Y64.417 Z-9.250
G1 X92.260 Y64.817 Z-9.250
G1 X92.877 Y65.203 Z-9.250
G1 X93.502 Y65.575 Z-9.250
G1 X94.135 Y65.934 Z-9.250
G1 X94.776 Y66.279 Z-9.250
G1 X95.424 Y66.609 Z-9.250
G1 X95.424 Y66.609 Z-8.456
G1 X96.061 Y66.917 Z-8.456
G1 X96.703 Y67.211 Z-8.456
G1 X97.352 Y67.491 Z-8.456
G1 X98.006 Y67.758 Z-8.456
G1 X98.666 Y68.010 Z-8.456
G1 X99.331 Y68.249 Z-8.456
G1 X100.001 Y68.473 Z-8.456
G1 X100.676 Y68.683 Z-8.456
G1 X101.355 Y68.879 Z-8.456
G1 X101.355 Y68.879 Z-9.250
G1 X102.058 Y69.065 Z-9.250
G1 X102.766 Y69.237 Z-9.250
G1 X103.477 Y69.392 Z-9.250
G1 X104.191 Y69.532 Z-9.250
G1 X104.908 Y69.657 Z-9.250
G1 X105.627 Y69.765 Z-9.250
G1 X106.349 Y69.858 Z-9.250
G1 X107.073 Y69.936 Z-9.250
G1 X107.798 Y69.997 Z-9.250
G1 X108.524 Y70.043 Z-9.250
G1 X109.251 Y70.073 Z-9.250
G1 X109.979 Y70.086 Z-9.250
G1 X110.707 Y70.084 Z-9.250
G1 X111.434 Y70.066 Z-9.250
G1 X112.161 Y70.033 Z-9.250
G1 X112.887 Y69.983 Z-9.250
G1 X113.612 Y69.918 Z-9.250
G1 X114.335 Y69.836 Z-9.250
G1 X115.057 Y69.739 Z-9.250
G1 X115.776 Y69.626 Z-9.250
G1 X116.492 Y69.498 Z-9.250
G1 X117.205 Y69.354 Z-9.250
G1 X117.915 Y69.194 Z-9.250
G1 X118.622 Y69.019 Z-9.250
G1 X119.324 Y68.829 Z-9.250
G1 X120.022 Y68.623 Z-9.250
G1 X120.716 Y68.402 Z-9.250
G1 X121.404 Y68.166 Z-9.250
G1 X122.087 Y67.915 Z-9.250
G1 X122.765 Y67.649 Z-9.250
G1 X123.436 Y67.369 Z-9.250
G1 X124.101 Y67.074 Z-9.250
G1 X124.101 Y67.074 Z-8.456
G1 X124.741 Y66.773 Z-8.456
G1 X125.374 Y66.460 Z-8.456
G1 X126.000 Y66.132 Z-8.456
G1 X126.619 Y65.792 Z-8.456
G1 X127.231 Y65.438 Z-8.456
G1 X127.835 Y65.072 Z-8.456
G1 X128.432 Y64.693 Z-8.456
G1 X129.020 Y64.301 Z-8.456
G1 X129.600 Y63.897 Z-8.456
G1 X129.600 Y63.897 Z-9.250
G1 X130.188 Y63.469 Z-9.250
G1 X130.766 Y63.027 Z-9.250
G1 X131.335 Y62.573 Z-9.250
G1 X131.893 Y62.107 Z-9.250
G1 X132.442 Y61.628 Z-9.250
G1 X132.979 Y61.138 Z-9.250
G1 X133.506 Y60.636 Z-9.250
G1 X134.022 Y60.123 Z-9.250
G1 X134.527 Y59.598 Z-9.250
G1 X135.020 Y59.063 Z-9.250
G1 X135.501 Y58.517 Z-9.250
G1 X135.970 Y57.960 Z-9.250
G1 X136.427 Y57.394 Z-9.250
G1 X136.871 Y56.818 Z-9.250
G1 X137.303 Y56.232 Z-9.250
G1 X137.721 Y55.637 Z-9.250
G1 X138.127 Y55.033 Z-9.250
G1 X138.520 Y54.420 Z-9.250
G1 X138.899 Y53.799 Z-9.250
G1 X139.264 Y53.169 Z-9.250
G1 X139.615 Y52.532 Z-9.250
G1 X139.953 Y51.887 Z-9.250
G1 X140.276 Y51.235 Z-9.250
G1 X140.585 Y50.576 Z-9.250
G1 X140.880 Y49.911 Z-9.250
G1 X141.160 Y49.239 Z-9.250
G1 X141.425 Y48.562 Z-9.250
G1 X141.675 Y47.878 Z-9.250
G1 X141.911 Y47.190 Z-9.250
G1 X142.131 Y46.496 Z-9.250
G1 X142.336 Y45.798 Z-9.250
G1 X142.526 Y45.096 Z-9.250
G1 X142.526 Y45.096 Z-8.456
G1 X142.696 Y44.410 Z-8.456
G1 X142.851 Y43.720 Z-8.456
G1 X142.991 Y43.028 Z-8.456
G1 X143.117 Y42.332 Z-8.456
G1 X143.228 Y41.634 Z-8.456
G1 X143.324 Y40.934 Z-8.456
G1 X143.405 Y40.232 Z-8.456
G1 X143.471 Y39.529 Z-8.456
G1 X143.523 Y38.824 Z-8.456
G1 X143.523 Y38.824 Z-9.250
G1 X143.559 Y38.133 Z-9.250
G1 X143.580 Y37.442 Z-9.250
G1 X143.587 Y36.750 Z-9.250
G1 X143.587 Y16.694 Z-9.250
G1 X143.587 Y16.694 Z-8.456
G1 X143.587 Y10.344 Z-8.456
G1 X143.587 Y10.344 Z-9.250
G1 X143.587 Y6.000 Z-9.250
G1 X143.580 Y5.797 Z-9.250
G1 X143.556 Y5.595 Z-9.250
G1 X143.516 Y5.396 Z-9.250
G1 X143.461 Y5.200 Z-9.250
G1 X143.391 Y5.010 Z-9.250
G1 X143.305 Y4.825 Z-9.250
G1 X143.206 Y4.648 Z-9.250
G1 X143.093 Y4.479 Z-9.250
G1 X142.968 Y4.320 Z-9.250
G1 X142.830 Y4.170 Z-9.250
G1 X142.680 Y4.032 Z-9.250
G1 X142.521 Y3.907 Z-9.250
G1 X142.352 Y3.794 Z-9.250
G1 X142.175 Y3.695 Z-9.250
G1 X141.990 Y3.609 Z-9.250
G1 X141.800 Y3.539 Z-9.250
G1 X141.604 Y3.484 Z-9.250
G1 X141.405 Y3.444 Z-9.250
G1 X141.203 Y3.420 Z-9.250
G1 X141.000 Y3.412 Z-9.250
G1 X125.029 Y3.412 Z-9.250
G1 X125.029 Y3.412 Z-8.456
G1 X118.679 Y3.412 Z-8.456
G1 X118.679 Y3.412 Z-9.250
G1 X96.793 Y3.412 Z-9.250
G1 X96.793 Y3.412 Z-8.456
G1 X90.443 Y3.412 Z-8.456
G1 X90.443 Y3.412 Z-9.250
G1 X79.500 Y3.412 Z-9.250
G1 X79.299 Y3.420 Z-9.250
G1 X79.099 Y3.444 Z-9.250
G1 X78.901 Y3.483 Z-9.250
G1 X78.707 Y3.537 Z-9.250
G1 X78.518 Y3.606 Z-9.250
G1 X78.335 Y3.690 Z-9.250
G1 X78.158 Y3.787 Z-9.250
G1 X77.990 Y3.899 Z-9.250
G1 X77.831 Y4.022 Z-9.250
G1 X77.683 Y4.158 Z-9.250
G1 X77.545 Y4.305 Z-9.250
G1 X77.419 Y4.462 Z-9.250
G1 X77.306 Y4.629 Z-9.250
G1 X77.206 Y4.804 Z-9.250
G1 X77.120 Y4.986 Z-9.250
G1 X77.048 Y5.174 Z-9.250
G1 X76.991 Y5.367 Z-9.250
G1 X76.949 Y5.564 Z-9.250
G1 X76.923 Y5.764 Z-9.250
G1 X76.913 Y5.965 Z-9.250
G1 X76.904 Y6.036 Z-9.250
G1 X76.879 Y6.103 Z-9.250
G1 X76.841 Y6.162 Z-9.250
G1 X76.790 Y6.212 Z-9.250
G1 X76.729 Y6.249 Z-9.250
G1 X76.662 Y6.271 Z-9.250
G1 X76.591 Y6.278 Z-9.250
G1 X76.274 Y6.274 Z-9.250
G1 X76.203 Y6.273 Z-9.242
G1 X76.136 Y6.272 Z-9.219
G1 X76.076 Y6.272 Z-9.181
G1 X76.025 Y6.271 Z-9.130
G1 X75.987 Y6.270 Z-9.070
G1 X75.964 Y6.270 Z-9.003
G1 X75.956 Y6.270 Z-8.933
G1 X75.956 Y6.270 Z15.000
M400
M5
G4 S3
G0 Z334.000
